;Generated with Cura_SteamEngine 15.01
; Default start code
G28 ; Home extruder
G1 Z15 F500
M107 ; Turn off fan
G90 ; Absolute positioning
M82 ; Extruder in absolute mode
M190 S50
; Activate all used extruder
M104 T0 S195
G92 E0 ; Reset extruder position
; Wait for all used extruders to reach temperature
M109 T0 S195
;Layer count: 140
;LAYER:0
M107
G0 F5400 X14.667 Y39.667 Z0.300
;TYPE:SKIRT
G1 F1800 X25.333 Y39.667 E0.88599
G1 X25.333 Y49.167 E1.67513
G1 X39.167 Y49.167 E2.82428
G1 X39.167 Y39.667 E3.61342
G1 X88.867 Y39.667 E7.74186
G1 X88.867 Y39.367 E7.76678
G1 X105.833 Y39.367 E9.17610
G1 X105.833 Y60.833 E10.95922
G1 X88.867 Y60.833 E12.36854
G1 X88.867 Y60.333 E12.41007
G1 X14.667 Y60.333 E18.57366
G1 X14.667 Y39.667 E20.29032
G1 F240 E16.29032
G0 F5400 X19.665 Y44.665
;TYPE:WALL-INNER
G1 F240 E20.29032
G1 F1800 X20.335 Y44.665 E20.34598
G1 X20.335 Y54.165 E21.13512
G1 X44.165 Y54.165 E23.11461
G1 X44.165 Y44.665 E23.90375
G1 X89.588 Y44.665 E27.67691
G1 X89.588 Y55.335 E28.56323
G1 X19.665 Y55.335 E34.37154
G1 X19.665 Y44.665 E35.25787
G0 F5400 X21.193 Y53.307
G0 X43.307 Y53.307
G0 X82.467 Y49.510
G1 F1800 X82.427 Y50.020 E35.30036
G1 X82.491 Y50.646 E35.35263
G1 X82.599 Y51.073 E35.38922
G1 X82.707 Y51.368 E35.41532
G1 X82.796 Y51.566 E35.43335
G1 X83.066 Y52.026 E35.47765
G1 X83.255 Y52.277 E35.50375
G1 X83.638 Y52.673 E35.54952
G1 X83.900 Y52.882 E35.57736
G1 X84.084 Y53.008 E35.59588
G1 X84.548 Y53.256 E35.63958
G1 X84.861 Y53.381 E35.66758
G1 X85.229 Y53.483 E35.69930
G1 X85.712 Y53.556 E35.73988
G1 X86.129 Y53.567 E35.77453
G1 X86.774 Y53.486 E35.82853
G1 X87.286 Y53.328 E35.87304
G1 X87.626 Y53.174 E35.90404
G1 X87.933 Y52.997 E35.93348
G1 X88.206 Y52.801 E35.96140
G1 X88.375 Y52.660 E35.97968
G1 X88.614 Y52.426 E36.00746
G1 X88.831 Y52.168 E36.03547
G1 X88.959 Y51.989 E36.05375
G1 X89.211 Y51.548 E36.09594
G1 X89.292 Y51.368 E36.11234
G1 X89.455 Y50.880 E36.15507
G1 X89.546 Y50.374 E36.19778
G1 X89.568 Y49.943 E36.23363
G1 X89.504 Y49.311 E36.28640
G1 X89.354 Y48.778 E36.33239
G1 X89.109 Y48.236 E36.38180
G1 X88.530 Y47.470 E36.46156
G1 X87.969 Y47.022 E36.52120
G1 X87.570 Y46.794 E36.55937
G1 X86.835 Y46.525 E36.62439
G1 X86.287 Y46.443 E36.67041
G1 X85.847 Y46.432 E36.70697
G1 X85.094 Y46.546 E36.77024
G1 X84.678 Y46.685 E36.80667
G1 X84.235 Y46.899 E36.84754
G1 X83.934 Y47.092 E36.87724
G1 X83.760 Y47.225 E36.89543
G1 X83.510 Y47.445 E36.92309
G1 X83.144 Y47.863 E36.96925
G1 X82.857 Y48.314 E37.01365
G1 X82.649 Y48.779 E37.05597
G1 X82.507 Y49.275 E37.09882
G1 X82.467 Y49.510 E37.11862
G0 F5400 X83.129 Y49.592
G1 F1800 X83.096 Y50.012 E37.15362
G1 X83.149 Y50.538 E37.19753
G1 X83.233 Y50.868 E37.22582
G1 X83.393 Y51.269 E37.26168
G1 X83.612 Y51.644 E37.29776
G1 X83.771 Y51.854 E37.31964
G1 X83.883 Y51.982 E37.33377
G1 X84.080 Y52.174 E37.35662
G1 X84.438 Y52.443 E37.39381
G1 X84.816 Y52.646 E37.42946
G1 X85.074 Y52.749 E37.45253
G1 X85.368 Y52.831 E37.47789
G1 X85.771 Y52.891 E37.51173
G1 X86.096 Y52.900 E37.53874
G1 X86.633 Y52.832 E37.58370
G1 X87.049 Y52.704 E37.61986
G1 X87.322 Y52.580 E37.64476
G1 X87.572 Y52.437 E37.66869
G1 X87.928 Y52.166 E37.70585
G1 X88.125 Y51.972 E37.72882
G1 X88.403 Y51.622 E37.76595
G1 X88.540 Y51.397 E37.78783
G1 X88.675 Y51.116 E37.81373
G1 X88.844 Y50.561 E37.86192
G1 X88.884 Y50.300 E37.88385
G1 X88.901 Y49.966 E37.91163
G1 X88.847 Y49.436 E37.95589
G1 X88.726 Y49.007 E37.99291
G1 X88.532 Y48.578 E38.03202
G1 X88.049 Y47.939 E38.09856
G1 X87.593 Y47.574 E38.14708
G1 X87.289 Y47.400 E38.17617
G1 X86.670 Y47.174 E38.23091
G1 X86.228 Y47.108 E38.26804
G1 X85.888 Y47.099 E38.29629
G1 X85.250 Y47.196 E38.34989
G1 X84.929 Y47.303 E38.37800
G1 X84.561 Y47.481 E38.41196
G1 X84.317 Y47.638 E38.43606
G1 X83.975 Y47.922 E38.47299
G1 X83.681 Y48.258 E38.51007
G1 X83.447 Y48.625 E38.54623
G1 X83.333 Y48.861 E38.56800
G1 X83.225 Y49.155 E38.59402
G1 X83.129 Y49.592 E38.63118
G0 F5400 X84.394 Y47.747
G0 X90.254 Y43.999
G1 F1800 X90.254 Y56.001 E39.62816
G1 X18.999 Y56.001 E45.54711
G1 X18.999 Y43.999 E46.54408
G1 X21.001 Y43.999 E46.71038
G1 X21.001 Y53.499 E47.49952
G1 X43.499 Y53.499 E49.36836
G1 X43.499 Y43.999 E50.15750
G1 X90.254 Y43.999 E54.04131
G0 F5400 X90.920 Y43.333
;TYPE:WALL-OUTER
G1 F1800 X90.920 Y56.667 E55.14893
G1 X18.333 Y56.667 E61.17852
G1 X18.333 Y43.333 E62.28614
G1 X21.667 Y43.333 E62.56309
G1 X21.667 Y52.833 E63.35223
G1 X42.833 Y52.833 E65.11043
G1 X42.833 Y43.333 E65.89957
G1 X90.920 Y43.333 E69.89402
G0 F5400 X90.577 Y43.766
G0 X87.487 Y47.789
G0 X87.218 Y48.127
G1 F1800 X87.007 Y48.006 E69.91422
G1 X86.505 Y47.823 E69.95861
G1 X86.170 Y47.773 E69.98674
G1 X85.930 Y47.766 E70.00669
G1 X85.407 Y47.846 E70.05064
G1 X85.180 Y47.922 E70.07052
G1 X84.887 Y48.063 E70.09753
G1 X84.604 Y48.256 E70.12599
G1 X84.440 Y48.400 E70.14411
G1 X84.217 Y48.654 E70.17219
G1 X84.096 Y48.832 E70.19007
G1 X83.944 Y49.128 E70.21771
G1 X83.864 Y49.344 E70.23684
G1 X83.790 Y49.675 E70.26502
G1 X83.765 Y50.004 E70.29243
G1 X83.808 Y50.430 E70.32799
G1 X83.867 Y50.663 E70.34796
G1 X83.990 Y50.972 E70.37558
G1 X84.157 Y51.261 E70.40331
G1 X84.366 Y51.522 E70.43109
G1 X84.521 Y51.674 E70.44912
G1 X84.792 Y51.878 E70.47730
G1 X85.084 Y52.036 E70.50487
G1 X85.287 Y52.117 E70.52303
G1 X85.507 Y52.178 E70.54199
G1 X85.829 Y52.226 E70.56904
G1 X86.063 Y52.233 E70.58848
G1 X86.492 Y52.179 E70.62440
G1 X86.812 Y52.080 E70.65223
G1 X87.018 Y51.987 E70.67100
G1 X87.211 Y51.876 E70.68949
G1 X87.481 Y51.671 E70.71765
G1 X87.636 Y51.519 E70.73569
G1 X87.847 Y51.254 E70.76383
G1 X88.011 Y50.969 E70.79114
G1 X88.058 Y50.864 E70.80070
G1 X88.189 Y50.438 E70.83772
G1 X88.230 Y50.112 E70.86501
G1 X88.234 Y49.989 E70.87523
G1 X88.190 Y49.561 E70.91097
G1 X88.099 Y49.236 E70.93901
G1 X87.956 Y48.920 E70.96782
G1 X87.568 Y48.407 E71.02125
G1 X87.218 Y48.127 E71.05848
G1 F240 E67.05848
G0 F5400 X87.485 Y46.514
;TYPE:SKIN
G1 F240 E71.05848
G1 F1800 X85.870 Y44.899 E71.24820
G0 F5400 X84.928 Y44.899
G1 F1800 X86.237 Y46.208 E71.40198
G0 F5400 X85.356 Y46.268
G1 F1800 X83.986 Y44.899 E71.56286
G0 F5400 X83.044 Y44.899
G1 F1800 X84.606 Y46.461 E71.74636
G0 F5400 X83.984 Y46.780
G1 F1800 X82.102 Y44.899 E71.96738
G0 F5400 X81.161 Y44.899
G1 F1800 X83.447 Y47.185 E72.23593
G0 F5400 X82.996 Y47.676
G1 F1800 X80.219 Y44.899 E72.56216
G0 F5400 X79.277 Y44.899
G1 F1800 X82.628 Y48.250 E72.95582
G0 F5400 X82.363 Y48.926
G1 F1800 X78.335 Y44.899 E73.42895
G0 F5400 X77.393 Y44.899
G1 F1800 X82.215 Y49.720 E73.99535
G0 F5400 X82.265 Y50.712
G1 F1800 X76.451 Y44.899 E74.67829
G0 F5400 X75.509 Y44.899
G1 F1800 X85.711 Y55.100 E75.87671
G0 F5400 X84.769 Y55.100
G1 F1800 X74.567 Y44.899 E77.07513
G0 F5400 X73.626 Y44.899
G1 F1800 X83.827 Y55.100 E78.27349
G0 F5400 X82.885 Y55.100
G1 F1800 X72.684 Y44.899 E79.47185
G0 F5400 X71.742 Y44.899
G1 F1800 X81.943 Y55.100 E80.67021
G0 F5400 X81.001 Y55.100
G1 F1800 X70.800 Y44.899 E81.86857
G0 F5400 X69.858 Y44.899
G1 F1800 X80.060 Y55.100 E83.06699
G1 F240 E79.06699
G0 F5400 X85.279 Y53.727
G1 F240 E83.06699
G1 F1800 X86.653 Y55.100 E83.22834
G0 F5400 X87.594 Y55.100
G1 F1800 X86.279 Y53.785 E83.38282
G0 F5400 X87.074 Y53.638
G1 F1800 X88.536 Y55.100 E83.55456
G0 F5400 X89.353 Y54.975
G1 F1800 X87.750 Y53.372 E83.74288
G0 F5400 X88.324 Y53.004
G1 F1800 X89.353 Y54.033 E83.86376
G0 F5400 X89.353 Y53.091
G1 F1800 X89.026 Y52.294 E83.92726
G1 X89.353 Y52.149 E83.95697
G1 F240 E79.95697
G0 F5400 X89.353 Y47.440
G1 F240 E83.95697
G1 F1800 X86.812 Y44.899 E84.25548
G0 F5400 X87.754 Y44.899
G1 F1800 X89.353 Y46.498 E84.44332
G0 F5400 X89.353 Y45.556
G1 F1800 X88.695 Y44.899 E84.52056
G1 F240 E80.52056
G0 F5400 X79.118 Y55.100
G1 F240 E84.52056
G1 F1800 X68.916 Y44.899 E85.71898
G0 F5400 X67.974 Y44.899
G1 F1800 X78.176 Y55.100 E86.91740
G0 F5400 X77.234 Y55.100
G1 F1800 X67.033 Y44.899 E88.11576
G0 F5400 X66.091 Y44.899
G1 F1800 X76.292 Y55.100 E89.31412
G0 F5400 X75.350 Y55.100
G1 F1800 X65.149 Y44.899 E90.51248
G0 F5400 X64.207 Y44.899
G1 F1800 X74.408 Y55.100 E91.71084
G0 F5400 X73.466 Y55.100
G1 F1800 X63.265 Y44.899 E92.90920
G0 F5400 X62.323 Y44.899
G1 F1800 X72.525 Y55.100 E94.10761
G0 F5400 X71.583 Y55.100
G1 F1800 X61.381 Y44.899 E95.30603
G0 F5400 X60.439 Y44.899
G1 F1800 X70.641 Y55.100 E96.50445
G0 F5400 X69.699 Y55.100
G1 F1800 X59.498 Y44.899 E97.70281
G0 F5400 X58.556 Y44.899
G1 F1800 X68.757 Y55.100 E98.90117
G0 F5400 X67.815 Y55.100
G1 F1800 X57.614 Y44.899 E100.09953
G0 F5400 X56.672 Y44.899
G1 F1800 X66.873 Y55.100 E101.29789
G0 F5400 X65.932 Y55.100
G1 F1800 X55.730 Y44.899 E102.49631
G0 F5400 X54.788 Y44.899
G1 F1800 X64.990 Y55.100 E103.69473
G0 F5400 X64.048 Y55.100
G1 F1800 X53.846 Y44.899 E104.89315
G0 F5400 X52.905 Y44.899
G1 F1800 X63.106 Y55.100 E106.09151
G0 F5400 X62.164 Y55.100
G1 F1800 X51.963 Y44.899 E107.28987
G0 F5400 X51.021 Y44.899
G1 F1800 X61.222 Y55.100 E108.48823
G0 F5400 X60.280 Y55.100
G1 F1800 X50.079 Y44.899 E109.68659
G0 F5400 X49.137 Y44.899
G1 F1800 X59.338 Y55.100 E110.88495
G0 F5400 X58.397 Y55.100
G1 F1800 X48.195 Y44.899 E112.08336
G0 F5400 X47.253 Y44.899
G1 F1800 X57.455 Y55.100 E113.28178
G0 F5400 X56.513 Y55.100
G1 F1800 X46.311 Y44.899 E114.48020
G0 F5400 X45.370 Y44.899
G1 F1800 X55.571 Y55.100 E115.67856
G0 F5400 X54.629 Y55.100
G1 F1800 X44.428 Y44.899 E116.87692
G0 F5400 X44.398 Y45.811
G1 F1800 X53.687 Y55.100 E117.96814
G0 F5400 X52.745 Y55.100
G1 F1800 X44.398 Y46.753 E118.94871
G0 F5400 X44.398 Y47.695
G1 F1800 X51.804 Y55.100 E119.81866
G0 F5400 X50.862 Y55.100
G1 F1800 X44.398 Y48.636 E120.57802
G0 F5400 X44.398 Y49.578
G1 F1800 X49.920 Y55.100 E121.22672
G0 F5400 X48.978 Y55.100
G1 F1800 X44.398 Y50.520 E121.76475
G0 F5400 X44.398 Y51.462
G1 F1800 X48.036 Y55.100 E122.19212
G0 F5400 X47.094 Y55.100
G1 F1800 X44.398 Y52.404 E122.50884
G0 F5400 X44.398 Y53.346
G1 F1800 X46.152 Y55.100 E122.71489
G0 F5400 X45.210 Y55.100
G1 F1800 X44.333 Y54.694 E122.81023
G1 X43.446 Y54.749 E122.89270
G1 X42.505 Y54.749 E122.97509
G1 X41.563 Y54.749 E123.05745
G1 X40.621 Y54.749 E123.13981
G1 X39.679 Y54.749 E123.22218
G1 X38.737 Y54.749 E123.30454
G1 X37.795 Y54.749 E123.38690
G1 X36.853 Y54.749 E123.46938
G1 X35.912 Y54.749 E123.55177
G1 X34.970 Y54.749 E123.63413
G1 X34.028 Y54.749 E123.71649
G1 X33.086 Y54.749 E123.79885
G1 X32.144 Y54.749 E123.88121
G1 X31.202 Y54.749 E123.96358
G1 X30.260 Y54.749 E124.04594
G1 X29.318 Y54.749 E124.12842
G1 X28.377 Y54.749 E124.21081
G1 X27.435 Y54.749 E124.29317
G1 X26.493 Y54.749 E124.37553
G1 X25.551 Y54.749 E124.45789
G1 X24.609 Y54.749 E124.54025
G1 X23.667 Y54.749 E124.62262
G1 X22.725 Y54.749 E124.70509
G1 X21.784 Y54.749 E124.78749
G1 X20.842 Y54.749 E124.86985
G1 X19.999 Y53.907 E124.96644
G1 X19.999 Y52.965 E124.98994
G1 X19.999 Y52.023 E125.01344
G1 X19.999 Y51.081 E125.03694
G1 X19.999 Y50.139 E125.06044
G1 X19.999 Y49.197 E125.08393
G1 X19.999 Y48.255 E125.10743
G1 X19.999 Y47.314 E125.13102
G1 X19.999 Y46.372 E125.15452
G1 X19.999 Y45.430 E125.17802
G1 X19.938 Y44.898 E125.22250
G1 F240 E121.22250
G0 F5400 X92.200 Y42.700
;TYPE:SUPPORT
G1 F240 E125.22250
G1 F1800 X102.500 Y42.700 E126.07809
G1 X102.500 Y57.500 E127.30749
G1 X92.200 Y57.500 E128.16308
G1 X92.200 Y42.700 E129.39247
G0 F5400 X93.331 Y42.601
G1 F1800 X93.331 Y57.599 E130.63832
;LAYER:1
M106 S30
G1 F240 E126.63832
G0 F5400 X90.533 Y55.335 Z0.500
;TYPE:WALL-INNER
G1 F240 E130.63832
G1 F2220 X19.665 Y55.335 E134.56285
G1 X19.665 Y44.665 E135.15374
G1 X20.335 Y44.665 E135.19084
G1 X20.335 Y54.165 E135.71693
G1 X44.165 Y54.165 E137.03659
G1 X44.165 Y44.665 E137.56269
G1 X90.532 Y44.665 E140.13040
G1 X90.533 Y55.335 E140.72129
G0 F5400 X88.463 Y52.583
G1 F2220 X88.761 Y52.261 E140.74558
G1 X89.103 Y51.759 E140.77922
G1 X89.230 Y51.510 E140.79470
G1 X89.395 Y51.093 E140.81954
G1 X89.499 Y50.685 E140.84285
G1 X89.548 Y50.357 E140.86122
G1 X89.569 Y49.960 E140.88323
G1 X89.500 Y49.267 E140.92180
G1 X89.235 Y48.484 E140.96758
G1 X88.928 Y47.952 E141.00159
G1 X88.421 Y47.378 E141.04400
G1 X87.882 Y46.965 E141.08161
G1 X87.195 Y46.634 E141.12384
G1 X86.769 Y46.515 E141.14833
G1 X86.285 Y46.443 E141.17543
G1 X85.845 Y46.432 E141.19980
G1 X85.072 Y46.550 E141.24311
G1 X84.548 Y46.739 E141.27395
G1 X84.214 Y46.913 E141.29481
G1 X83.882 Y47.126 E141.31665
G1 X83.381 Y47.569 E141.35369
G1 X82.963 Y48.120 E141.39199
G1 X82.730 Y48.575 E141.42030
G1 X82.586 Y48.966 E141.44337
G1 X82.467 Y49.510 E141.47421
G1 X82.428 Y50.021 E141.50259
G1 X82.491 Y50.646 E141.53738
G1 X82.599 Y51.073 E141.56177
G1 X82.720 Y51.405 E141.58134
G1 X82.972 Y51.897 E141.61195
G1 X83.489 Y52.546 E141.65790
G1 X84.049 Y52.991 E141.69751
G1 X84.511 Y53.242 E141.72663
G1 X84.861 Y53.381 E141.74748
G1 X85.229 Y53.483 E141.76863
G1 X85.712 Y53.556 E141.79568
G1 X86.130 Y53.567 E141.81884
G1 X86.774 Y53.486 E141.85478
G1 X87.305 Y53.322 E141.88556
G1 X87.746 Y53.109 E141.91268
G1 X87.987 Y52.962 E141.92831
G1 X88.463 Y52.583 E141.96201
G0 F5400 X88.008 Y52.093
G1 F2220 X88.239 Y51.845 E141.98078
G1 X88.529 Y51.419 E142.00932
G1 X88.623 Y51.236 E142.02071
G1 X88.763 Y50.880 E142.04189
G1 X88.844 Y50.561 E142.06012
G1 X88.885 Y50.290 E142.07530
G1 X88.902 Y49.976 E142.09271
G1 X88.845 Y49.409 E142.12427
G1 X88.625 Y48.760 E142.16222
G1 X88.384 Y48.342 E142.18894
G1 X87.956 Y47.857 E142.22476
G1 X87.796 Y47.724 E142.23628
G1 X87.540 Y47.540 E142.25374
G1 X86.959 Y47.260 E142.28946
G1 X86.630 Y47.168 E142.30837
G1 X86.227 Y47.108 E142.33094
G1 X85.887 Y47.099 E142.34977
G1 X85.237 Y47.198 E142.38618
G1 X84.816 Y47.351 E142.41099
G1 X84.285 Y47.659 E142.44498
G1 X83.871 Y48.024 E142.47555
G1 X83.529 Y48.475 E142.50689
G1 X83.275 Y49.007 E142.53954
G1 X83.225 Y49.155 E142.54819
G1 X83.129 Y49.593 E142.57302
G1 X83.096 Y50.013 E142.59635
G1 X83.149 Y50.538 E142.62557
G1 X83.233 Y50.868 E142.64443
G1 X83.332 Y51.138 E142.66036
G1 X83.534 Y51.534 E142.68498
G1 X83.963 Y52.071 E142.72304
G1 X84.418 Y52.433 E142.75524
G1 X84.794 Y52.637 E142.77893
G1 X85.074 Y52.749 E142.79563
G1 X85.368 Y52.831 E142.81253
G1 X85.771 Y52.891 E142.83509
G1 X86.097 Y52.900 E142.85315
G1 X86.633 Y52.832 E142.88307
G1 X87.060 Y52.700 E142.90782
G1 X87.427 Y52.523 E142.93039
G1 X87.605 Y52.415 E142.94192
G1 X88.008 Y52.093 E142.97048
G0 F5400 X91.199 Y56.001
G1 F2220 X18.999 Y56.001 E146.96878
G1 X18.999 Y43.999 E147.63343
G1 X21.001 Y43.999 E147.74430
G1 X21.001 Y53.499 E148.27039
G1 X43.499 Y53.499 E149.51629
G1 X43.499 Y43.999 E150.04238
G1 X91.198 Y43.999 E152.68386
G1 X91.199 Y56.001 E153.34851
G0 F5400 X91.865 Y56.667
;TYPE:WALL-OUTER
G1 F2220 X18.333 Y56.667 E157.42057
G1 X18.333 Y43.333 E158.15899
G1 X21.667 Y43.333 E158.34362
G1 X21.667 Y52.833 E158.86971
G1 X42.833 Y52.833 E160.04184
G1 X42.833 Y43.333 E160.56794
G1 X91.864 Y43.333 E163.28318
G1 X91.865 Y56.667 E164.02159
G0 F5400 X91.522 Y56.234
G0 X87.823 Y51.943
G0 X87.554 Y51.604
G1 F2220 X87.716 Y51.429 E164.03480
G1 X87.955 Y51.078 E164.05831
G1 X88.015 Y50.961 E164.06560
G1 X88.131 Y50.667 E164.08310
G1 X88.189 Y50.438 E164.09618
G1 X88.222 Y50.223 E164.10823
G1 X88.234 Y49.992 E164.12104
G1 X88.190 Y49.551 E164.14558
G1 X88.015 Y49.035 E164.17575
G1 X87.841 Y48.733 E164.19505
G1 X87.490 Y48.336 E164.22440
G1 X87.199 Y48.115 E164.24463
G1 X86.723 Y47.885 E164.27391
G1 X86.491 Y47.821 E164.28724
G1 X86.169 Y47.773 E164.30527
G1 X85.929 Y47.766 E164.31856
G1 X85.402 Y47.847 E164.34809
G1 X85.083 Y47.962 E164.36687
G1 X84.688 Y48.192 E164.39218
G1 X84.362 Y48.479 E164.41623
G1 X84.095 Y48.831 E164.44070
G1 X83.945 Y49.124 E164.45893
G1 X83.864 Y49.344 E164.47191
G1 X83.790 Y49.675 E164.49069
G1 X83.765 Y50.005 E164.50902
G1 X83.808 Y50.430 E164.53268
G1 X83.867 Y50.663 E164.54599
G1 X83.943 Y50.871 E164.55825
G1 X84.097 Y51.171 E164.57693
G1 X84.436 Y51.597 E164.60707
G1 X84.787 Y51.876 E164.63191
G1 X85.077 Y52.033 E164.65017
G1 X85.287 Y52.117 E164.66269
G1 X85.507 Y52.178 E164.67534
G1 X85.829 Y52.226 E164.69336
G1 X86.064 Y52.233 E164.70638
G1 X86.492 Y52.179 E164.73027
G1 X86.816 Y52.079 E164.74905
G1 X87.222 Y51.868 E164.77439
G1 X87.554 Y51.604 E164.79788
G1 F240 E160.79788
G0 F5400 X87.215 Y53.593
