;Generated with Cura_SteamEngine 15.01
; Default start code
G28 ; Home extruder
G1 Z15 F500
M107 ; Turn off fan
G90 ; Absolute positioning
M82 ; Extruder in absolute mode
M190 S50
; Activate all used extruder
M104 T0 S195
G92 E0 ; Reset extruder position
; Wait for all used extruders to reach temperature
M109 T0 S195
;Layer count: 140
;LAYER:-2
;RAFT
G0 F5400 X16.000 Y41.000 Z0.300
;TYPE:SUPPORT
G1 F1800 X24.000 Y41.000 E0.59868
G1 X24.000 Y50.500 E1.30962
G1 X40.500 Y50.500 E2.54440
G1 X40.500 Y41.000 E3.25534
G1 X89.200 Y41.000 E6.89982
G1 X89.200 Y40.700 E6.92227
G1 X104.500 Y40.700 E8.06725
G1 X104.500 Y59.500 E9.47415
G1 X89.200 Y59.500 E10.61913
G1 X89.200 Y59.000 E10.65655
G1 X16.000 Y59.000 E16.13449
G1 X16.000 Y41.000 E17.48153
G0 F5400 X16.500 Y40.910
G1 F1800 X16.500 Y59.090 E18.84203
G0 F5400 X17.500 Y59.090
G1 F1800 X17.500 Y40.910 E20.20254
G0 F5400 X18.500 Y40.910
G1 F1800 X18.500 Y59.090 E21.56304
G0 F5400 X19.500 Y59.090
G1 F1800 X19.500 Y40.910 E22.92355
G0 F5400 X20.500 Y40.910
G1 F1800 X20.500 Y59.090 E24.28406
G0 F5400 X21.500 Y59.090
G1 F1800 X21.500 Y40.910 E25.64456
G0 F5400 X22.500 Y40.910
G1 F1800 X22.500 Y59.090 E27.00507
G0 F5400 X23.500 Y59.090
G1 F1800 X23.500 Y40.910 E28.36557
G0 F5400 X24.500 Y50.410
G1 F1800 X24.500 Y59.090 E29.01514
G0 F5400 X25.500 Y59.090
G1 F1800 X25.500 Y50.410 E29.66471
G0 F5400 X26.500 Y50.410
G1 F1800 X26.500 Y59.090 E30.31428
G0 F5400 X27.500 Y59.090
G1 F1800 X27.500 Y50.410 E30.96386
G0 F5400 X28.500 Y50.410
G1 F1800 X28.500 Y59.090 E31.61343
G0 F5400 X29.500 Y59.090
G1 F1800 X29.500 Y50.410 E32.26300
G0 F5400 X30.500 Y50.410
G1 F1800 X30.500 Y59.090 E32.91257
G0 F5400 X31.500 Y59.090
G1 F1800 X31.500 Y50.410 E33.56214
G0 F5400 X32.500 Y50.410
G1 F1800 X32.500 Y59.090 E34.21171
G0 F5400 X33.500 Y59.090
G1 F1800 X33.500 Y50.410 E34.86128
G0 F5400 X34.500 Y50.410
G1 F1800 X34.500 Y59.090 E35.51085
G0 F5400 X35.500 Y59.090
G1 F1800 X35.500 Y50.410 E36.16042
G0 F5400 X36.500 Y50.410
G1 F1800 X36.500 Y59.090 E36.80999
G0 F5400 X37.500 Y59.090
G1 F1800 X37.500 Y50.410 E37.45956
G0 F5400 X38.500 Y50.410
G1 F1800 X38.500 Y59.090 E38.10913
G0 F5400 X39.500 Y59.090
G1 F1800 X39.500 Y50.410 E38.75870
G0 F5400 X40.500 Y59.090
G1 F1800 X40.500 Y40.910 E40.11921
G0 F5400 X41.500 Y40.910
G1 F1800 X41.500 Y59.090 E41.47971
G0 F5400 X42.500 Y59.090
G1 F1800 X42.500 Y40.910 E42.84022
G0 F5400 X43.500 Y40.910
G1 F1800 X43.500 Y59.090 E44.20072
G0 F5400 X44.500 Y59.090
G1 F1800 X44.500 Y40.910 E45.56123
G0 F5400 X45.500 Y40.910
G1 F1800 X45.500 Y59.090 E46.92174
G0 F5400 X46.500 Y59.090
G1 F1800 X46.500 Y40.910 E48.28224
G0 F5400 X47.500 Y40.910
G1 F1800 X47.500 Y59.090 E49.64275
G0 F5400 X48.500 Y59.090
G1 F1800 X48.500 Y40.910 E51.00325
G0 F5400 X49.500 Y40.910
G1 F1800 X49.500 Y59.090 E52.36376
G0 F5400 X50.500 Y59.090
G1 F1800 X50.500 Y40.910 E53.72426
G0 F5400 X51.500 Y40.910
G1 F1800 X51.500 Y59.090 E55.08477
G0 F5400 X52.500 Y59.090
G1 F1800 X52.500 Y40.910 E56.44528
G0 F5400 X53.500 Y40.910
G1 F1800 X53.500 Y59.090 E57.80578
G0 F5400 X54.500 Y59.090
G1 F1800 X54.500 Y40.910 E59.16629
G0 F5400 X55.500 Y40.910
G1 F1800 X55.500 Y59.090 E60.52679
G0 F5400 X56.500 Y59.090
G1 F1800 X56.500 Y40.910 E61.88730
G0 F5400 X57.500 Y40.910
G1 F1800 X57.500 Y59.090 E63.24781
G0 F5400 X58.500 Y59.090
G1 F1800 X58.500 Y40.910 E64.60831
G0 F5400 X59.500 Y40.910
G1 F1800 X59.500 Y59.090 E65.96882
G0 F5400 X60.500 Y59.090
G1 F1800 X60.500 Y40.910 E67.32932
G0 F5400 X61.500 Y40.910
G1 F1800 X61.500 Y59.090 E68.68983
G0 F5400 X62.500 Y59.090
G1 F1800 X62.500 Y40.910 E70.05033
G0 F5400 X63.500 Y40.910
G1 F1800 X63.500 Y59.090 E71.41084
G0 F5400 X64.500 Y59.090
G1 F1800 X64.500 Y40.910 E72.77135
G0 F5400 X65.500 Y40.910
G1 F1800 X65.500 Y59.090 E74.13185
G0 F5400 X66.500 Y59.090
G1 F1800 X66.500 Y40.910 E75.49236
G0 F5400 X67.500 Y40.910
G1 F1800 X67.500 Y59.090 E76.85286
G0 F5400 X68.500 Y59.090
G1 F1800 X68.500 Y40.910 E78.21337
G0 F5400 X69.500 Y40.910
G1 F1800 X69.500 Y59.090 E79.57388
G0 F5400 X70.500 Y59.090
G1 F1800 X70.500 Y40.910 E80.93438
G0 F5400 X71.500 Y40.910
G1 F1800 X71.500 Y59.090 E82.29489
G0 F5400 X72.500 Y59.090
G1 F1800 X72.500 Y40.910 E83.65539
G0 F5400 X73.500 Y40.910
G1 F1800 X73.500 Y59.090 E85.01590
G0 F5400 X74.500 Y59.090
G1 F1800 X74.500 Y40.910 E86.37640
G0 F5400 X75.500 Y40.910
G1 F1800 X75.500 Y59.090 E87.73691
G0 F5400 X76.500 Y59.090
G1 F1800 X76.500 Y40.910 E89.09742
G0 F5400 X77.500 Y40.910
G1 F1800 X77.500 Y59.090 E90.45792
G0 F5400 X78.500 Y59.090
G1 F1800 X78.500 Y40.910 E91.81843
G0 F5400 X79.500 Y40.910
G1 F1800 X79.500 Y59.090 E93.17893
G0 F5400 X80.500 Y59.090
G1 F1800 X80.500 Y40.910 E94.53944
G0 F5400 X81.500 Y40.910
G1 F1800 X81.500 Y59.090 E95.89995
G0 F5400 X82.500 Y59.090
G1 F1800 X82.500 Y40.910 E97.26045
G0 F5400 X83.500 Y40.910
G1 F1800 X83.500 Y59.090 E98.62096
G0 F5400 X84.500 Y59.090
G1 F1800 X84.500 Y40.910 E99.98146
G0 F5400 X85.500 Y40.910
G1 F1800 X85.500 Y59.090 E101.34197
G0 F5400 X86.500 Y59.090
G1 F1800 X86.500 Y40.910 E102.70247
G0 F5400 X87.500 Y40.910
G1 F1800 X87.500 Y59.090 E104.06298
G0 F5400 X88.500 Y59.090
G1 F1800 X88.500 Y40.910 E105.42349
G0 F5400 X89.500 Y40.610
G1 F1800 X89.500 Y59.590 E106.84386
G0 F5400 X90.500 Y59.590
G1 F1800 X90.500 Y40.610 E108.26423
G0 F5400 X91.500 Y40.610
G1 F1800 X91.500 Y59.590 E109.68461
G0 F5400 X92.500 Y59.590
G1 F1800 X92.500 Y40.610 E111.10498
G0 F5400 X93.500 Y40.610
G1 F1800 X93.500 Y59.590 E112.52536
G0 F5400 X94.500 Y59.590
G1 F1800 X94.500 Y40.610 E113.94573
G0 F5400 X95.500 Y40.610
G1 F1800 X95.500 Y59.590 E115.36610
G0 F5400 X96.500 Y59.590
G1 F1800 X96.500 Y40.610 E116.78648
G0 F5400 X97.500 Y40.610
G1 F1800 X97.500 Y59.590 E118.20685
G0 F5400 X98.500 Y59.590
G1 F1800 X98.500 Y40.610 E119.62723
G0 F5400 X99.500 Y40.610
G1 F1800 X99.500 Y59.590 E121.04760
G0 F5400 X100.500 Y59.590
G1 F1800 X100.500 Y40.610 E122.46797
G0 F5400 X101.500 Y40.610
G1 F1800 X101.500 Y59.590 E123.88835
G0 F5400 X102.500 Y59.590
G1 F1800 X102.500 Y40.610 E125.30872
G0 F5400 X103.500 Y40.610
G1 F1800 X103.500 Y59.590 E126.72910
G0 F5400 X104.500 Y59.590
G1 F1800 X104.500 Y40.610 E128.14947
M106 S255
;LAYER:-1
;RAFT
G0 F5400 X104.309 Y40.669 Z0.500
;TYPE:SUPPORT
G1 F1800 X104.528 Y40.889 E128.15463
G0 F5400 X104.528 Y41.454
G1 F1800 X103.743 Y40.669 E128.17310
G0 F5400 X103.178 Y40.669
G1 F1800 X104.528 Y42.020 E128.20486
G0 F5400 X104.528 Y42.586
G1 F1800 X102.612 Y40.669 E128.24993
G0 F5400 X102.046 Y40.669
G1 F1800 X104.528 Y43.151 E128.30830
G0 F5400 X104.528 Y43.717
G1 F1800 X101.481 Y40.669 E128.37998
G0 F5400 X100.915 Y40.669
G1 F1800 X104.528 Y44.283 E128.46496
G0 F5400 X104.528 Y44.848
G1 F1800 X100.349 Y40.669 E128.56324
G0 F5400 X99.784 Y40.669
G1 F1800 X104.528 Y45.414 E128.67483
G0 F5400 X104.528 Y45.980
G1 F1800 X99.218 Y40.669 E128.79972
G0 F5400 X98.652 Y40.669
G1 F1800 X104.528 Y46.546 E128.93793
G0 F5400 X104.528 Y47.111
G1 F1800 X98.087 Y40.669 E129.08942
G0 F5400 X97.521 Y40.669
G1 F1800 X104.528 Y47.677 E129.25423
G0 F5400 X104.528 Y48.243
G1 F1800 X96.955 Y40.669 E129.43234
G0 F5400 X96.389 Y40.669
G1 F1800 X104.528 Y48.808 E129.62376
G0 F5400 X104.528 Y49.374
G1 F1800 X95.824 Y40.669 E129.82848
G0 F5400 X95.258 Y40.669
G1 F1800 X104.528 Y49.940 E130.04651
G0 F5400 X104.528 Y50.505
G1 F1800 X94.692 Y40.669 E130.27783
G0 F5400 X94.127 Y40.669
G1 F1800 X104.528 Y51.071 E130.52246
G0 F5400 X104.528 Y51.637
G1 F1800 X93.561 Y40.669 E130.78040
G0 F5400 X92.995 Y40.669
G1 F1800 X104.528 Y52.202 E131.05164
G0 F5400 X104.528 Y52.768
G1 F1800 X92.430 Y40.669 E131.33618
G0 F5400 X91.864 Y40.669
G1 F1800 X104.528 Y53.334 E131.63403
G0 F5400 X104.528 Y53.899
G1 F1800 X91.298 Y40.669 E131.94518
G0 F5400 X90.733 Y40.669
G1 F1800 X104.528 Y54.465 E132.26962
G0 F5400 X104.528 Y55.031
G1 F1800 X90.167 Y40.669 E132.60738
G0 F5400 X89.601 Y40.669
G1 F1800 X104.528 Y55.596 E132.95844
G0 F5400 X104.528 Y56.162
G1 F1800 X89.168 Y40.802 E133.31969
G0 F5400 X88.770 Y40.969
G1 F1800 X104.528 Y56.728 E133.69030
G0 F5400 X104.528 Y57.294
G1 F1800 X88.204 Y40.969 E134.07423
G0 F5400 X87.638 Y40.969
G1 F1800 X104.528 Y57.859 E134.47146
G0 F5400 X104.528 Y58.425
G1 F1800 X87.073 Y40.969 E134.88199
G0 F5400 X86.507 Y40.969
G1 F1800 X104.528 Y58.991 E135.30582
G0 F5400 X104.501 Y59.529
G1 F1800 X85.941 Y40.969 E135.74233
G0 F5400 X85.376 Y40.969
G1 F1800 X103.936 Y59.529 E136.17883
G0 F5400 X103.370 Y59.529
G1 F1800 X84.810 Y40.969 E136.61533
G0 F5400 X84.244 Y40.969
G1 F1800 X102.804 Y59.529 E137.05183
G0 F5400 X102.239 Y59.529
G1 F1800 X83.679 Y40.969 E137.48834
G0 F5400 X83.113 Y40.969
G1 F1800 X101.673 Y59.529 E137.92484
G0 F5400 X101.107 Y59.529
G1 F1800 X82.547 Y40.969 E138.36134
G0 F5400 X81.981 Y40.969
G1 F1800 X100.542 Y59.529 E138.79786
G0 F5400 X99.976 Y59.529
G1 F1800 X81.416 Y40.969 E139.23436
G0 F5400 X80.850 Y40.969
G1 F1800 X99.410 Y59.529 E139.67086
G0 F5400 X98.845 Y59.529
G1 F1800 X80.284 Y40.969 E140.10738
G0 F5400 X79.719 Y40.969
G1 F1800 X98.279 Y59.529 E140.54388
G0 F5400 X97.713 Y59.529
G1 F1800 X79.153 Y40.969 E140.98038
G0 F5400 X78.587 Y40.969
G1 F1800 X97.147 Y59.529 E141.41689
G0 F5400 X96.582 Y59.529
G1 F1800 X78.022 Y40.969 E141.85339
G0 F5400 X77.456 Y40.969
G1 F1800 X96.016 Y59.529 E142.28989
G0 F5400 X95.450 Y59.529
G1 F1800 X76.890 Y40.969 E142.72639
G0 F5400 X76.325 Y40.969
G1 F1800 X94.885 Y59.529 E143.16290
G0 F5400 X94.319 Y59.529
G1 F1800 X75.759 Y40.969 E143.59940
G0 F5400 X75.193 Y40.969
G1 F1800 X93.753 Y59.529 E144.03590
G0 F5400 X93.188 Y59.529
G1 F1800 X74.628 Y40.969 E144.47240
G0 F5400 X74.062 Y40.969
G1 F1800 X92.622 Y59.529 E144.90891
G0 F5400 X92.056 Y59.529
G1 F1800 X73.496 Y40.969 E145.34541
G0 F5400 X72.930 Y40.969
G1 F1800 X91.491 Y59.529 E145.78192
G0 F5400 X90.925 Y59.529
G1 F1800 X72.365 Y40.969 E146.21843
G0 F5400 X71.799 Y40.969
G1 F1800 X90.359 Y59.529 E146.65493
G0 F5400 X89.794 Y59.529
G1 F1800 X71.233 Y40.969 E147.09144
G0 F5400 X70.668 Y40.969
G1 F1800 X88.728 Y59.029 E147.51619
G0 F5400 X88.162 Y59.029
G1 F1800 X70.102 Y40.969 E147.94093
G0 F5400 X69.536 Y40.969
G1 F1800 X87.597 Y59.029 E148.36569
G0 F5400 X87.031 Y59.029
G1 F1800 X68.971 Y40.969 E148.79043
G0 F5400 X68.405 Y40.969
G1 F1800 X86.465 Y59.029 E149.21517
G0 F5400 X85.900 Y59.029
G1 F1800 X67.839 Y40.969 E149.63993
G0 F5400 X67.274 Y40.969
G1 F1800 X85.334 Y59.029 E150.06467
G0 F5400 X84.768 Y59.029
G1 F1800 X66.708 Y40.969 E150.48942
G0 F5400 X66.142 Y40.969
G1 F1800 X84.202 Y59.029 E150.91416
G0 F5400 X83.637 Y59.029
G1 F1800 X65.577 Y40.969 E151.33890
G0 F5400 X65.011 Y40.969
G1 F1800 X83.071 Y59.029 E151.76365
G0 F5400 X82.505 Y59.029
G1 F1800 X64.445 Y40.969 E152.18839
G0 F5400 X63.880 Y40.969
G1 F1800 X81.940 Y59.029 E152.61313
G0 F5400 X81.374 Y59.029
G1 F1800 X63.314 Y40.969 E153.03788
G0 F5400 X62.748 Y40.969
G1 F1800 X80.808 Y59.029 E153.46262
G0 F5400 X80.243 Y59.029
G1 F1800 X62.182 Y40.969 E153.88738
G0 F5400 X61.617 Y40.969
G1 F1800 X79.677 Y59.029 E154.31212
G0 F5400 X79.111 Y59.029
G1 F1800 X61.051 Y40.969 E154.73686
G0 F5400 X60.485 Y40.969
G1 F1800 X78.546 Y59.029 E155.16162
G0 F5400 X77.980 Y59.029
G1 F1800 X59.920 Y40.969 E155.58636
G0 F5400 X59.354 Y40.969
G1 F1800 X77.414 Y59.029 E156.01111
G0 F5400 X76.849 Y59.029
G1 F1800 X58.788 Y40.969 E156.43586
G0 F5400 X58.223 Y40.969
G1 F1800 X76.283 Y59.029 E156.86060
G0 F5400 X75.717 Y59.029
G1 F1800 X57.657 Y40.969 E157.28535
G0 F5400 X57.091 Y40.969
G1 F1800 X75.152 Y59.029 E157.71010
G0 F5400 X74.586 Y59.029
G1 F1800 X56.526 Y40.969 E158.13485
G0 F5400 X55.960 Y40.969
G1 F1800 X74.020 Y59.029 E158.55959
G0 F5400 X73.454 Y59.029
G1 F1800 X55.394 Y40.969 E158.98433
G0 F5400 X54.829 Y40.969
G1 F1800 X72.889 Y59.029 E159.40908
G0 F5400 X72.323 Y59.029
G1 F1800 X54.263 Y40.969 E159.83382
G0 F5400 X53.697 Y40.969
G1 F1800 X71.757 Y59.029 E160.25856
G0 F5400 X71.192 Y59.029
G1 F1800 X53.132 Y40.969 E160.68331
G0 F5400 X52.566 Y40.969
G1 F1800 X70.626 Y59.029 E161.10805
G0 F5400 X70.060 Y59.029
G1 F1800 X52.000 Y40.969 E161.53279
G0 F5400 X51.434 Y40.969
G1 F1800 X69.495 Y59.029 E161.95755
G0 F5400 X68.929 Y59.029
G1 F1800 X50.869 Y40.969 E162.38229
G0 F5400 X50.303 Y40.969
G1 F1800 X68.363 Y59.029 E162.80704
G0 F5400 X67.798 Y59.029
G1 F1800 X49.737 Y40.969 E163.23179
G0 F5400 X49.172 Y40.969
G1 F1800 X67.232 Y59.029 E163.65654
G0 F5400 X66.666 Y59.029
G1 F1800 X48.606 Y40.969 E164.08128
G0 F5400 X48.040 Y40.969
G1 F1800 X66.101 Y59.029 E164.50603
G0 F5400 X65.535 Y59.029
G1 F1800 X47.475 Y40.969 E164.93078
G0 F5400 X46.909 Y40.969
G1 F1800 X64.969 Y59.029 E165.35552
G0 F5400 X64.403 Y59.029
G1 F1800 X46.343 Y40.969 E165.78026
G0 F5400 X45.778 Y40.969
G1 F1800 X63.838 Y59.029 E166.20501
G0 F5400 X63.272 Y59.029
G1 F1800 X45.212 Y40.969 E166.62975
G0 F5400 X44.646 Y40.969
G1 F1800 X62.706 Y59.029 E167.05450
G0 F5400 X62.141 Y59.029
G1 F1800 X44.081 Y40.969 E167.47924
G0 F5400 X43.515 Y40.969
G1 F1800 X61.575 Y59.029 E167.90398
G0 F5400 X61.009 Y59.029
G1 F1800 X42.949 Y40.969 E168.32873
G0 F5400 X42.383 Y40.969
G1 F1800 X60.444 Y59.029 E168.75348
G0 F5400 X59.878 Y59.029
G1 F1800 X41.818 Y40.969 E169.17822
G0 F5400 X41.252 Y40.969
G1 F1800 X59.312 Y59.029 E169.60297
G0 F5400 X58.747 Y59.029
G1 F1800 X40.686 Y40.969 E170.02772
G0 F5400 X40.469 Y41.318
G1 F1800 X58.181 Y59.029 E170.44427
G0 F5400 X57.615 Y59.029
G1 F1800 X40.469 Y41.884 E170.84751
G0 F5400 X40.469 Y42.449
G1 F1800 X57.050 Y59.029 E171.23745
G0 F5400 X56.484 Y59.029
G1 F1800 X40.469 Y43.015 E171.61409
G0 F5400 X40.469 Y43.581
G1 F1800 X55.918 Y59.029 E171.97742
G0 F5400 X55.353 Y59.029
G1 F1800 X40.469 Y44.146 E172.32745
G0 F5400 X40.469 Y44.712
G1 F1800 X54.787 Y59.029 E172.66418
G0 F5400 X54.221 Y59.029
G1 F1800 X40.469 Y45.278 E172.98759
G0 F5400 X40.469 Y45.843
G1 F1800 X53.655 Y59.029 E173.29771
G0 F5400 X53.090 Y59.029
G1 F1800 X40.469 Y46.409 E173.59452
G0 F5400 X40.469 Y46.975
G1 F1800 X52.524 Y59.029 E173.87803
G0 F5400 X51.958 Y59.029
G1 F1800 X40.469 Y47.540 E174.14823
G0 F5400 X40.469 Y48.106
G1 F1800 X51.393 Y59.029 E174.40513
G0 F5400 X50.827 Y59.029
G1 F1800 X40.469 Y48.672 E174.64873
G0 F5400 X40.469 Y49.237
G1 F1800 X50.261 Y59.029 E174.87902
G0 F5400 X49.696 Y59.029
G1 F1800 X40.469 Y49.803 E175.09601
G0 F5400 X40.469 Y50.369
G1 F1800 X49.130 Y59.029 E175.29969
G0 F5400 X48.564 Y59.029
G1 F1800 X40.004 Y50.469 E175.50101
G0 F5400 X39.438 Y50.469
G1 F1800 X47.999 Y59.029 E175.70234
G0 F5400 X47.433 Y59.029
G1 F1800 X38.873 Y50.469 E175.90366
G0 F5400 X38.307 Y50.469
G1 F1800 X46.867 Y59.029 E176.10498
G0 F5400 X46.302 Y59.029
G1 F1800 X37.741 Y50.469 E176.30631
G0 F5400 X37.176 Y50.469
G1 F1800 X45.736 Y59.029 E176.50763
G0 F5400 X45.170 Y59.029
G1 F1800 X36.610 Y50.469 E176.70894
G0 F5400 X36.044 Y50.469
G1 F1800 X44.605 Y59.029 E176.91027
G0 F5400 X44.039 Y59.029
G1 F1800 X35.479 Y50.469 E177.11159
G0 F5400 X34.913 Y50.469
G1 F1800 X43.473 Y59.029 E177.31291
G0 F5400 X42.907 Y59.029
G1 F1800 X34.347 Y50.469 E177.51423
G0 F5400 X33.782 Y50.469
G1 F1800 X42.342 Y59.029 E177.71555
G0 F5400 X41.776 Y59.029
G1 F1800 X33.216 Y50.469 E177.91686
G0 F5400 X32.650 Y50.469
G1 F1800 X41.210 Y59.029 E178.11818
G0 F5400 X40.645 Y59.029
G1 F1800 X32.084 Y50.469 E178.31951
G0 F5400 X31.519 Y50.469
G1 F1800 X40.079 Y59.029 E178.52083
G0 F5400 X39.513 Y59.029
G1 F1800 X30.953 Y50.469 E178.72215
G0 F5400 X30.387 Y50.469
G1 F1800 X38.948 Y59.029 E178.92348
G0 F5400 X38.382 Y59.029
G1 F1800 X29.822 Y50.469 E179.12480
G0 F5400 X29.256 Y50.469
G1 F1800 X37.816 Y59.029 E179.32611
G0 F5400 X37.251 Y59.029
G1 F1800 X28.690 Y50.469 E179.52744
G0 F5400 X28.125 Y50.469
G1 F1800 X36.685 Y59.029 E179.72876
G0 F5400 X36.119 Y59.029
G1 F1800 X27.559 Y50.469 E179.93008
G0 F5400 X26.993 Y50.469
G1 F1800 X35.554 Y59.029 E180.13141
G0 F5400 X34.988 Y59.029
G1 F1800 X26.428 Y50.469 E180.33273
G0 F5400 X25.862 Y50.469
G1 F1800 X34.422 Y59.029 E180.53405
G0 F5400 X33.856 Y59.029
G1 F1800 X25.296 Y50.469 E180.73536
G0 F5400 X24.731 Y50.469
G1 F1800 X33.291 Y59.029 E180.93668
G0 F5400 X32.725 Y59.029
G1 F1800 X24.165 Y50.469 E181.13800
G0 F5400 X24.030 Y50.334
