;Generated with Cura_SteamEngine 15.01
; Default start code
G28 ; Home extruder
G1 Z15 F500
M107 ; Turn off fan
G90 ; Absolute positioning
M82 ; Extruder in absolute mode
M190 S50
; Activate all used extruder
M104 T0 S195
G92 E0 ; Reset extruder position
; Wait for all used extruders to reach temperature
M109 T0 S195
;Layer count: 140
;LAYER:0
M107
G0 F5400 X25.333 Y50.333 Z0.300
;TYPE:SKIRT
G1 F1800 X25.333 Y59.167 E0.73382
G1 X39.167 Y59.167 E1.88297
G1 X39.167 Y50.333 E2.61678
G1 X25.333 Y50.333 E3.76593
G0 F5400 X25.333 Y39.167
G1 F1800 X39.167 Y39.167 E4.91509
G1 X39.167 Y29.667 E5.70422
G1 X105.533 Y29.667 E11.21706
G1 X105.533 Y70.533 E14.61168
G1 X88.767 Y70.533 E16.00439
G1 X88.767 Y70.333 E16.02100
G1 X14.667 Y70.333 E22.17628
G1 X14.667 Y29.667 E25.55429
G1 X25.333 Y29.667 E26.44029
G1 X25.333 Y39.167 E27.22942
G1 F240 E23.22942
G0 F5400 X20.335 Y44.165
;TYPE:WALL-INNER
G1 F240 E27.22942
G1 F1800 X44.165 Y44.165 E29.20892
G1 X44.165 Y34.665 E29.99805
G1 X89.588 Y34.665 E33.77121
G1 X89.588 Y45.335 E34.65754
G1 X19.665 Y45.335 E40.46585
G1 X19.665 Y34.665 E41.35217
G1 X20.335 Y34.665 E41.40783
G1 X20.335 Y44.165 E42.19697
G0 F5400 X43.307 Y43.307
G0 X82.427 Y40.020
G1 F1800 X82.491 Y40.646 E42.24924
G1 X82.599 Y41.073 E42.28583
G1 X82.707 Y41.368 E42.31192
G1 X82.796 Y41.566 E42.32995
G1 X83.066 Y42.026 E42.37426
G1 X83.255 Y42.277 E42.40036
G1 X83.638 Y42.673 E42.44612
G1 X83.900 Y42.882 E42.47396
G1 X84.084 Y43.008 E42.49249
G1 X84.548 Y43.256 E42.53619
G1 X84.861 Y43.381 E42.56419
G1 X85.229 Y43.483 E42.59591
G1 X85.712 Y43.556 E42.63649
G1 X86.129 Y43.567 E42.67114
G1 X86.774 Y43.486 E42.72514
G1 X87.286 Y43.328 E42.76965
G1 X87.626 Y43.174 E42.80065
G1 X87.933 Y42.997 E42.83009
G1 X88.206 Y42.801 E42.85800
G1 X88.375 Y42.660 E42.87629
G1 X88.614 Y42.426 E42.90407
G1 X88.831 Y42.168 E42.93207
G1 X88.959 Y41.989 E42.95035
G1 X89.211 Y41.548 E42.99255
G1 X89.292 Y41.368 E43.00894
G1 X89.455 Y40.880 E43.05168
G1 X89.546 Y40.374 E43.09439
G1 X89.568 Y39.943 E43.13024
G1 X89.504 Y39.311 E43.18300
G1 X89.354 Y38.778 E43.22900
G1 X89.109 Y38.236 E43.27841
G1 X88.530 Y37.470 E43.35817
G1 X87.969 Y37.022 E43.41780
G1 X87.570 Y36.794 E43.45598
G1 X86.835 Y36.525 E43.52099
G1 X86.287 Y36.443 E43.56702
G1 X85.847 Y36.432 E43.60358
G1 X85.094 Y36.546 E43.66684
G1 X84.678 Y36.685 E43.70328
G1 X84.235 Y36.899 E43.74414
G1 X83.934 Y37.092 E43.77385
G1 X83.760 Y37.225 E43.79204
G1 X83.510 Y37.445 E43.81970
G1 X83.144 Y37.863 E43.86585
G1 X82.857 Y38.314 E43.91026
G1 X82.649 Y38.779 E43.95257
G1 X82.507 Y39.275 E43.99543
G1 X82.467 Y39.510 E44.01523
G1 X82.427 Y40.020 E44.05772
G0 F5400 X83.096 Y40.012
G1 F1800 X83.149 Y40.538 E44.10164
G1 X83.233 Y40.868 E44.12993
G1 X83.393 Y41.269 E44.16579
G1 X83.612 Y41.644 E44.20186
G1 X83.771 Y41.854 E44.22374
G1 X83.883 Y41.982 E44.23787
G1 X84.080 Y42.174 E44.26072
G1 X84.438 Y42.443 E44.29792
G1 X84.816 Y42.646 E44.33356
G1 X85.074 Y42.749 E44.35664
G1 X85.368 Y42.831 E44.38199
G1 X85.771 Y42.891 E44.41583
G1 X86.096 Y42.900 E44.44284
G1 X86.633 Y42.832 E44.48781
G1 X87.049 Y42.704 E44.52396
G1 X87.322 Y42.580 E44.54887
G1 X87.572 Y42.437 E44.57279
G1 X87.928 Y42.166 E44.60996
G1 X88.125 Y41.972 E44.63292
G1 X88.403 Y41.622 E44.67005
G1 X88.540 Y41.397 E44.69193
G1 X88.675 Y41.116 E44.71783
G1 X88.844 Y40.561 E44.76602
G1 X88.884 Y40.300 E44.78796
G1 X88.901 Y39.966 E44.81574
G1 X88.847 Y39.436 E44.85999
G1 X88.726 Y39.007 E44.89702
G1 X88.532 Y38.578 E44.93613
G1 X88.049 Y37.939 E45.00266
G1 X87.593 Y37.574 E45.05118
G1 X87.289 Y37.400 E45.08028
G1 X86.670 Y37.174 E45.13502
G1 X86.228 Y37.108 E45.17214
G1 X85.888 Y37.099 E45.20039
G1 X85.250 Y37.196 E45.25400
G1 X84.929 Y37.303 E45.28211
G1 X84.561 Y37.481 E45.31606
G1 X84.317 Y37.638 E45.34016
G1 X83.975 Y37.922 E45.37709
G1 X83.681 Y38.258 E45.41418
G1 X83.447 Y38.625 E45.45033
G1 X83.333 Y38.861 E45.47210
G1 X83.225 Y39.155 E45.49812
G1 X83.129 Y39.592 E45.53529
G1 X83.096 Y40.012 E45.57028
G0 F5400 X84.168 Y42.073
G0 X86.089 Y42.765
G0 X90.254 Y46.001
G1 F1800 X18.999 Y46.001 E51.48924
G1 X18.999 Y33.999 E52.48621
G1 X21.001 Y33.999 E52.65251
G1 X21.001 Y43.499 E53.44165
G1 X43.499 Y43.499 E55.31049
G1 X43.499 Y33.999 E56.09963
G1 X90.254 Y33.999 E59.98344
G1 X90.254 Y46.001 E60.98041
G0 F5400 X90.920 Y46.667
;TYPE:WALL-OUTER
G1 F1800 X18.333 Y46.667 E67.01001
G1 X18.333 Y33.333 E68.11763
G1 X21.667 Y33.333 E68.39457
G1 X21.667 Y42.833 E69.18371
G1 X42.833 Y42.833 E70.94191
G1 X42.833 Y33.333 E71.73105
G1 X90.920 Y33.333 E75.72550
G1 X90.920 Y46.667 E76.83312
G0 F5400 X90.487 Y46.324
G0 X87.427 Y42.252
G0 X87.211 Y41.876
G1 F1800 X87.481 Y41.671 E76.86128
G1 X87.636 Y41.519 E76.87931
G1 X87.847 Y41.254 E76.90745
G1 X88.011 Y40.969 E76.93476
G1 X88.058 Y40.864 E76.94432
G1 X88.189 Y40.438 E76.98134
G1 X88.230 Y40.112 E77.00863
G1 X88.234 Y39.989 E77.01886
G1 X88.190 Y39.561 E77.05460
G1 X88.099 Y39.236 E77.08263
G1 X87.956 Y38.920 E77.11144
G1 X87.568 Y38.407 E77.16487
G1 X87.218 Y38.127 E77.20211
G1 X87.007 Y38.006 E77.22231
G1 X86.505 Y37.823 E77.26669
G1 X86.170 Y37.773 E77.29483
G1 X85.930 Y37.766 E77.31478
G1 X85.407 Y37.846 E77.35872
G1 X85.180 Y37.922 E77.37861
G1 X84.887 Y38.063 E77.40562
G1 X84.604 Y38.256 E77.43407
G1 X84.440 Y38.400 E77.45220
G1 X84.217 Y38.654 E77.48028
G1 X84.096 Y38.832 E77.49816
G1 X83.944 Y39.128 E77.52580
G1 X83.864 Y39.344 E77.54493
G1 X83.790 Y39.675 E77.57311
G1 X83.765 Y40.004 E77.60051
G1 X83.808 Y40.430 E77.63608
G1 X83.867 Y40.663 E77.65605
G1 X83.990 Y40.972 E77.68367
G1 X84.157 Y41.261 E77.71140
G1 X84.366 Y41.522 E77.73917
G1 X84.521 Y41.674 E77.75721
G1 X84.792 Y41.878 E77.78538
G1 X85.084 Y42.036 E77.81296
G1 X85.287 Y42.117 E77.83112
G1 X85.507 Y42.178 E77.85008
G1 X85.829 Y42.226 E77.87713
G1 X86.063 Y42.233 E77.89657
G1 X86.492 Y42.179 E77.93249
G1 X86.812 Y42.080 E77.96031
G1 X87.018 Y41.987 E77.97909
G1 X87.211 Y41.876 E77.99758
G1 F240 E73.99758
G0 F5400 X87.978 Y43.240
;TYPE:SKIN
G1 F240 E77.99758
G1 F1800 X89.353 Y44.614 E78.15905
G0 F5400 X88.897 Y45.100
G1 F1800 X87.350 Y43.553 E78.34079
G0 F5400 X86.600 Y43.745
G1 F1800 X87.955 Y45.100 E78.49996
G0 F5400 X87.013 Y45.100
G1 F1800 X85.702 Y43.789 E78.65397
G0 F5400 X84.428 Y43.457
G1 F1800 X86.071 Y45.100 E78.84698
G0 F5400 X85.129 Y45.100
G1 F1800 X74.928 Y34.899 E80.04534
G0 F5400 X73.986 Y34.899
G1 F1800 X84.188 Y45.100 E81.24376
G0 F5400 X83.246 Y45.100
G1 F1800 X73.044 Y34.899 E82.44218
G0 F5400 X72.102 Y34.899
G1 F1800 X82.304 Y45.100 E83.64060
G0 F5400 X81.362 Y45.100
G1 F1800 X71.161 Y34.899 E84.83896
G0 F5400 X70.219 Y34.899
G1 F1800 X80.420 Y45.100 E86.03732
G1 F240 E82.03732
G0 F5400 X82.539 Y41.568
G1 F240 E86.03732
G1 F1800 X75.870 Y34.899 E86.82076
G0 F5400 X76.812 Y34.899
G1 F1800 X82.220 Y40.307 E87.45606
G1 F240 E83.45606
G0 F5400 X88.522 Y42.842
G1 F240 E87.45606
G1 F1800 X89.353 Y43.202 E87.55365
G1 X88.977 Y42.354 E87.63071
G1 F240 E83.63071
G0 F5400 X89.298 Y37.966
G1 F240 E87.63071
G1 F1800 X88.885 Y37.553 E87.67923
G0 F5400 X89.353 Y37.079
G1 F1800 X87.172 Y34.899 E87.93538
G0 F5400 X88.114 Y34.899
G1 F1800 X89.353 Y36.138 E88.08093
G0 F5400 X89.353 Y35.196
G1 F1800 X89.056 Y34.899 E88.11582
G1 F240 E84.11582
G0 F5400 X88.395 Y37.063
G1 F240 E88.11582
G1 F1800 X86.230 Y34.899 E88.37010
G0 F5400 X85.289 Y34.899
G1 F1800 X86.651 Y36.261 E88.53010
G0 F5400 X85.669 Y36.221
G1 F1800 X84.347 Y34.899 E88.68540
G0 F5400 X83.405 Y34.899
G1 F1800 X84.876 Y36.370 E88.85820
G0 F5400 X84.213 Y36.649
G1 F1800 X82.463 Y34.899 E89.06378
G0 F5400 X81.521 Y34.899
G1 F1800 X83.641 Y37.019 E89.31283
G0 F5400 X83.164 Y37.484
G1 F1800 X80.579 Y34.899 E89.61650
G0 F5400 X79.637 Y34.899
G1 F1800 X82.764 Y38.025 E89.98379
G0 F5400 X82.449 Y38.652
G1 F1800 X78.696 Y34.899 E90.42467
G0 F5400 X77.754 Y34.899
G1 F1800 X82.249 Y39.395 E90.95278
G1 F240 E86.95278
G0 F5400 X79.478 Y45.100
G1 F240 E90.95278
G1 F1800 X69.277 Y34.899 E92.15114
G0 F5400 X68.335 Y34.899
G1 F1800 X78.536 Y45.100 E93.34950
G0 F5400 X77.595 Y45.100
G1 F1800 X67.393 Y34.899 E94.54792
G0 F5400 X66.451 Y34.899
G1 F1800 X76.653 Y45.100 E95.74633
G0 F5400 X75.711 Y45.100
G1 F1800 X65.509 Y34.899 E96.94475
G0 F5400 X64.568 Y34.899
G1 F1800 X74.769 Y45.100 E98.14311
G0 F5400 X73.827 Y45.100
G1 F1800 X63.626 Y34.899 E99.34147
G0 F5400 X62.684 Y34.899
G1 F1800 X72.885 Y45.100 E100.53983
G0 F5400 X71.943 Y45.100
G1 F1800 X61.742 Y34.899 E101.73819
G0 F5400 X60.800 Y34.899
G1 F1800 X71.002 Y45.100 E102.93661
G0 F5400 X70.060 Y45.100
G1 F1800 X59.858 Y34.899 E104.13503
G0 F5400 X58.916 Y34.899
G1 F1800 X69.118 Y45.100 E105.33345
G0 F5400 X68.176 Y45.100
G1 F1800 X57.974 Y34.899 E106.53187
G0 F5400 X57.033 Y34.899
G1 F1800 X67.234 Y45.100 E107.73023
G0 F5400 X66.292 Y45.100
G1 F1800 X56.091 Y34.899 E108.92859
G0 F5400 X55.149 Y34.899
G1 F1800 X65.350 Y45.100 E110.12695
G0 F5400 X64.408 Y45.100
G1 F1800 X54.207 Y34.899 E111.32531
G0 F5400 X53.265 Y34.899
G1 F1800 X63.467 Y45.100 E112.52373
G0 F5400 X62.525 Y45.100
G1 F1800 X52.323 Y34.899 E113.72214
G0 F5400 X51.381 Y34.899
G1 F1800 X61.583 Y45.100 E114.92056
G0 F5400 X60.641 Y45.100
G1 F1800 X50.440 Y34.899 E116.11892
G0 F5400 X49.498 Y34.899
G1 F1800 X59.699 Y45.100 E117.31728
G0 F5400 X58.757 Y45.100
G1 F1800 X48.556 Y34.899 E118.51564
G0 F5400 X47.614 Y34.899
G1 F1800 X57.815 Y45.100 E119.71400
G0 F5400 X56.874 Y45.100
G1 F1800 X46.672 Y34.899 E120.91242
G0 F5400 X45.730 Y34.899
G1 F1800 X55.932 Y45.100 E122.11084
G0 F5400 X54.990 Y45.100
G1 F1800 X44.788 Y34.899 E123.30926
G0 F5400 X44.398 Y35.450
G1 F1800 X54.047 Y45.099 E124.44277
G0 F5400 X53.105 Y45.099
G1 F1800 X44.398 Y36.392 E125.46562
G0 F5400 X44.398 Y37.334
G1 F1800 X52.163 Y45.099 E126.37782
G0 F5400 X51.222 Y45.099
G1 F1800 X44.398 Y38.276 E127.17940
G0 F5400 X44.398 Y39.218
G1 F1800 X50.280 Y45.099 E127.87033
G0 F5400 X49.338 Y45.099
G1 F1800 X44.398 Y40.160 E128.45060
G0 F5400 X44.398 Y41.101
G1 F1800 X48.396 Y45.099 E128.92026
G0 F5400 X47.454 Y45.099
G1 F1800 X44.398 Y42.043 E129.27927
G0 F5400 X44.398 Y42.985
G1 F1800 X46.512 Y45.099 E129.52761
G0 F5400 X45.570 Y45.099
G1 F1800 X44.398 Y43.927 E129.66529
G0 F5400 X43.927 Y44.398
G1 F1800 X44.158 Y45.099 E129.74768
G1 X42.865 Y44.748 E129.83006
G1 X41.923 Y44.748 E129.91242
G1 X40.981 Y44.748 E129.99479
G1 X40.039 Y44.748 E130.07703
G1 X39.097 Y44.748 E130.15927
G1 X38.155 Y44.748 E130.24152
G1 X37.214 Y44.748 E130.32379
G1 X36.272 Y44.748 E130.40615
G1 X35.330 Y44.748 E130.48851
G1 X34.388 Y44.748 E130.57088
G1 X33.446 Y44.748 E130.65312
G1 X32.504 Y44.748 E130.73536
G1 X31.562 Y44.748 E130.81761
G1 X30.621 Y44.748 E130.89988
G1 X29.679 Y44.748 E130.98224
G1 X28.737 Y44.748 E131.06460
G1 X27.795 Y44.748 E131.14697
G1 X26.853 Y44.748 E131.22921
G1 X25.911 Y44.748 E131.31145
G1 X24.969 Y44.748 E131.39370
G1 X24.027 Y44.748 E131.47594
G1 X23.086 Y44.748 E131.55822
G1 X22.144 Y44.748 E131.64058
G1 X21.202 Y44.748 E131.72294
G1 X20.240 Y44.258 E131.80535
G1 X19.999 Y43.546 E131.82897
G1 X19.999 Y42.604 E131.85259
G1 X19.999 Y41.662 E131.87621
G1 X19.999 Y40.720 E131.89982
G1 X19.898 Y40.148 E131.94807
G1 F240 E127.94807
G0 F5400 X19.898 Y44.858
G1 F240 E131.94807
G1 F1800 X20.140 Y45.099 E131.97644
G1 F240 E127.97644
G0 F5400 X20.100 Y39.409
G1 F240 E131.97644
G1 F1800 X19.999 Y38.836 E132.00017
G1 X19.999 Y37.895 E132.02376
G1 X19.999 Y36.953 E132.04738
G1 X19.999 Y36.011 E132.07099
G1 X19.898 Y35.439 E132.11924
G1 F240 E128.11924
G0 F5400 X19.665 Y54.665
;TYPE:WALL-INNER
G1 F240 E132.11924
G1 F1800 X20.335 Y54.665 E132.17490
G1 X20.335 Y64.165 E132.96404
G1 X44.165 Y64.165 E134.94353
G1 X44.165 Y54.665 E135.73267
G1 X89.588 Y54.665 E139.50583
G1 X89.588 Y65.335 E140.39215
G1 X19.665 Y65.335 E146.20046
G1 X19.665 Y54.665 E147.08679
G0 F5400 X21.193 Y63.307
G0 X43.307 Y63.307
G0 X82.467 Y59.510
G1 F1800 X82.427 Y60.020 E147.12928
G1 X82.491 Y60.646 E147.18155
G1 X82.599 Y61.073 E147.21814
G1 X82.707 Y61.368 E147.24423
G1 X82.796 Y61.566 E147.26227
G1 X83.066 Y62.026 E147.30657
G1 X83.255 Y62.277 E147.33267
G1 X83.638 Y62.673 E147.37844
G1 X83.900 Y62.882 E147.40628
G1 X84.084 Y63.008 E147.42480
G1 X84.548 Y63.256 E147.46850
G1 X84.861 Y63.381 E147.49650
G1 X85.229 Y63.483 E147.52822
G1 X85.712 Y63.556 E147.56880
G1 X86.129 Y63.567 E147.60345
G1 X86.774 Y63.486 E147.65745
G1 X87.286 Y63.328 E147.70196
G1 X87.626 Y63.174 E147.73296
G1 X87.933 Y62.997 E147.76240
G1 X88.206 Y62.801 E147.79032
G1 X88.375 Y62.660 E147.80860
G1 X88.614 Y62.426 E147.83638
G1 X88.831 Y62.168 E147.86439
G1 X88.959 Y61.989 E147.88267
G1 X89.211 Y61.548 E147.92486
G1 X89.292 Y61.368 E147.94125
G1 X89.455 Y60.880 E147.98399
G1 X89.546 Y60.374 E148.02670
G1 X89.568 Y59.943 E148.06255
G1 X89.504 Y59.311 E148.11532
G1 X89.354 Y58.778 E148.16131
G1 X89.109 Y58.236 E148.21072
G1 X88.530 Y57.470 E148.29048
G1 X87.969 Y57.022 E148.35012
G1 X87.570 Y56.794 E148.38829
G1 X86.835 Y56.525 E148.45330
G1 X86.287 Y56.443 E148.49933
G1 X85.847 Y56.432 E148.53589
G1 X85.094 Y56.546 E148.59916
G1 X84.678 Y56.685 E148.63559
G1 X84.235 Y56.899 E148.67646
G1 X83.934 Y57.092 E148.70616
G1 X83.760 Y57.225 E148.72435
G1 X83.510 Y57.445 E148.75201
G1 X83.144 Y57.863 E148.79817
G1 X82.857 Y58.314 E148.84257
G1 X82.649 Y58.779 E148.88489
G1 X82.507 Y59.275 E148.92774
G1 X82.467 Y59.510 E148.94754
G0 F5400 X83.129 Y59.592
G1 F1800 X83.096 Y60.012 E148.98254
G1 X83.149 Y60.538 E149.02645
G1 X83.233 Y60.868 E149.05474
G1 X83.393 Y61.269 E149.09060
G1 X83.612 Y61.644 E149.12668
G1 X83.771 Y61.854 E149.14856
G1 X83.883 Y61.982 E149.16269
G1 X84.080 Y62.174 E149.18554
G1 X84.438 Y62.443 E149.22273
G1 X84.816 Y62.646 E149.25837
G1 X85.074 Y62.749 E149.28145
G1 X85.368 Y62.831 E149.30680
G1 X85.771 Y62.891 E149.34065
G1 X86.096 Y62.900 E149.36766
G1 X86.633 Y62.832 E149.41262
G1 X87.049 Y62.704 E149.44877
G1 X87.322 Y62.580 E149.47368
G1 X87.572 Y62.437 E149.49761
G1 X87.928 Y62.166 E149.53477
G1 X88.125 Y61.972 E149.55774
G1 X88.403 Y61.622 E149.59487
G1 X88.540 Y61.397 E149.61675
G1 X88.675 Y61.116 E149.64264
G1 X88.844 Y60.561 E149.69084
G1 X88.884 Y60.300 E149.71277
G1 X88.901 Y59.966 E149.74055
G1 X88.847 Y59.436 E149.78480
G1 X88.726 Y59.007 E149.82183
G1 X88.532 Y58.578 E149.86094
G1 X88.049 Y57.939 E149.92748
G1 X87.593 Y57.574 E149.97600
G1 X87.289 Y57.400 E150.00509
G1 X86.670 Y57.174 E150.05983
G1 X86.228 Y57.108 E150.09695
G1 X85.888 Y57.099 E150.12521
G1 X85.250 Y57.196 E150.17881
G1 X84.929 Y57.303 E150.20692
G1 X84.561 Y57.481 E150.24088
G1 X84.317 Y57.638 E150.26498
G1 X83.975 Y57.922 E150.30191
G1 X83.681 Y58.258 E150.33899
G1 X83.447 Y58.625 E150.37515
G1 X83.333 Y58.861 E150.39692
G1 X83.225 Y59.155 E150.42294
G1 X83.129 Y59.592 E150.46010
G0 F5400 X84.394 Y57.747
G0 X90.254 Y53.999
G1 F1800 X90.254 Y66.001 E151.45707
G1 X18.999 Y66.001 E157.37603
G1 X18.999 Y53.999 E158.37300
G1 X21.001 Y53.999 E158.53930
G1 X21.001 Y63.499 E159.32844
G1 X43.499 Y63.499 E161.19728
G1 X43.499 Y53.999 E161.98642
G1 X90.254 Y53.999 E165.87023
G0 F5400 X90.920 Y53.333
;TYPE:WALL-OUTER
G1 F1800 X90.920 Y66.667 E166.97785
G1 X18.333 Y66.667 E173.00744
G1 X18.333 Y53.333 E174.11506
G1 X21.667 Y53.333 E174.39201
G1 X21.667 Y62.833 E175.18115
G1 X42.833 Y62.833 E176.93935
G1 X42.833 Y53.333 E177.72848
G1 X90.920 Y53.333 E181.72294
G0 F5400 X90.577 Y53.766
G0 X87.487 Y57.789
G0 X87.218 Y58.127
G1 F1800 X87.007 Y58.006 E181.74314
G1 X86.505 Y57.823 E181.78752
G1 X86.170 Y57.773 E181.81566
G1 X85.930 Y57.766 E181.83561
G1 X85.407 Y57.846 E181.87955
G1 X85.180 Y57.922 E181.89944
G1 X84.887 Y58.063 E181.92645
G1 X84.604 Y58.256 E181.95490
G1 X84.440 Y58.400 E181.97303
G1 X84.217 Y58.654 E182.00111
G1 X84.096 Y58.832 E182.01899
G1 X83.944 Y59.128 E182.04663
G1 X83.864 Y59.344 E182.06576
G1 X83.790 Y59.675 E182.09394
G1 X83.765 Y60.004 E182.12134
G1 X83.808 Y60.430 E182.15691
G1 X83.867 Y60.663 E182.17688
G1 X83.990 Y60.972 E182.20450
G1 X84.157 Y61.261 E182.23223
G1 X84.366 Y61.522 E182.26000
G1 X84.521 Y61.674 E182.27804
G1 X84.792 Y61.878 E182.30621
G1 X85.084 Y62.036 E182.33379
G1 X85.287 Y62.117 E182.35195
G1 X85.507 Y62.178 E182.37091
