;FLAVOR:Marlin
;TIME:7994
;Filament used: 8.18424m
;Layer height: 0.2
;MINX:17.945
;MINY:26.819
;MINZ:0.3
;MAXX:133.679
;MAXY:93.185
;MAXZ:19.1
;Generated with Cura_SteamEngine 4.9.0
M140 S60
M105
M190 S60
M104 S200
M105
M109 S200
M82 ;absolute extrusion mode
SET_SKEW  XY=139.22,142.90,100
G28 ;Home
G1 Z15.0 F6000 ;Move the platform down 15mm
;Prime the extruder
G92 E0
G1 F200 E3
G92 E0
G92 E0
G92 E0
G1 F1500 E-6.5
;LAYER_COUNT:95
;LAYER:0
M107
G0 F3600 X20.163 Y41.872 Z0.3
;TYPE:SKIRT
G1 F1500 E0
G1 F1800 X45.002 Y27.532 E1.43091
G1 X45.548 Y27.226 E1.46214
G1 X45.865 Y27.07 E1.47976
G1 X46.344 Y26.908 E1.50499
G1 X46.843 Y26.824 E1.53024
G1 X47.348 Y26.819 E1.55543
G1 X47.975 Y26.926 E1.58717
G1 X50.628 Y27.656 E1.72444
G1 X53.321 Y28.316 E1.86277
G1 X55.99 Y28.889 E1.99897
G1 X58.676 Y29.387 E2.13525
G1 X61.362 Y29.808 E2.2709
G1 X64.097 Y30.158 E2.40846
G1 X66.804 Y30.427 E2.54418
G1 X69.547 Y30.62 E2.68136
G1 X72.266 Y30.735 E2.81714
G1 X75.016 Y30.773 E2.95435
G1 X77.771 Y30.733 E3.09181
G1 X80.487 Y30.618 E3.22743
G1 X83.23 Y30.424 E3.36462
G1 X85.936 Y30.154 E3.5003
G1 X88.666 Y29.804 E3.63761
G1 X91.362 Y29.38 E3.77377
G1 X94.063 Y28.878 E3.91083
G1 X96.702 Y28.309 E4.04551
G1 X99.388 Y27.651 E4.18348
G1 X101.944 Y26.946 E4.31576
G1 X102.44 Y26.851 E4.34096
G1 X102.946 Y26.835 E4.36622
G1 X103.447 Y26.898 E4.39141
G1 X103.94 Y27.032 E4.4169
G1 X104.556 Y27.286 E4.45014
G1 X106.998 Y28.603 E4.58856
G1 X109.474 Y29.851 E4.72689
G1 X111.913 Y30.994 E4.86127
G1 X114.447 Y32.095 E4.99911
G1 X116.97 Y33.108 E5.13475
G1 X120.245 Y34.303 E5.30868
G1 X121.324 Y34.675 E5.36562
G1 X121.787 Y34.877 E5.39082
G1 X122.24 Y35.169 E5.41771
G1 X122.796 Y35.607 E5.45302
G1 X125.11 Y37.487 E5.60177
G1 X125.697 Y37.977 E5.63992
G1 X126.108 Y38.354 E5.66774
G1 X128.119 Y40.181 E5.80329
G1 X130.249 Y42.009 E5.94333
G1 X130.725 Y42.401 E5.97409
G1 X130.925 Y42.572 E5.98722
G1 X131.282 Y42.93 E6.01244
G1 X131.578 Y43.339 E6.03763
G1 X131.806 Y43.791 E6.06289
G1 X131.96 Y44.272 E6.08808
G1 X132.037 Y44.773 E6.11337
G1 X132.083 Y45.416 E6.14553
G1 X132.172 Y46.985 E6.22394
G1 X132.405 Y49.702 E6.35999
G1 X132.714 Y52.4 E6.49547
G1 X133.162 Y55.494 E6.65144
G1 X133.308 Y56.398 E6.69713
G1 X133.634 Y58.311 E6.79394
G1 X133.679 Y58.882 E6.82252
G1 X133.665 Y60.258 E6.89117
G1 X133.648 Y61.425 E6.9494
G1 X133.595 Y61.959 E6.97617
G1 X133.566 Y62.116 E6.98414
G1 X133.103 Y64.819 E7.12095
G1 X132.713 Y67.55 E7.25859
G1 X132.405 Y70.249 E7.39411
G1 X132.175 Y72.958 E7.52975
G1 X132.083 Y74.567 E7.61016
G1 X132.037 Y75.22 E7.64282
G1 X131.962 Y75.72 E7.66804
G1 X131.809 Y76.202 E7.69327
G1 X131.582 Y76.653 E7.71846
G1 X131.286 Y77.064 E7.74373
G1 X130.93 Y77.422 E7.76892
G1 X130.482 Y77.745 E7.79647
G1 X129.837 Y78.128 E7.8339
G1 X105.025 Y92.453 E9.26327
G1 X104.455 Y92.773 E9.29588
G1 X104.135 Y92.93 E9.31366
G1 X103.656 Y93.092 E9.33889
G1 X103.157 Y93.176 E9.36413
G1 X102.652 Y93.181 E9.38933
G1 X102.025 Y93.074 E9.42106
G1 X99.372 Y92.344 E9.55834
G1 X96.679 Y91.684 E9.69667
G1 X94.01 Y91.111 E9.83286
G1 X91.32 Y90.612 E9.96936
G1 X88.638 Y90.192 E10.10479
G1 X85.903 Y89.842 E10.24235
G1 X83.196 Y89.573 E10.37807
G1 X80.453 Y89.38 E10.51526
G1 X77.734 Y89.265 E10.65103
G1 X74.984 Y89.227 E10.78824
G1 X72.229 Y89.267 E10.92571
G1 X69.513 Y89.382 E11.06133
G1 X66.77 Y89.576 E11.19852
G1 X64.064 Y89.846 E11.33419
G1 X61.334 Y90.196 E11.47151
G1 X58.638 Y90.62 E11.60767
G1 X55.937 Y91.122 E11.74473
G1 X53.298 Y91.691 E11.87941
G1 X50.603 Y92.351 E12.01784
G1 X47.979 Y93.074 E12.15363
G1 X47.483 Y93.169 E12.17883
G1 X46.977 Y93.185 E12.20408
G1 X46.476 Y93.122 E12.22927
G1 X45.991 Y92.98 E12.25449
G1 X45.575 Y92.786 E12.27739
G1 X44.901 Y92.411 E12.31587
G1 X20.114 Y78.1 E13.74381
G1 X19.511 Y77.739 E13.77887
G1 X19.099 Y77.445 E13.80412
G1 X18.739 Y77.091 E13.82931
G1 X18.439 Y76.684 E13.85454
G1 X18.206 Y76.235 E13.87977
G1 X18.047 Y75.755 E13.905
G1 X17.955 Y75.037 E13.94112
G1 X17.945 Y74.317 E13.97704
G1 X17.945 Y45.661 E15.40669
G1 X17.955 Y44.96 E15.44167
G1 X18.002 Y44.457 E15.46687
G1 X18.128 Y43.967 E15.49212
G1 X18.33 Y43.504 E15.51732
G1 X18.602 Y43.077 E15.54258
G1 X18.937 Y42.699 E15.56777
G1 X19.515 Y42.258 E15.60405
G1 X20.163 Y41.872 E15.64168
G0 F3600 X29.057 Y48.623
;TYPE:SUPPORT
G1 F1800 X29.214 Y48.701 E15.65042
G1 X28.738 Y49.669 E15.70424
G1 X27.531 Y51.906 E15.83105
G1 X27.182 Y52.216 E15.85434
G1 X27.242 Y52.017 E15.86471
G1 X29.057 Y48.623 E16.05673
G0 F3600 X33.761 Y43.422
G1 F1800 X35.086 Y42.196 E16.14679
G1 X35.349 Y42.038 E16.1621
G1 X34.489 Y42.825 E16.22026
G1 X33.761 Y43.422 E16.26723
G0 F3600 X36.693 Y41.215
G1 F1800 X38.722 Y39.968 E16.38604
G1 X39.736 Y39.598 E16.4399
G1 X39.929 Y40.061 E16.46492
G1 X37.081 Y41.581 E16.62598
G1 X36.905 Y41.251 E16.64464
G1 X36.693 Y41.215 E16.65537
G0 F3600 X37.338 Y41.218
G1 F1800 X37.338 Y41.053 E16.6636
G0 F3600 X39.206 Y40.005
G1 F1800 X39.61 Y40.005 E16.68375
G0 F3600 X25.265 Y57.9
G1 F1800 X25.218 Y58.117 E16.69483
G1 X25.463 Y60.593 E16.81896
G1 X25.029 Y60.196 E16.84831
G1 X24.699 Y60.196 E16.86477
G1 X24.699 Y57.9 E16.97932
G1 X25.265 Y57.9 E17.00756
G0 F3600 X25.072 Y58.674
G1 F1800 X24.898 Y58.674 E17.01624
G0 F3600 X30.651 Y73.534
G1 F1800 X31.486 Y74.479 E17.07915
G1 X33.829 Y77.336 E17.26349
G1 X34.271 Y77.544 E17.28786
G1 X35.153 Y77.544 E17.33186
G1 X36.655 Y78.484 E17.42026
G1 X36.247 Y79.178 E17.46043
G1 X35.493 Y78.714 E17.5046
G1 X35.487 Y78.714 E17.5049
G1 X35.003 Y78.423 E17.53307
G1 X31.875 Y75.529 E17.74567
G1 X31.18 Y74.573 E17.80464
G1 X30.461 Y73.696 E17.86122
G1 X30.651 Y73.534 E17.87368
G0 F3600 X34.671 Y77.744
G1 F1800 X34.671 Y77.843 E17.87861
G0 F3600 X41.405 Y81.152
G1 F1800 X44.803 Y82.181 E18.05574
G1 X45.287 Y81.838 E18.08534
G1 X45.331 Y80.891 E18.13264
G1 X46.956 Y80.891 E18.21371
G1 X48.89 Y80.871 E18.3102
G1 X49.087 Y82.237 E18.37906
G1 X49.523 Y82.585 E18.40689
G1 X51.497 Y82.426 E18.50569
G1 X54.605 Y81.486 E18.66769
G1 X54.825 Y80.938 E18.69715
G1 X54.377 Y80.14 E18.7428
G1 X54.646 Y79.99 E18.75817
G1 X55.584 Y79.431 E18.81265
G1 X60.22 Y76.953 E19.0749
G1 X62.399 Y74.292 E19.24649
G1 X62.503 Y74.155 E19.25507
G1 X63.91 Y72.445 E19.36555
G1 X65.066 Y73.391 E19.44008
G1 X65.642 Y73.278 E19.46936
G1 X66.953 Y70.842 E19.60738
G1 X67.139 Y70.932 E19.61768
G1 X67.673 Y70.679 E19.64716
G1 X68.496 Y67.235 E19.82382
G1 X69.275 Y64.656 E19.95823
G1 X69.736 Y59.99 E20.19215
G1 X69.441 Y57.602 E20.3122
G1 X69.268 Y55.83 E20.40102
G1 X68.462 Y53.145 E20.54088
G1 X67.798 Y50.957 E20.65496
G1 X66.626 Y49.05 E20.76663
G1 X66.622 Y49.039 E20.76722
G1 X66.037 Y47.947 E20.82902
G1 X65.922 Y47.718 E20.84181
G1 X61.173 Y41.929 E21.21537
G1 X60.56 Y41.997 E21.24614
G1 X59.954 Y43.196 E21.31316
G1 X53.544 Y39.761 E21.67598
G1 X51.606 Y39.761 E21.77267
G1 X50.024 Y39.281 E21.85515
G1 X50.287 Y38.415 E21.9003
G1 X49.96 Y37.927 E21.92961
G1 X49.576 Y37.889 E21.94886
G1 X51.567 Y37.967 E22.04827
G1 X54.095 Y38.586 E22.17812
G1 X55.94 Y39.028 E22.27277
G1 X58.756 Y40.345 E22.42786
G1 X60.059 Y40.947 E22.49947
G1 X62.605 Y42.819 E22.65713
G1 X63.76 Y43.664 E22.72853
G1 X66.55 Y46.714 E22.93476
G1 X66.887 Y47.078 E22.95951
G1 X69.321 Y51.1 E23.19405
G1 X69.746 Y52.271 E23.2562
G1 X70.739 Y55.541 E23.42669
G1 X71.202 Y60.249 E23.66271
G1 X70.74 Y64.957 E23.89872
G1 X69.369 Y69.476 E24.13432
G1 X68.784 Y70.567 E24.19608
G1 X67.015 Y73.491 E24.36658
G1 X66.606 Y73.929 E24.39648
G1 X66.606 Y73.935 E24.39678
G1 X63.858 Y76.944 E24.60008
G1 X62.916 Y77.626 E24.6581
G1 X62.916 Y77.631 E24.65835
G1 X60.138 Y79.676 E24.83045
G1 X58.549 Y80.405 E24.91767
G1 X58.549 Y80.411 E24.91797
G1 X56.002 Y81.601 E25.05823
G1 X54.503 Y81.96 E25.13513
G1 X51.612 Y82.673 E25.28368
G1 X49.523 Y82.754 E25.38798
G1 X47.137 Y82.863 E25.50714
G1 X44.538 Y82.446 E25.63846
G1 X42.79 Y82.182 E25.72666
G1 X41.222 Y81.602 E25.81007
G1 X41.277 Y81.573 E25.81317
G1 X41.405 Y81.152 E25.83513
G0 F3600 X42.672 Y81.745
G1 F1800 X42.672 Y81.924 E25.84406
G0 F3600 X45.339 Y82.046
G1 F1800 X45.339 Y82.372 E25.86032
G0 F3600 X48.006 Y82.623
G1 F1800 X48.006 Y81.08 E25.9373
G0 F3600 X55.002 Y80.01
G1 F1800 X58.929 Y80.01 E26.13322
G0 F3600 X58.674 Y80.128
G1 F1800 X58.674 Y78.006 E26.23909
G0 F3600 X59.914 Y77.343
G1 F1800 X62.965 Y77.343 E26.3913
G0 F3600 X64.008 Y76.483
G1 F1800 X64.008 Y72.785 E26.57579
G0 F3600 X65.658 Y74.676
G1 F1800 X62.343 Y74.676 E26.74118
G0 F3600 X61.341 Y75.899
G1 F1800 X61.341 Y78.542 E26.87304
G0 F3600 X56.007 Y79.431
G1 F1800 X56.007 Y81.378 E26.97018
G0 F3600 X66.675 Y73.563
G1 F1800 X66.675 Y71.78 E27.05913
G0 F3600 X66.552 Y72.009
G1 F1800 X67.677 Y72.009 E27.11526
G0 F3600 X68.199 Y69.342
G1 F1800 X69.2 Y69.342 E27.1652
G0 F3600 X69.342 Y68.877
G1 F1800 X69.342 Y65.125 E27.35239
G0 F3600 X69.54 Y64.008
G1 F1800 X70.632 Y64.008 E27.40687
G0 F3600 X70.893 Y61.341
G1 F1800 X69.804 Y61.341 E27.4612
G0 F3600 X69.774 Y58.674
G1 F1800 X70.847 Y58.674 E27.51473
G0 F3600 X70.585 Y56.007
G1 F1800 X69.486 Y56.007 E27.56956
G0 F3600 X69.342 Y55.38
G1 F1800 X69.342 Y51.745 E27.75091
G0 F3600 X68.83 Y50.673
G1 F1800 X67.858 Y50.673 E27.7994
G0 F3600 X66.675 Y48.715
G1 F1800 X66.675 Y47.143 E27.87783
G0 F3600 X66.296 Y48.006
G1 F1800 X67.216 Y48.006 E27.92373
G0 F3600 X65.023 Y45.339
G1 F1800 X64.23 Y45.339 E27.96329
G0 F3600 X64.008 Y45.069
G1 F1800 X64.008 Y44.232 E28.00505
G0 F3600 X59.994 Y42.672
G1 F1800 X59.399 Y42.672 E28.03473
G0 F3600 X58.674 Y42.283
G1 F1800 X58.674 Y40.528 E28.12229
G0 F3600 X57.558 Y40.005
G1 F1800 X54.422 Y40.005 E28.27875
G0 F3600 X53.34 Y39.561
G1 F1800 X53.34 Y38.607 E28.32634
G0 F3600 X50.673 Y38.133
G1 F1800 X50.673 Y39.269 E28.38302
G0 F3600 X56.007 Y39.28
G1 F1800 X56.007 Y40.854 E28.46154
G0 F3600 X68.73 Y53.34
G1 F1800 X69.863 Y53.34 E28.51807
G0 F3600 X70.01 Y66.675
G1 F1800 X68.874 Y66.675 E28.57475
G1 F1500 E22.07475
G0 F3600 X76.248 Y54.297
G0 X76.232 Y44.881
G0 X85.3 Y39.108
G1 F1500 E28.57475
G1 F1800 X89.222 Y35.887 E28.82794
G1 X89.753 Y36.537 E28.86982
G1 X85.3 Y39.108 E29.12635
G0 F3600 X87.77 Y37.338
G1 F1800 X87.963 Y37.338 E29.13598
G0 F3600 X88.011 Y37.312
G1 F1800 X88.011 Y37.14 E29.14456
G1 F1500 E22.64456
G0 F3600 X102.644 Y29.368
G0 X119.63 Y38.635
G1 F1500 E29.14456
G1 F1800 X120.302 Y37.961 E29.19204
G1 X123.35 Y40.438 E29.38799
G1 X123.13 Y40.655 E29.40341
G1 X119.63 Y38.635 E29.60502
G0 F3600 X120.015 Y38.626
G1 F1800 X120.015 Y38.531 E29.60976
G0 F3600 X122.405 Y40.005
G1 F1800 X122.502 Y40.005 E29.6146
G1 F1500 E23.1146
G0 F3600 X129.284 Y44.482
G0 X129.755 Y57.381
G1 F1500 E29.6146
G1 F1800 X130.019 Y57.369 E29.62778
G1 X130.15 Y58.646 E29.69183
G1 X130.285 Y58.891 E29.70578
G1 X130.237 Y59.514 E29.73696
G1 X130.258 Y59.818 E29.75216
G1 X130.258 Y61.33 E29.82759
G1 X129.755 Y62.154 E29.87576
G1 X129.755 Y57.381 E30.11388
G1 F1500 E23.61388
G0 F3600 X129.518 Y75.119
G0 X103.106 Y90.632
G0 X89.796 Y83.488
G1 F1500 E30.11388
G1 F1800 X89.261 Y84.141 E30.156
G1 X86.085 Y81.531 E30.36109
G1 X85.6 Y81.065 E30.39465
G1 X89.796 Y83.488 E30.63638
G0 F3600 X88.011 Y82.854
G1 F1800 X88.011 Y82.689 E30.64461
G0 F3600 X87.992 Y82.677
G1 F1800 X87.794 Y82.677 E30.65449
G1 F1500 E24.15449
;MESH:Rosca Mesa Vidrio.stl
G0 F3600 X73.649 Y75.324
G0 X72.688 Y74.76
G0 X60.824 Y80.834
G0 X56.447 Y82.873
G0 X51.805 Y84.004
G0 X47.066 Y84.206
G0 X42.419 Y83.475
G0 X38.097 Y81.886
G0 X34.193 Y79.498
G0 X30.867 Y76.419
G0 X28.098 Y72.923
G0 X26 Y68.996
G0 X23.199 Y61.696
;TYPE:WALL-INNER
G1 F1500 E30.65449
G1 F1800 X24.241 Y61.696 E30.70648
G1 X24.539 Y64.721 E30.85812
G1 X24.574 Y64.852 E30.86489
G1 X25.851 Y69.059 E31.08423
G1 X27.962 Y73.009 E31.30768
G1 X28.136 Y73.228 E31.32163
G1 X29.985 Y75.481 E31.46704
G1 X30.746 Y76.528 E31.53162
G1 X34.095 Y79.627 E31.75926
G1 X34.925 Y80.126 E31.80757
G1 X38.026 Y82.031 E31.98914
G1 X39.423 Y82.537 E32.06327
G1 X42.371 Y83.628 E32.2201
G1 X42.446 Y83.647 E32.22396
G1 X44.38 Y83.939 E32.32154
G1 X47.058 Y84.368 E32.45685
G1 X49.571 Y84.254 E32.58235
G1 X51.825 Y84.165 E32.69489
G1 X54.753 Y83.443 E32.84534
G1 X56.5 Y83.026 E32.93495
G1 X59.7 Y81.528 E33.11123
G1 X60.192 Y81.301 E33.13826
G1 X60.907 Y80.973 E33.17751
G1 X61.435 Y80.584 E33.21022
G1 X64.169 Y78.571 E33.37961
G1 X64.868 Y78.064 E33.42269
G1 X67.945 Y74.693 E33.6504
G1 X68.216 Y74.404 E33.67016
G1 X70.085 Y71.314 E33.85033
G1 X70.76 Y70.052 E33.92173
G1 X72.108 Y65.608 E34.15342
G1 X72.218 Y65.245 E34.17234
G1 X72.505 Y62.331 E34.31843
G1 X72.505 Y65.245 E34.37047
G1 X72.505 Y65.625 E34.38678
G1 X72.505 Y74.654 E34.83724
G1 X61.639 Y80.928 E35.46322
G1 X61.071 Y81.256 E35.49296
G1 X60.39 Y81.649 E35.52861
G1 X47.125 Y89.308 E36.2928
G1 X21.745 Y74.654 E37.75492
G1 X21.745 Y45.346 E39.2171
G1 X47.125 Y30.692 E40.67922
G1 X72.505 Y45.346 E42.14133
G1 X72.505 Y54.876 E42.61679
G1 X72.505 Y55.253 E42.6356
G1 X72.505 Y58.172 E42.78123
G1 X72.217 Y55.253 E42.83424
G1 X72.108 Y54.893 E42.85041
G1 X71.167 Y51.788 E43.01227
G1 X70.68 Y50.445 E43.08354
G1 X68.149 Y46.267 E43.32725
G1 X68.103 Y46.185 E43.33194
G1 X67.653 Y45.698 E43.36502
G1 X64.765 Y42.539 E43.57856
G1 X63.86 Y41.881 E43.63438
G1 X60.823 Y39.647 E43.82248
G1 X59.388 Y38.984 E43.90134
G1 X56.436 Y37.604 E44.06392
G1 X54.448 Y37.129 E44.16589
G1 X51.946 Y36.516 E44.29441
G1 X51.885 Y36.479 E44.29797
G1 X49.285 Y36.376 E44.42778
G1 X47.147 Y36.28 E44.53455
G1 X47.087 Y36.273 E44.53757
G1 X44.122 Y36.744 E44.68735
G1 X42.438 Y37.002 E44.77234
G1 X40.827 Y37.598 E44.85804
G1 X39.211 Y38.192 E44.94394
G1 X38.325 Y38.515 E44.99098
G1 X38.084 Y38.6 E45.00373
G1 X34.763 Y40.64 E45.19818
G1 X34.174 Y40.995 E45.23249
G1 X31.818 Y43.175 E45.39263
G1 X30.836 Y43.982 E45.45605
G1 X27.975 Y47.468 E45.68104
G1 X25.849 Y51.445 E45.90602
G1 X24.765 Y55.025 E46.09264
G1 X24.595 Y55.578 E46.1215
G1 X24.54 Y55.767 E46.13132
G1 X24.478 Y56.4 E46.16305
G1 X23.199 Y56.4 E46.22686
G1 X23.199 Y61.696 E46.49108
G0 F3600 X23.599 Y61.296
;TYPE:WALL-OUTER
G1 F1800 X24.603 Y61.296 E46.54117
G1 X24.934 Y64.649 E46.70926
G1 X24.959 Y64.742 E46.71407
G1 X26.222 Y68.905 E46.93111
G1 X28.298 Y72.789 E47.15083
G1 X28.447 Y72.977 E47.16279
G1 X30.304 Y75.24 E47.30884
G1 X31.046 Y76.261 E47.37181
G1 X34.336 Y79.305 E47.59543
G1 X35.134 Y79.785 E47.64189
G1 X38.201 Y81.669 E47.82146
G1 X39.562 Y82.162 E47.89368
G1 X42.491 Y83.246 E48.0495
G1 X42.526 Y83.255 E48.0513
G1 X44.44 Y83.544 E48.14787
G1 X47.081 Y83.967 E48.28131
G1 X49.553 Y83.854 E48.40477
G1 X51.769 Y83.767 E48.51541
G1 X54.66 Y83.054 E48.66396
G1 X56.367 Y82.646 E48.75153
G1 X59.533 Y81.164 E48.92593
G1 X60.703 Y80.627 E48.99015
G1 X63.934 Y78.247 E49.19036
G1 X64.6 Y77.764 E49.2314
G1 X67.653 Y74.42 E49.45731
G1 X67.895 Y74.161 E49.47499
G1 X69.737 Y71.116 E49.65254
G1 X70.389 Y69.898 E49.72147
G1 X71.824 Y65.167 E49.96812
G1 X72.308 Y60.249 E50.21466
G1 X71.823 Y55.331 E50.46121
G1 X70.787 Y51.914 E50.63935
G1 X70.317 Y50.619 E50.70808
G1 X67.8 Y46.463 E50.95049
G1 X67.777 Y46.422 E50.95283
G1 X67.359 Y45.969 E50.98358
G1 X64.497 Y42.839 E51.19518
G1 X63.623 Y42.203 E51.24911
G1 X60.619 Y39.993 E51.43516
G1 X59.22 Y39.347 E51.51204
G1 X56.303 Y37.984 E51.67268
G1 X54.355 Y37.518 E51.7726
G1 X51.789 Y36.889 E51.90441
G1 X51.766 Y36.875 E51.90576
G1 X49.267 Y36.776 E52.03053
G1 X47.12 Y36.68 E52.13775
G1 X47.095 Y36.677 E52.13901
G1 X44.185 Y37.139 E52.28601
G1 X42.539 Y37.391 E52.36908
G1 X40.966 Y37.973 E52.45276
G1 X39.348 Y38.568 E52.53877
G1 X38.462 Y38.891 E52.58581
G1 X38.257 Y38.963 E52.59665
G1 X34.969 Y40.983 E52.78918
G1 X34.496 Y41.268 E52.81673
G1 X34.416 Y41.316 E52.82138
G1 X32.088 Y43.471 E52.97965
G1 X31.12 Y44.266 E53.04214
G1 X28.309 Y47.691 E53.2632
G1 X26.22 Y51.599 E53.48428
G1 X25.147 Y55.141 E53.66892
G1 X24.978 Y55.692 E53.69767
G1 X24.935 Y55.842 E53.70546
G1 X24.841 Y56.8 E53.75348
G1 X23.599 Y56.8 E53.81544
G1 X23.599 Y61.296 E54.03975
G0 F3600 X23.799 Y61.296
G0 X23.799 Y61.596
G0 X26 Y68.996
G0 X28.098 Y72.923
G0 X30.867 Y76.419
G0 X34.193 Y79.498
G0 X38.097 Y81.886
G0 X42.477 Y83.489
G0 X47.066 Y84.206
G0 X51.805 Y84.004
G0 X56.447 Y82.873
G0 X59.992 Y81.222
G0 X72.619 Y74.72
G0 X72.905 Y74.885
