;FLAVOR:Marlin
;TIME:487
;Filament used: 0.350132m
;Layer height: 0.2
;MINX:13.808
;MINY:15.928
;MINZ:0.3
;MAXX:46.128
;MAXY:34.742
;MAXZ:14.9
;Generated with Cura_SteamEngine 4.9.0
M140 S60
M105
M190 S60
M104 S200
M105
M109 S200
M82 ;absolute extrusion mode
SET_SKEW  XY=139.22,142.90,100
G28 ;Home
G1 Z15.0 F6000 ;Move the platform down 15mm
;Prime the extruder
G92 E0
G1 F200 E3
G92 E0
G92 E0
G92 E0
G1 F1500 E-6.5
;LAYER_COUNT:74
;LAYER:0
M107
G0 F3600 X16.687 Y18.586 Z0.3
;TYPE:SKIRT
G1 F1500 E0
G1 F1800 X17.202 Y18.137 E0.03409
G1 X17.639 Y17.8 E0.06162
G1 X17.981 Y17.561 E0.08244
G1 X18.489 Y17.241 E0.11239
G1 X18.936 Y16.995 E0.13784
G1 X19.565 Y16.71 E0.1723
G1 X20.147 Y16.488 E0.20337
G1 X20.91 Y16.26 E0.2431
G1 X21.316 Y16.173 E0.26382
G1 X21.862 Y16.082 E0.29143
G1 X22.769 Y15.999 E0.33687
G1 X23.197 Y15.99 E0.35823
G1 X24.186 Y16.018 E0.40759
G1 X26.289 Y16.122 E0.51264
G1 X28.975 Y16.178 E0.64667
G1 X31.694 Y16.157 E0.78233
G1 X34.389 Y16.061 E0.91687
G1 X36.458 Y15.938 E1.02027
G1 X36.772 Y15.928 E1.03595
G1 X37.383 Y15.947 E1.06644
G1 X37.657 Y15.974 E1.08018
G1 X38.301 Y16.057 E1.11257
G1 X39.066 Y16.215 E1.15155
G1 X39.431 Y16.32 E1.17049
G1 X39.992 Y16.508 E1.20001
G1 X40.394 Y16.665 E1.22154
G1 X40.907 Y16.895 E1.24959
G1 X41.593 Y17.267 E1.28853
G1 X41.924 Y17.481 E1.30819
G1 X42.415 Y17.831 E1.33827
G1 X42.746 Y18.092 E1.3593
G1 X43.157 Y18.449 E1.38646
G1 X43.728 Y19.027 E1.427
G1 X43.982 Y19.327 E1.44661
G1 X44.394 Y19.86 E1.48022
G1 X44.816 Y20.501 E1.51851
G1 X45.001 Y20.836 E1.5376
G1 X45.279 Y21.396 E1.56879
G1 X45.447 Y21.778 E1.58961
G1 X45.629 Y22.253 E1.61499
G1 X45.801 Y22.788 E1.64302
G1 X45.955 Y23.458 E1.67732
G1 X46.042 Y23.977 E1.70358
G1 X46.092 Y24.395 E1.72458
G1 X46.128 Y24.907 E1.75019
G1 X46.123 Y25.832 E1.79634
G1 X46.033 Y26.716 E1.84067
G1 X45.954 Y27.158 E1.86307
G1 X45.81 Y27.782 E1.89502
G1 X45.576 Y28.532 E1.93421
G1 X45.439 Y28.874 E1.95259
G1 X45.176 Y29.461 E1.98468
G1 X44.797 Y30.16 E2.02435
G1 X44.583 Y30.491 E2.04402
G1 X44.26 Y30.944 E2.07178
G1 X44.003 Y31.27 E2.09249
G1 X43.603 Y31.732 E2.12297
G1 X43.233 Y32.111 E2.1494
G1 X42.745 Y32.536 E2.18168
G1 X42.302 Y32.879 E2.20964
G1 X41.949 Y33.125 E2.2311
G1 X41.443 Y33.443 E2.26092
G1 X40.996 Y33.689 E2.28637
G1 X40.356 Y33.978 E2.32141
G1 X39.878 Y34.159 E2.34691
G1 X39.481 Y34.288 E2.36773
G1 X38.984 Y34.424 E2.39344
G1 X38.08 Y34.598 E2.43937
G1 X37.657 Y34.648 E2.46062
G1 X37.154 Y34.683 E2.48577
G1 X36.723 Y34.692 E2.50728
G1 X35.688 Y34.662 E2.55894
G1 X33.712 Y34.563 E2.65765
G1 X31.027 Y34.505 E2.79163
G1 X28.306 Y34.524 E2.92739
G1 X25.615 Y34.618 E3.06172
G1 X23.534 Y34.742 E3.16573
G1 X22.662 Y34.734 E3.20923
G1 X21.773 Y34.644 E3.25381
G1 X21.318 Y34.564 E3.27686
G1 X20.722 Y34.426 E3.30738
G1 X19.944 Y34.181 E3.34808
G1 X19.593 Y34.041 E3.36693
G1 X19.015 Y33.781 E3.39855
G1 X18.565 Y33.546 E3.42388
G1 X18.003 Y33.195 E3.45693
G1 X17.547 Y32.871 E3.48484
G1 X17.214 Y32.609 E3.50598
G1 X16.764 Y32.219 E3.53569
G1 X16.4 Y31.864 E3.56106
G1 X15.948 Y31.348 E3.59528
G1 X15.609 Y30.909 E3.62295
G1 X15.367 Y30.562 E3.64406
G1 X15.047 Y30.053 E3.67405
G1 X14.802 Y29.609 E3.69935
G1 X14.52 Y28.984 E3.73356
G1 X14.298 Y28.403 E3.76459
G1 X14.068 Y27.634 E3.80464
G1 X13.982 Y27.231 E3.8252
G1 X13.891 Y26.685 E3.85281
G1 X13.808 Y25.78 E3.89815
G1 X13.813 Y24.852 E3.94445
G1 X13.904 Y23.957 E3.98933
G1 X13.983 Y23.509 E4.01203
G1 X14.121 Y22.913 E4.04255
G1 X14.364 Y22.14 E4.08298
G1 X14.507 Y21.783 E4.10216
G1 X14.768 Y21.204 E4.13385
G1 X15.154 Y20.499 E4.17395
G1 X15.356 Y20.187 E4.19249
G1 X15.678 Y19.735 E4.22018
G1 X15.939 Y19.404 E4.24121
G1 X16.333 Y18.95 E4.2712
G1 X16.687 Y18.586 E4.29653
G0 F3600 X17.19 Y18.669
G1 F1800 X17.446 Y18.453 E4.31324
G1 X17.883 Y18.116 E4.34077
G1 X18.194 Y17.9 E4.35966
G1 X18.702 Y17.58 E4.38962
G1 X19.407 Y17.212 E4.42929
G1 X19.707 Y17.084 E4.44557
G1 X20.289 Y16.862 E4.47664
G1 X21.013 Y16.647 E4.51432
G1 X21.381 Y16.567 E4.53311
G1 X21.927 Y16.476 E4.56073
G1 X22.797 Y16.398 E4.6043
G1 X23.186 Y16.39 E4.62372
G1 X24.167 Y16.418 E4.67268
G1 X26.263 Y16.521 E4.77737
G1 X28.969 Y16.578 E4.91241
G1 X31.711 Y16.557 E5.04921
G1 X34.387 Y16.462 E5.1828
G1 X36.358 Y16.343 E5.28131
G1 X36.785 Y16.328 E5.30263
G1 X37.357 Y16.347 E5.33118
G1 X37.606 Y16.371 E5.34366
G1 X38.25 Y16.454 E5.37606
G1 X38.972 Y16.604 E5.41285
G1 X39.304 Y16.699 E5.43008
G1 X39.865 Y16.887 E5.45959
G1 X40.23 Y17.03 E5.47915
G1 X40.743 Y17.26 E5.5072
G1 X41.391 Y17.612 E5.54399
G1 X41.692 Y17.807 E5.56188
G1 X42.183 Y18.157 E5.59197
G1 X42.484 Y18.394 E5.61108
G1 X42.895 Y18.751 E5.63824
G1 X43.434 Y19.298 E5.67655
G1 X43.666 Y19.572 E5.69446
G1 X44.078 Y20.105 E5.72807
G1 X44.475 Y20.709 E5.76413
G1 X44.643 Y21.013 E5.78146
G1 X44.921 Y21.573 E5.81265
G1 X45.073 Y21.921 E5.8316
G1 X45.255 Y22.396 E5.85698
G1 X45.417 Y22.901 E5.88344
G1 X45.561 Y23.524 E5.91534
G1 X45.648 Y24.043 E5.94159
G1 X45.693 Y24.423 E5.96068
G1 X45.729 Y24.935 E5.98629
G1 X45.723 Y25.82 E6.03044
G1 X45.636 Y26.666 E6.07287
G1 X45.565 Y27.068 E6.09324
G1 X45.421 Y27.692 E6.12519
G1 X45.198 Y28.4 E6.16222
G1 X45.074 Y28.711 E6.17893
G1 X44.811 Y29.298 E6.21102
G1 X44.452 Y29.958 E6.2485
G1 X44.257 Y30.259 E6.26639
G1 X43.934 Y30.712 E6.29415
G1 X43.701 Y31.008 E6.31294
G1 X43.301 Y31.47 E6.34343
G1 X42.738 Y32.02 E6.3827
G1 X42.5 Y32.22 E6.39821
G1 X42.057 Y32.563 E6.42616
G1 X41.736 Y32.787 E6.44569
G1 X41.23 Y33.105 E6.4755
G1 X40.52 Y33.473 E6.5154
G1 X40.214 Y33.604 E6.53201
G1 X39.736 Y33.785 E6.55751
G1 X39.376 Y33.902 E6.57639
G1 X38.879 Y34.038 E6.6021
G1 X38.014 Y34.204 E6.64604
G1 X37.63 Y34.249 E6.66533
G1 X37.127 Y34.284 E6.69049
G1 X36.734 Y34.292 E6.7101
G1 X35.708 Y34.262 E6.76131
G1 X33.74 Y34.164 E6.85961
G1 X31.033 Y34.105 E6.9947
G1 X28.325 Y34.124 E7.1298
G1 X25.576 Y34.22 E7.26703
G1 X23.51 Y34.343 E7.37029
G1 X22.674 Y34.334 E7.412
G1 X21.822 Y34.247 E7.45473
G1 X21.409 Y34.174 E7.47565
G1 X20.813 Y34.036 E7.50617
G1 X20.076 Y33.803 E7.54474
G1 X19.757 Y33.676 E7.56187
G1 X19.179 Y33.416 E7.59349
G1 X18.502 Y33.042 E7.63207
G1 X18.235 Y32.869 E7.64795
G1 X17.779 Y32.545 E7.67585
G1 X17.476 Y32.307 E7.69508
G1 X17.026 Y31.917 E7.72478
G1 X16.48 Y31.359 E7.76373
G1 X16.265 Y31.104 E7.78037
G1 X15.926 Y30.665 E7.80805
G1 X15.706 Y30.349 E7.82726
G1 X15.386 Y29.84 E7.85725
G1 X15.021 Y29.139 E7.89668
G1 X14.893 Y28.842 E7.91282
G1 X14.671 Y28.261 E7.94385
G1 X14.455 Y27.531 E7.98183
G1 X14.376 Y27.166 E8.00046
G1 X14.285 Y26.62 E8.02807
G1 X14.207 Y25.752 E8.07155
G1 X14.213 Y24.863 E8.11591
G1 X14.301 Y24.007 E8.15884
G1 X14.373 Y23.6 E8.17946
G1 X14.511 Y23.004 E8.20998
G1 X14.742 Y22.272 E8.24827
G1 X14.871 Y21.947 E8.26572
G1 X15.132 Y21.368 E8.2974
G1 X15.498 Y20.703 E8.33527
G1 X15.682 Y20.419 E8.35216
G1 X16.004 Y19.967 E8.37984
G1 X16.241 Y19.666 E8.39896
G1 X16.635 Y19.212 E8.42895
G1 X17.19 Y18.669 E8.46769
G0 F3600 X17.46 Y18.964
G1 F1800 X17.691 Y18.77 E8.48274
G1 X18.128 Y18.433 E8.51027
G1 X18.407 Y18.238 E8.52725
G1 X18.915 Y17.918 E8.5572
G1 X19.58 Y17.573 E8.59458
G1 X19.85 Y17.457 E8.60924
G1 X20.432 Y17.235 E8.64032
G1 X21.115 Y17.033 E8.67585
G1 X21.447 Y16.962 E8.69279
G1 X21.993 Y16.871 E8.7204
G1 X22.824 Y16.797 E8.76203
G1 X23.174 Y16.789 E8.77949
G1 X24.147 Y16.817 E8.82806
G1 X26.269 Y16.921 E8.93405
G1 X28.964 Y16.978 E9.06853
G1 X31.693 Y16.957 E9.20469
G1 X34.466 Y16.858 E9.34312
G1 X36.483 Y16.738 E9.44393
G1 X36.797 Y16.728 E9.4596
G1 X37.331 Y16.746 E9.48626
G1 X37.555 Y16.768 E9.49749
G1 X38.199 Y16.851 E9.52988
G1 X38.878 Y16.993 E9.56449
G1 X39.177 Y17.079 E9.58001
G1 X39.738 Y17.267 E9.60953
G1 X40.067 Y17.395 E9.62714
G1 X40.58 Y17.625 E9.65519
G1 X41.189 Y17.957 E9.6898
G1 X41.46 Y18.133 E9.70592
G1 X41.951 Y18.483 E9.736
G1 X42.222 Y18.696 E9.7532
G1 X42.633 Y19.053 E9.78036
G1 X43.141 Y19.57 E9.81652
G1 X43.349 Y19.816 E9.83259
G1 X43.761 Y20.349 E9.8662
G1 X44.133 Y20.917 E9.90008
G1 X44.285 Y21.191 E9.91571
G1 X44.563 Y21.751 E9.9469
G1 X44.7 Y22.064 E9.96395
G1 X44.882 Y22.539 E9.98932
G1 X45.081 Y23.193 E10.02343
G1 X45.166 Y23.59 E10.04368
G1 X45.253 Y24.109 E10.06994
G1 X45.294 Y24.451 E10.08712
G1 X45.33 Y24.963 E10.11273
G1 X45.324 Y25.809 E10.15494
G1 X45.239 Y26.616 E10.19542
G1 X45.175 Y26.978 E10.21376
G1 X45.031 Y27.602 E10.24571
G1 X44.821 Y28.267 E10.2805
G1 X44.709 Y28.547 E10.29555
G1 X44.446 Y29.134 E10.32764
G1 X44.107 Y29.756 E10.36298
G1 X43.931 Y30.027 E10.3791
G1 X43.608 Y30.48 E10.40686
G1 X43.399 Y30.746 E10.42374
G1 X42.999 Y31.208 E10.45422
G1 X42.47 Y31.723 E10.49106
G1 X42.255 Y31.904 E10.50508
G1 X41.812 Y32.247 E10.53303
G1 X41.524 Y32.448 E10.55055
G1 X41.018 Y32.766 E10.58037
G1 X40.348 Y33.112 E10.61799
G1 X40.073 Y33.23 E10.63292
G1 X39.595 Y33.411 E10.65842
G1 X39.27 Y33.516 E10.67546
G1 X38.773 Y33.652 E10.70116
G1 X37.948 Y33.809 E10.74306
G1 X37.602 Y33.85 E10.76045
G1 X37.099 Y33.885 E10.7856
G1 X36.746 Y33.893 E10.80322
G1 X35.727 Y33.863 E10.85408
G1 X33.732 Y33.763 E10.95373
G1 X31.039 Y33.705 E11.08812
G1 X28.309 Y33.724 E11.22432
G1 X25.579 Y33.819 E11.3606
G1 X23.486 Y33.944 E11.46521
G1 X22.685 Y33.934 E11.50518
G1 X21.871 Y33.85 E11.546
G1 X21.499 Y33.784 E11.56485
G1 X20.903 Y33.646 E11.59537
G1 X20.208 Y33.426 E11.63174
G1 X19.921 Y33.311 E11.64717
G1 X19.343 Y33.051 E11.67879
G1 X18.707 Y32.699 E11.71505
G1 X18.467 Y32.543 E11.72933
G1 X18.011 Y32.219 E11.75724
G1 X17.738 Y32.004 E11.77458
G1 X17.288 Y31.614 E11.80429
G1 X16.775 Y31.089 E11.84091
G1 X16.582 Y30.859 E11.85589
G1 X16.243 Y30.42 E11.88356
G1 X16.044 Y30.136 E11.90086
G1 X15.724 Y29.627 E11.93086
G1 X15.382 Y28.967 E11.96794
G1 X15.267 Y28.699 E11.98249
G1 X15.045 Y28.118 E12.01352
G1 X14.842 Y27.429 E12.04936
G1 X14.771 Y27.1 E12.06615
G1 X14.68 Y26.554 E12.09376
G1 X14.606 Y25.724 E12.13534
G1 X14.612 Y24.874 E12.17774
G1 X14.698 Y24.056 E12.21878
G1 X14.763 Y23.69 E12.23732
G1 X14.901 Y23.094 E12.26785
G1 X15.119 Y22.404 E12.30395
G1 X15.236 Y22.112 E12.31964
G1 X15.497 Y21.533 E12.35133
G1 X15.842 Y20.906 E12.38703
G1 X16.008 Y20.651 E12.40221
G1 X16.33 Y20.199 E12.4299
G1 X16.543 Y19.928 E12.4471
G1 X16.937 Y19.474 E12.47709
G1 X17.46 Y18.964 E12.51353
G0 F3600 X17.73 Y19.259
G1 F1800 X17.935 Y19.087 E12.52688
G1 X18.372 Y18.75 E12.55441
G1 X18.62 Y18.576 E12.56953
G1 X19.128 Y18.256 E12.59948
G1 X19.752 Y17.934 E12.63451
G1 X19.993 Y17.831 E12.64759
G1 X20.575 Y17.609 E12.67866
G1 X21.218 Y17.42 E12.7121
G1 X21.513 Y17.357 E12.72715
G1 X22.059 Y17.266 E12.75477
G1 X22.852 Y17.196 E12.79448
G1 X23.163 Y17.189 E12.81
G1 X24.127 Y17.217 E12.85812
G1 X26.24 Y17.321 E12.96366
G1 X28.959 Y17.378 E13.09934
G1 X31.711 Y17.357 E13.23665
G1 X34.463 Y17.259 E13.37403
G1 X36.496 Y17.138 E13.47564
G1 X36.81 Y17.128 E13.49131
G1 X37.504 Y17.164 E13.52598
G1 X38.148 Y17.247 E13.55838
G1 X38.784 Y17.381 E13.5908
G1 X39.05 Y17.458 E13.60462
G1 X39.611 Y17.646 E13.63414
G1 X39.903 Y17.76 E13.64978
G1 X40.416 Y17.99 E13.67782
G1 X40.987 Y18.303 E13.71031
G1 X41.227 Y18.458 E13.72456
G1 X41.718 Y18.808 E13.75465
G1 X41.959 Y18.998 E13.76996
G1 X42.37 Y19.355 E13.79712
G1 X42.848 Y19.842 E13.83116
G1 X43.033 Y20.061 E13.84546
G1 X43.445 Y20.594 E13.87907
G1 X43.792 Y21.126 E13.91076
G1 X43.926 Y21.369 E13.92461
G1 X44.204 Y21.929 E13.9558
G1 X44.326 Y22.207 E13.97095
G1 X44.508 Y22.682 E13.99632
G1 X44.691 Y23.286 E14.02781
G1 X44.772 Y23.656 E14.04671
G1 X44.859 Y24.175 E14.07296
G1 X44.895 Y24.48 E14.08828
G1 X44.931 Y24.992 E14.11389
G1 X44.924 Y25.797 E14.15405
G1 X44.842 Y26.567 E14.19268
G1 X44.785 Y26.889 E14.209
G1 X44.641 Y27.513 E14.24095
G1 X44.443 Y28.135 E14.27352
G1 X44.344 Y28.383 E14.28684
G1 X44.081 Y28.97 E14.31893
G1 X43.762 Y29.554 E14.35213
G1 X43.606 Y29.795 E14.36645
G1 X43.283 Y30.248 E14.39421
G1 X43.096 Y30.485 E14.40927
G1 X42.696 Y30.947 E14.43976
G1 X42.201 Y31.427 E14.47416
G1 X42.01 Y31.587 E14.48659
G1 X41.567 Y31.93 E14.51454
G1 X41.311 Y32.109 E14.53012
G1 X40.805 Y32.427 E14.55994
G1 X40.176 Y32.751 E14.59524
G1 X39.931 Y32.856 E14.60854
G1 X39.453 Y33.037 E14.63404
G1 X39.165 Y33.131 E14.64915
G1 X38.668 Y33.267 E14.67486
G1 X37.881 Y33.415 E14.71481
G1 X37.574 Y33.451 E14.73023
G1 X37.071 Y33.486 E14.75539
G1 X36.757 Y33.493 E14.77106
G1 X35.747 Y33.463 E14.82147
G1 X33.761 Y33.364 E14.92067
G1 X31.045 Y33.305 E15.05621
G1 X28.292 Y33.324 E15.19356
G1 X25.54 Y33.42 E15.33094
G1 X23.462 Y33.544 E15.43479
G1 X22.697 Y33.535 E15.47296
G1 X21.92 Y33.453 E15.51194
G1 X21.589 Y33.395 E15.52871
G1 X20.993 Y33.257 E15.55923
G1 X20.34 Y33.048 E15.59344
G1 X20.085 Y32.946 E15.60714
G1 X19.507 Y32.686 E15.63876
G1 X18.912 Y32.356 E15.6727
G1 X18.699 Y32.217 E15.68539
G1 X18.243 Y31.893 E15.7133
G1 X18 Y31.702 E15.72872
G1 X17.55 Y31.312 E15.75843
G1 X17.07 Y30.819 E15.79276
G1 X16.898 Y30.615 E15.80607
G1 X16.559 Y30.176 E15.83374
G1 X16.383 Y29.923 E15.84912
G1 X16.063 Y29.414 E15.87911
G1 X15.743 Y28.794 E15.91392
G1 X15.641 Y28.556 E15.92684
G1 X15.419 Y27.975 E15.95787
G1 X15.228 Y27.327 E15.99157
G1 X15.166 Y27.034 E16.00651
G1 X15.075 Y26.488 E16.03413
G1 X15.005 Y25.696 E16.0738
G1 X15.012 Y24.885 E16.11426
G1 X15.095 Y24.106 E16.15334
G1 X15.152 Y23.78 E16.16986
G1 X15.29 Y23.184 E16.20038
G1 X15.497 Y22.536 E16.23431
G1 X15.601 Y22.276 E16.24829
G1 X15.862 Y21.697 E16.27997
G1 X16.186 Y21.11 E16.31342
G1 X16.334 Y20.883 E16.32694
G1 X16.656 Y20.431 E16.35463
G1 X16.845 Y20.191 E16.36987
G1 X17.239 Y19.737 E16.39986
G1 X17.73 Y19.259 E16.43405
G1 F1500 E9.93405
;MESH:A3_M3_608_short.stl
G0 F3600 X19.22 Y21.319
G0 X20.081 Y22.272
G0 X21.133 Y26.033
G0 X21.915 Y27.109
G0 X23.178 Y27.578
G0 X23.178 Y27.478
;TYPE:WALL-INNER
G1 F1500 E16.43405
G1 F1800 X23.829 Y27.376 E16.46692
G1 X24.418 Y27.077 E16.49988
G1 X24.886 Y26.609 E16.5329
G1 X25.185 Y26.02 E16.56585
G1 X25.287 Y25.369 E16.59873
G1 X25.185 Y24.718 E16.6316
G1 X24.886 Y24.129 E16.66456
G1 X24.418 Y23.661 E16.69758
G1 X23.83 Y23.362 E16.73049
G1 X23.178 Y23.258 E16.76343
G1 X22.526 Y23.362 E16.79636
G1 X21.938 Y23.661 E16.82928
G1 X21.47 Y24.129 E16.8623
G1 X21.171 Y24.717 E16.89521
G1 X21.067 Y25.369 E16.92815
G1 X21.171 Y26.021 E16.96108
G1 X21.47 Y26.609 E16.994
G1 X21.938 Y27.077 E17.02701
G1 X22.527 Y27.376 E17.05997
G1 X23.178 Y27.478 E17.09284
G0 F3600 X23.178 Y27.578
G0 X24.016 Y29.584
G0 X24.035 Y29.682
G1 F1800 X23.178 Y29.767 E17.13581
G1 X22.321 Y29.682 E17.17878
G1 X21.494 Y29.431 E17.22189
G1 X20.74 Y29.029 E17.26452
G1 X20.067 Y28.48 E17.30785
G1 X19.516 Y27.805 E17.35133
G1 X19.116 Y27.053 E17.39382
G1 X18.865 Y26.226 E17.43694
G1 X18.78 Y25.369 E17.4799
G1 X18.865 Y24.512 E17.52287
G1 X19.116 Y23.685 E17.56599
G1 X19.516 Y22.933 E17.60848
G1 X20.067 Y22.258 E17.65195
G1 X20.74 Y21.709 E17.69528
G1 X21.494 Y21.307 E17.73791
G1 X22.321 Y21.056 E17.78103
G1 X23.178 Y20.971 E17.824
G1 X24.035 Y21.056 E17.86696
G1 X24.862 Y21.307 E17.91008
G1 X25.616 Y21.709 E17.95271
G1 X26.289 Y22.258 E17.99604
G1 X26.84 Y22.933 E18.03951
G1 X27.24 Y23.685 E18.08201
G1 X27.491 Y24.512 E18.12512
G1 X27.576 Y25.369 E18.16809
G1 X27.491 Y26.226 E18.21105
G1 X27.24 Y27.053 E18.25417
G1 X26.84 Y27.805 E18.29667
G1 X26.289 Y28.48 E18.34014
G1 X25.616 Y29.029 E18.38347
G1 X24.862 Y29.431 E18.4261
G1 X24.035 Y29.682 E18.46922
G0 F3600 X24.114 Y30.076
;TYPE:WALL-OUTER
G1 F1800 X23.178 Y30.169 E18.51614
G1 X22.242 Y30.076 E18.56307
G1 X21.342 Y29.803 E18.60999
G1 X20.516 Y29.363 E18.65668
G1 X19.783 Y28.764 E18.70391
G1 X19.182 Y28.028 E18.75132
G1 X18.744 Y27.205 E18.79783
G1 X18.471 Y26.305 E18.84475
G1 X18.378 Y25.369 E18.89168
G1 X18.471 Y24.433 E18.9386
G1 X18.744 Y23.533 E18.98553
G1 X19.182 Y22.71 E19.03204
G1 X19.783 Y21.974 E19.07944
G1 X20.516 Y21.375 E19.12667
G1 X21.342 Y20.935 E19.17336
G1 X22.242 Y20.662 E19.22028
G1 X23.178 Y20.569 E19.26721
G1 X24.114 Y20.662 E19.31414
G1 X25.014 Y20.935 E19.36106
G1 X25.84 Y21.375 E19.40775
G1 X26.573 Y21.974 E19.45498
G1 X27.174 Y22.71 E19.50239
G1 X27.612 Y23.533 E19.5489
G1 X27.885 Y24.433 E19.59582
G1 X27.978 Y25.369 E19.64275
G1 X27.885 Y26.305 E19.68967
G1 X27.612 Y27.205 E19.73659
G1 X27.174 Y28.028 E19.78311
