;FLAVOR:Marlin
;TIME:2909
;Filament used: 3.52379m
;Layer height: 0.2
;MINX:16.318
;MINY:9.82
;MINZ:0.3
;MAXX:37.518
;MAXY:87.02
;MAXZ:41.9
;Generated with Cura_SteamEngine 4.9.0
M140 S60
M105
M190 S60
M104 S200
M105
M109 S200
M82 ;absolute extrusion mode
SET_SKEW  XY=139.22,142.90,100
G28 ;Home
G1 Z15.0 F6000 ;Move the platform down 15mm
;Prime the extruder
G92 E0
G1 F200 E3
G92 E0
G92 E0
G92 E0
G1 F1500 E-6.5
;LAYER_COUNT:209
;LAYER:0
M107
G0 F3600 X16.976 Y11.367 Z0.3
;TYPE:SKIRT
G1 F1500 E0
G1 F1800 X17.315 Y10.951 E0.02677
G1 X17.712 Y10.591 E0.05351
G1 X18.159 Y10.293 E0.08031
G1 X18.644 Y10.065 E0.10705
G1 X19.158 Y9.912 E0.1338
G1 X19.826 Y9.83 E0.16738
G1 X20.248 Y9.82 E0.18844
G1 X33.263 Y9.82 E0.83776
G1 X33.961 Y9.83 E0.87259
G1 X34.495 Y9.878 E0.89934
G1 X35.016 Y10.004 E0.92608
G1 X35.513 Y10.207 E0.95286
G1 X35.974 Y10.481 E0.97962
G1 X36.389 Y10.82 E1.00635
G1 X36.749 Y11.218 E1.03313
G1 X37.046 Y11.664 E1.05986
G1 X37.274 Y12.15 E1.08664
G1 X37.426 Y12.664 E1.11338
G1 X37.508 Y13.329 E1.14681
G1 X37.518 Y13.75 E1.16782
G1 X37.518 Y82.729 E4.6092
G1 X37.509 Y83.456 E4.64547
G1 X37.462 Y83.99 E4.67222
G1 X37.337 Y84.511 E4.69895
G1 X37.135 Y85.008 E4.72571
G1 X36.862 Y85.47 E4.75248
G1 X36.524 Y85.886 E4.77923
G1 X36.127 Y86.247 E4.806
G1 X35.681 Y86.545 E4.83276
G1 X35.196 Y86.773 E4.85949
G1 X34.682 Y86.927 E4.88626
G1 X34.01 Y87.01 E4.92004
G1 X33.588 Y87.02 E4.9411
G1 X30.574 Y87.02 E5.09147
G1 X29.896 Y87.01 E5.1253
G1 X29.362 Y86.962 E5.15205
G1 X28.841 Y86.835 E5.17881
G1 X28.344 Y86.632 E5.20559
G1 X27.883 Y86.358 E5.23234
G1 X27.403 Y85.956 E5.26358
G1 X27.383 Y85.936 E5.26499
G1 X27.034 Y85.529 E5.29174
G1 X26.748 Y85.075 E5.31851
G1 X26.533 Y84.584 E5.34525
G1 X26.393 Y84.066 E5.37202
G1 X26.331 Y83.496 E5.40063
G1 X26.293 Y82.226 E5.46402
G1 X26.171 Y79.443 E5.60299
G1 X25.975 Y76.723 E5.73905
G1 X25.702 Y74.003 E5.87543
G1 X25.357 Y71.335 E6.00965
G1 X24.928 Y68.624 E6.14658
G1 X24.423 Y65.919 E6.28387
G1 X23.853 Y63.291 E6.41803
G1 X23.204 Y60.656 E6.55342
G1 X22.463 Y57.978 E6.69204
G1 X21.675 Y55.414 E6.82586
G1 X20.791 Y52.801 E6.96349
G1 X19.849 Y50.257 E7.09883
G1 X18.822 Y47.71 E7.23584
G1 X17.747 Y45.247 E7.36991
G1 X16.765 Y43.157 E7.48512
G1 X16.649 Y42.901 E7.49914
G1 X16.465 Y42.397 E7.52591
G1 X16.357 Y41.872 E7.55265
G1 X16.32 Y41.197 E7.58638
G1 X16.318 Y41.087 E7.59187
G1 X16.318 Y38.077 E7.74204
G1 X16.328 Y37.38 E7.77681
G1 X16.341 Y37.127 E7.78945
G1 X16.586 Y34.239 E7.93405
G1 X16.738 Y31.553 E8.06827
G1 X16.815 Y28.786 E8.20637
G1 X16.815 Y26.091 E8.34083
G1 X16.736 Y23.326 E8.47883
G1 X16.582 Y20.636 E8.61325
G1 X16.446 Y19.138 E8.6883
G1 X16.442 Y18.898 E8.70027
G1 X16.34 Y17.715 E8.75951
G1 X16.319 Y17.189 E8.78577
G1 X16.318 Y14.045 E8.94263
G1 X16.327 Y13.38 E8.97581
G1 X16.375 Y12.846 E9.00256
G1 X16.501 Y12.325 E9.0293
G1 X16.703 Y11.828 E9.05606
G1 X16.976 Y11.367 E9.08279
G0 F3600 X17.372 Y11.502
G1 F1800 X17.707 Y11.124 E9.10799
G1 X18.098 Y10.803 E9.13323
G1 X18.535 Y10.548 E9.15847
G1 X19.006 Y10.364 E9.1837
G1 X19.5 Y10.258 E9.20891
G1 X20.158 Y10.221 E9.24179
G1 X33.257 Y10.22 E9.8953
G1 X33.955 Y10.23 E9.93013
G1 X34.458 Y10.277 E9.95533
G1 X34.948 Y10.403 E9.98057
G1 X35.412 Y10.605 E10.00582
G1 X35.838 Y10.877 E10.03104
G1 X36.216 Y11.212 E10.05623
G1 X36.536 Y11.603 E10.08144
G1 X36.791 Y12.04 E10.10668
G1 X36.974 Y12.511 E10.13189
G1 X37.081 Y13.005 E10.15711
G1 X37.117 Y13.66 E10.18984
G1 X37.118 Y82.724 E13.63545
G1 X37.109 Y83.451 E13.67173
G1 X37.063 Y83.954 E13.69693
G1 X36.938 Y84.444 E13.72216
G1 X36.737 Y84.908 E13.74738
G1 X36.466 Y85.335 E13.77262
G1 X36.131 Y85.714 E13.79785
G1 X35.741 Y86.035 E13.82305
G1 X35.305 Y86.291 E13.84828
G1 X34.834 Y86.474 E13.87349
G1 X34.34 Y86.582 E13.89871
G1 X33.678 Y86.619 E13.93179
G1 X30.58 Y86.62 E14.08635
G1 X29.902 Y86.61 E14.12018
G1 X29.398 Y86.562 E14.14544
G1 X28.909 Y86.436 E14.17063
G1 X28.445 Y86.235 E14.19586
G1 X28.019 Y85.963 E14.22108
G1 X27.666 Y85.653 E14.24452
G1 X27.338 Y85.268 E14.26975
G1 X27.075 Y84.837 E14.29494
G1 X26.882 Y84.369 E14.32019
G1 X26.766 Y83.877 E14.34541
G1 X26.73 Y83.484 E14.3651
G1 X26.691 Y82.162 E14.43109
G1 X26.571 Y79.435 E14.56727
G1 X26.374 Y76.688 E14.70467
G1 X26.101 Y73.979 E14.84051
G1 X25.75 Y71.258 E14.97738
G1 X25.315 Y68.508 E15.11629
G1 X24.82 Y65.866 E15.25039
G1 X24.24 Y63.19 E15.38699
G1 X23.593 Y60.559 E15.52217
G1 X22.855 Y57.893 E15.66018
G1 X22.05 Y55.274 E15.79687
G1 X21.169 Y52.671 E15.93397
G1 X20.219 Y50.105 E16.07048
G1 X19.201 Y47.579 E16.20635
G1 X18.104 Y45.066 E16.34315
G1 X17.129 Y42.992 E16.45749
G1 X17.013 Y42.736 E16.47151
G1 X16.842 Y42.26 E16.49674
G1 X16.729 Y41.513 E16.53444
G1 X16.718 Y41.087 E16.5557
G1 X16.718 Y38.083 E16.70557
G1 X16.728 Y37.386 E16.74034
G1 X16.739 Y37.161 E16.75158
G1 X16.985 Y34.262 E16.89673
G1 X17.138 Y31.549 E17.0323
G1 X17.215 Y28.798 E17.1696
G1 X17.215 Y26.08 E17.3052
G1 X17.136 Y23.326 E17.44266
G1 X16.981 Y20.608 E17.57848
G1 X16.844 Y19.102 E17.65393
G1 X16.841 Y18.867 E17.66565
G1 X16.739 Y17.681 E17.72504
G1 X16.719 Y17.177 E17.7502
G1 X16.718 Y14.051 E17.90616
G1 X16.727 Y13.386 E17.93934
G1 X16.774 Y12.882 E17.96459
G1 X16.9 Y12.393 E17.98979
G1 X17.101 Y11.929 E18.01501
G1 X17.372 Y11.502 E18.04025
G1 F1500 E11.54025
;MESH:A1_Nema17_20mm_20mm.stl
G0 F3600 X19.253 Y14.034
G0 X20.532 Y14.034
G0 X30.59 Y16.747
G0 X30.52 Y16.817
;TYPE:WALL-INNER
G1 F1500 E18.04025
G1 F1800 X20.518 Y16.817 E18.53925
G1 X20.518 Y14.02 E18.67879
G1 X33.318 Y14.02 E19.31739
G1 X33.318 Y82.82 E22.74983
G1 X30.52 Y82.82 E22.88942
G1 X30.52 Y40.817 E24.98496
G1 X20.518 Y40.817 E25.48396
G1 X20.518 Y38.022 E25.62341
G1 X30.52 Y38.022 E26.12241
G1 X30.52 Y16.817 E27.18033
G0 F3600 X30.12 Y17.217
;TYPE:WALL-OUTER
G1 F1800 X20.118 Y17.217 E27.67933
G1 X20.118 Y13.62 E27.85879
G1 X33.718 Y13.62 E28.53729
G1 X33.718 Y83.22 E32.00965
G1 X30.12 Y83.22 E32.18916
G1 X30.12 Y41.217 E34.2847
G1 X20.118 Y41.217 E34.7837
G1 X20.118 Y37.622 E34.96305
G1 X30.12 Y37.622 E35.46205
G1 X30.12 Y17.217 E36.48006
G0 F3600 X29.92 Y17.217
G0 X29.92 Y16.717
G0 X30.91 Y16.427
;TYPE:SKIN
G1 F1800 X20.908 Y16.427 E36.97907
G1 X20.908 Y14.41 E37.07969
G1 X32.928 Y14.41 E37.67937
G1 X32.928 Y82.43 E41.07291
G1 X30.91 Y82.43 E41.17358
G1 X30.91 Y40.427 E43.26912
G1 X20.908 Y40.427 E43.76812
G1 X20.908 Y38.412 E43.86865
G1 X30.91 Y38.412 E44.36766
G1 X30.91 Y16.427 E45.46449
G0 F3600 X32.747 Y15.211
G1 F1800 X32.126 Y14.59 E45.50831
G0 F3600 X31.561 Y14.59
G1 F1800 X32.747 Y15.776 E45.59198
G0 F3600 X32.747 Y16.342
G1 F1800 X30.995 Y14.59 E45.7156
G0 F3600 X30.429 Y14.59
G1 F1800 X32.747 Y16.908 E45.87915
G0 F3600 X32.747 Y17.474
G1 F1800 X29.863 Y14.59 E46.08263
G0 F3600 X29.298 Y14.59
G1 F1800 X30.954 Y16.246 E46.19947
G0 F3600 X31.089 Y16.381
G1 F1800 X32.747 Y18.039 E46.31645
G0 F3600 X32.747 Y18.605
G1 F1800 X31.089 Y16.947 E46.43343
G0 F3600 X31.089 Y17.512
G1 F1800 X32.747 Y19.171 E46.55044
G0 F3600 X32.747 Y19.736
G1 F1800 X31.089 Y18.078 E46.66743
G0 F3600 X31.089 Y18.644
G1 F1800 X32.747 Y20.302 E46.78441
G0 F3600 X32.747 Y20.868
G1 F1800 X31.089 Y19.209 E46.90142
G0 F3600 X31.089 Y19.775
G1 F1800 X32.747 Y21.433 E47.0184
G0 F3600 X32.747 Y21.999
G1 F1800 X31.089 Y20.341 E47.13538
G0 F3600 X31.089 Y20.907
G1 F1800 X32.747 Y22.565 E47.25237
G0 F3600 X32.747 Y23.13
G1 F1800 X31.089 Y21.472 E47.36935
G0 F3600 X31.089 Y22.038
G1 F1800 X32.747 Y23.696 E47.48633
G0 F3600 X32.747 Y24.262
G1 F1800 X31.089 Y22.604 E47.60331
G0 F3600 X31.089 Y23.169
G1 F1800 X32.747 Y24.827 E47.72029
G0 F3600 X32.747 Y25.393
G1 F1800 X31.089 Y23.735 E47.83727
G0 F3600 X31.089 Y24.301
G1 F1800 X32.747 Y25.959 E47.95425
G0 F3600 X32.747 Y26.524
G1 F1800 X31.089 Y24.866 E48.07123
G0 F3600 X31.089 Y25.432
G1 F1800 X32.747 Y27.09 E48.18821
G0 F3600 X32.747 Y27.656
G1 F1800 X31.089 Y25.998 E48.30519
G0 F3600 X31.089 Y26.563
G1 F1800 X32.747 Y28.222 E48.42221
G0 F3600 X32.747 Y28.787
G1 F1800 X31.089 Y27.129 E48.53919
G0 F3600 X31.089 Y27.695
G1 F1800 X32.747 Y29.353 E48.65617
G0 F3600 X32.747 Y29.919
G1 F1800 X31.089 Y28.26 E48.77319
G0 F3600 X31.089 Y28.826
G1 F1800 X32.747 Y30.484 E48.89017
G0 F3600 X32.747 Y31.05
G1 F1800 X31.089 Y29.392 E49.00715
G0 F3600 X31.089 Y29.957
G1 F1800 X32.747 Y31.616 E49.12416
G0 F3600 X32.747 Y32.181
G1 F1800 X31.089 Y30.523 E49.24115
G0 F3600 X31.089 Y31.089
G1 F1800 X32.747 Y32.747 E49.35813
G0 F3600 X32.747 Y33.313
G1 F1800 X31.089 Y31.655 E49.47511
G0 F3600 X31.089 Y32.22
G1 F1800 X32.747 Y33.878 E49.59209
G0 F3600 X32.747 Y34.444
G1 F1800 X31.089 Y32.786 E49.70907
G0 F3600 X31.089 Y33.352
G1 F1800 X32.747 Y35.01 E49.82605
G0 F3600 X32.747 Y35.575
G1 F1800 X31.089 Y33.917 E49.94303
G0 F3600 X31.089 Y34.483
G1 F1800 X32.747 Y36.141 E50.06001
G0 F3600 X32.747 Y36.707
G1 F1800 X31.089 Y35.049 E50.17699
G0 F3600 X31.089 Y35.614
G1 F1800 X32.747 Y37.273 E50.29401
G0 F3600 X32.747 Y37.838
G1 F1800 X31.089 Y36.18 E50.41099
G0 F3600 X31.089 Y36.746
G1 F1800 X32.747 Y38.404 E50.52797
G0 F3600 X32.747 Y38.97
G1 F1800 X31.089 Y37.311 E50.64499
G0 F3600 X31.089 Y37.877
G1 F1800 X32.747 Y39.535 E50.76197
G0 F3600 X32.747 Y40.101
G1 F1800 X31.089 Y38.443 E50.87895
G0 F3600 X30.672 Y38.591
G1 F1800 X32.747 Y40.667 E51.02539
G0 F3600 X32.747 Y41.232
G1 F1800 X30.106 Y38.591 E51.21172
G0 F3600 X29.54 Y38.591
G1 F1800 X32.747 Y41.798 E51.43799
G0 F3600 X32.747 Y42.364
G1 F1800 X31.09 Y40.706 E51.55494
G0 F3600 X31.09 Y41.272
G1 F1800 X32.747 Y42.929 E51.67185
G0 F3600 X32.747 Y43.495
G1 F1800 X31.09 Y41.838 E51.78876
G0 F3600 X31.09 Y42.403
G1 F1800 X32.747 Y44.061 E51.90571
G0 F3600 X32.747 Y44.626
G1 F1800 X31.09 Y42.969 E52.02262
G0 F3600 X31.09 Y43.535
G1 F1800 X32.747 Y45.192 E52.13953
G0 F3600 X32.747 Y45.758
G1 F1800 X31.09 Y44.1 E52.25647
G0 F3600 X31.09 Y44.666
G1 F1800 X32.747 Y46.323 E52.37338
G0 F3600 X32.747 Y46.889
G1 F1800 X31.09 Y45.232 E52.49029
G0 F3600 X31.09 Y45.797
G1 F1800 X32.747 Y47.455 E52.60724
G0 F3600 X32.747 Y48.021
G1 F1800 X31.09 Y46.363 E52.72418
G0 F3600 X31.09 Y46.929
G1 F1800 X32.747 Y48.586 E52.84109
G0 F3600 X32.747 Y49.152
G1 F1800 X31.09 Y47.494 E52.95804
G0 F3600 X31.09 Y48.06
G1 F1800 X32.747 Y49.718 E53.07498
G0 F3600 X32.747 Y50.283
G1 F1800 X31.09 Y48.626 E53.1919
G0 F3600 X31.09 Y49.192
G1 F1800 X32.747 Y50.849 E53.30881
G0 F3600 X32.747 Y51.415
G1 F1800 X31.09 Y49.757 E53.42575
G0 F3600 X31.09 Y50.323
G1 F1800 X32.747 Y51.98 E53.54266
G0 F3600 X32.747 Y52.546
G1 F1800 X31.09 Y50.889 E53.65957
G0 F3600 X31.09 Y51.454
G1 F1800 X32.747 Y53.112 E53.77652
G0 F3600 X32.747 Y53.677
G1 F1800 X31.09 Y52.02 E53.89343
G0 F3600 X31.09 Y52.586
G1 F1800 X32.747 Y54.243 E54.01034
G0 F3600 X32.747 Y54.809
G1 F1800 X31.09 Y53.151 E54.12728
G0 F3600 X31.09 Y53.717
G1 F1800 X32.747 Y55.374 E54.24419
G0 F3600 X32.747 Y55.94
G1 F1800 X31.09 Y54.283 E54.3611
G0 F3600 X31.09 Y54.848
G1 F1800 X32.747 Y56.506 E54.47805
G0 F3600 X32.747 Y57.072
G1 F1800 X31.09 Y55.414 E54.595
G0 F3600 X31.09 Y55.98
G1 F1800 X32.747 Y57.637 E54.71191
G0 F3600 X32.747 Y58.203
G1 F1800 X31.09 Y56.545 E54.82885
G0 F3600 X31.09 Y57.111
G1 F1800 X32.747 Y58.769 E54.9458
G0 F3600 X32.747 Y59.334
G1 F1800 X31.09 Y57.677 E55.06271
G0 F3600 X31.09 Y58.242
G1 F1800 X32.747 Y59.9 E55.17965
G0 F3600 X32.747 Y60.466
G1 F1800 X31.09 Y58.808 E55.2966
G0 F3600 X31.09 Y59.374
G1 F1800 X32.747 Y61.031 E55.41351
G0 F3600 X32.747 Y61.597
G1 F1800 X31.09 Y59.94 E55.53042
G0 F3600 X31.09 Y60.505
G1 F1800 X32.747 Y62.163 E55.64736
G0 F3600 X32.747 Y62.728
G1 F1800 X31.09 Y61.071 E55.76427
G0 F3600 X31.09 Y61.637
G1 F1800 X32.747 Y63.294 E55.88118
G0 F3600 X32.747 Y63.86
G1 F1800 X31.09 Y62.202 E55.99813
G0 F3600 X31.09 Y62.768
G1 F1800 X32.747 Y64.425 E56.11504
G0 F3600 X32.747 Y64.991
G1 F1800 X31.09 Y63.334 E56.23195
G0 F3600 X31.09 Y63.899
G1 F1800 X32.747 Y65.557 E56.3489
G0 F3600 X32.747 Y66.122
G1 F1800 X31.09 Y64.465 E56.46581
G0 F3600 X31.09 Y65.031
G1 F1800 X32.747 Y66.688 E56.58272
G0 F3600 X32.747 Y67.254
G1 F1800 X31.09 Y65.596 E56.69966
G0 F3600 X31.09 Y66.162
G1 F1800 X32.747 Y67.82 E56.81661
G0 F3600 X32.747 Y68.385
G1 F1800 X31.09 Y66.728 E56.93352
G0 F3600 X31.09 Y67.293
G1 F1800 X32.747 Y68.951 E57.05046
G0 F3600 X32.747 Y69.517
G1 F1800 X31.09 Y67.859 E57.16741
G0 F3600 X31.09 Y68.425
G1 F1800 X32.747 Y70.082 E57.28432
G0 F3600 X32.747 Y70.648
G1 F1800 X31.09 Y68.99 E57.40127
G0 F3600 X31.09 Y69.556
G1 F1800 X32.747 Y71.214 E57.51821
G0 F3600 X32.747 Y71.779
G1 F1800 X31.09 Y70.122 E57.63512
G0 F3600 X31.09 Y70.688
G1 F1800 X32.747 Y72.345 E57.75203
G0 F3600 X32.747 Y72.911
G1 F1800 X31.09 Y71.253 E57.86898
G0 F3600 X31.09 Y71.819
G1 F1800 X32.747 Y73.476 E57.98589
G0 F3600 X32.747 Y74.042
G1 F1800 X31.09 Y72.385 E58.1028
G0 F3600 X31.09 Y72.95
G1 F1800 X32.747 Y74.608 E58.21974
G0 F3600 X32.747 Y75.173
G1 F1800 X31.09 Y73.516 E58.33665
G0 F3600 X31.09 Y74.082
G1 F1800 X32.747 Y75.739 E58.45356
G0 F3600 X32.747 Y76.305
G1 F1800 X31.09 Y74.647 E58.57051
G0 F3600 X31.09 Y75.213
G1 F1800 X32.747 Y76.87 E58.68742
G0 F3600 X32.747 Y77.436
G1 F1800 X31.09 Y75.779 E58.80433
G0 F3600 X31.09 Y76.344
G1 F1800 X32.747 Y78.002 E58.92128
G0 F3600 X32.747 Y78.568
G1 F1800 X31.09 Y76.91 E59.03822
G0 F3600 X31.09 Y77.476
G1 F1800 X32.747 Y79.133 E59.15513
G0 F3600 X32.747 Y79.699
G1 F1800 X31.09 Y78.041 E59.27208
G0 F3600 X31.09 Y78.607
G1 F1800 X32.747 Y80.265 E59.38902
G0 F3600 X32.747 Y80.83
G1 F1800 X31.09 Y79.173 E59.50593
G0 F3600 X31.09 Y79.739
G1 F1800 X32.747 Y81.396 E59.62284
G0 F3600 X32.747 Y81.962
G1 F1800 X31.09 Y80.304 E59.73979
G0 F3600 X31.09 Y80.87
G1 F1800 X32.468 Y82.249 E59.83705
G0 F3600 X31.903 Y82.249
G1 F1800 X31.09 Y81.436 E59.89441
G0 F3600 X31.09 Y82.001
G1 F1800 X31.337 Y82.249 E59.91187
G0 F3600 X30.629 Y40.245
G1 F1800 X28.975 Y38.591 E60.02857
G0 F3600 X28.409 Y38.591
G1 F1800 X30.063 Y40.245 E60.14527
G0 F3600 X29.497 Y40.245
G1 F1800 X27.843 Y38.591 E60.26197
G0 F3600 X27.278 Y38.591
G1 F1800 X28.931 Y40.245 E60.37863
G0 F3600 X28.366 Y40.245
G1 F1800 X26.712 Y38.591 E60.49533
G0 F3600 X26.146 Y38.591
G1 F1800 X27.8 Y40.245 E60.61203
G0 F3600 X27.234 Y40.245
G1 F1800 X25.581 Y38.591 E60.72869
G0 F3600 X25.015 Y38.591
G1 F1800 X26.669 Y40.245 E60.84539
G0 F3600 X26.103 Y40.245
G1 F1800 X24.449 Y38.591 E60.96209
G0 F3600 X23.883 Y38.591
G1 F1800 X25.537 Y40.245 E61.07879
G0 F3600 X24.972 Y40.245
G1 F1800 X23.318 Y38.591 E61.19549
G0 F3600 X22.752 Y38.591
G1 F1800 X24.406 Y40.245 E61.31219
G0 F3600 X23.84 Y40.245
G1 F1800 X22.186 Y38.591 E61.42889
G0 F3600 X21.621 Y38.591
G1 F1800 X23.275 Y40.245 E61.54558
G0 F3600 X22.709 Y40.245
G1 F1800 X21.088 Y38.624 E61.65995
G0 F3600 X21.088 Y39.189
G1 F1800 X22.143 Y40.245 E61.73443
G0 F3600 X21.578 Y40.245
G1 F1800 X21.088 Y39.755 E61.769
G0 F3600 X30.548 Y38.05
G0 X30.548 Y16.789
G0 X21.337 Y16.246
G1 F1800 X21.087 Y15.996 E61.78664
G0 F3600 X21.087 Y15.43
G1 F1800 X21.903 Y16.246 E61.84421
G0 F3600 X22.469 Y16.246
G1 F1800 X21.087 Y14.864 E61.94172
G0 F3600 X21.378 Y14.59
G1 F1800 X23.034 Y16.246 E62.05856
G0 F3600 X23.6 Y16.246
G1 F1800 X21.944 Y14.59 E62.1754
G0 F3600 X22.51 Y14.59
G1 F1800 X24.166 Y16.246 E62.29224
G0 F3600 X24.731 Y16.246
G1 F1800 X23.075 Y14.59 E62.40908
G0 F3600 X23.641 Y14.59
G1 F1800 X25.297 Y16.246 E62.52592
G0 F3600 X25.863 Y16.246
G1 F1800 X24.207 Y14.59 E62.64276
G0 F3600 X24.772 Y14.59
G1 F1800 X26.428 Y16.246 E62.7596
G0 F3600 X26.994 Y16.246
G1 F1800 X25.338 Y14.59 E62.87644
G0 F3600 X25.904 Y14.59
G1 F1800 X27.56 Y16.246 E62.99328
G0 F3600 X28.125 Y16.246
G1 F1800 X26.469 Y14.59 E63.11012
G0 F3600 X27.035 Y14.59
G1 F1800 X28.691 Y16.246 E63.22695
G0 F3600 X29.257 Y16.246
G1 F1800 X27.601 Y14.59 E63.34379
G0 F3600 X28.166 Y14.59
G1 F1800 X29.822 Y16.246 E63.46063
G0 F3600 X30.388 Y16.246
G1 F1800 X28.732 Y14.59 E63.57747
G1 X28.662 Y14.52
;MESH:NONMESH
G0 F600 X28.662 Y14.52 Z0.5
G0 F3600 X30.59 Y16.747
G0 X30.52 Y16.817
;TIME_ELAPSED:50.406701
;LAYER:1
M106 S255
;TYPE:WALL-INNER
;MESH:A1_Nema17_20mm_20mm.stl
G1 F3300 X20.518 Y16.817 E63.91014
G1 X20.518 Y14.02 E64.00317
G1 X33.318 Y14.02 E64.4289
G1 X33.318 Y82.82 E66.7172
