;FLAVOR:Marlin
;TIME:11477
;Filament used: 30.9292m
;Layer height: 0.3
;MINX:13.299
;MINY:4.345
;MINZ:0.36
;MAXX:126.7
;MAXY:92.746
;MAXZ:29.46
;Generated with Cura_SteamEngine 4.9.0
M140 S60
M105
M190 S60
M104 S200
M105
M109 S200
M82 ;absolute extrusion mode
G28 ;Home
G1 Z15.0 F6000 ;Move the platform down 15mm
;Prime the extruder
G92 E0
G1 F200 E3
G92 E0
G92 E0
G92 E0
G1 F1500 E-6.5
;LAYER_COUNT:93
;LAYER:-6
M107 P1
G0 F7200 X16.051 Y11.192 Z0.36
;TYPE:SUPPORT-INTERFACE
G1 F1500 E0
G1 F1350 X16.562 Y10.478 E0.1577
G1 X16.643 Y10.372 E0.18166
G1 X17.226 Y9.672 E0.34527
G1 X17.318 Y9.568 E0.37021
G1 X17.846 Y9.01 E0.50819
G1 X18.007 Y8.851 E0.54883
G1 X18.707 Y8.202 E0.72027
G1 X18.836 Y8.091 E0.75084
G1 X19.506 Y7.554 E0.90505
G1 X19.668 Y7.433 E0.94137
G1 X20.366 Y6.952 E1.09362
G1 X20.523 Y6.852 E1.12705
G1 X21.303 Y6.395 E1.28942
G1 X21.407 Y6.339 E1.31063
G1 X22.254 Y5.923 E1.48011
G1 X22.372 Y5.87 E1.50335
G1 X23.195 Y5.538 E1.66274
G1 X23.368 Y5.476 E1.69574
G1 X24.2 Y5.209 E1.85268
G1 X24.349 Y5.167 E1.88048
G1 X25.212 Y4.958 E2.03996
G1 X25.386 Y4.922 E2.07188
G1 X26.26 Y4.777 E2.231
G1 X26.433 Y4.755 E2.26232
G1 X27.302 Y4.675 E2.41905
G1 X27.449 Y4.667 E2.4455
G1 X28.19 Y4.646 E2.57864
G1 X31.819 Y4.647 E3.23042
G1 X32.823 Y4.683 E3.41086
G1 X32.939 Y4.691 E3.43174
G1 X33.827 Y4.79 E3.59222
G1 X34.004 Y4.815 E3.62433
G1 X34.877 Y4.977 E3.7838
G1 X35.025 Y5.01 E3.81103
G1 X35.882 Y5.234 E3.97012
G1 X36.068 Y5.29 E4.00501
G1 X36.889 Y5.57 E4.16081
G1 X37.061 Y5.636 E4.1939
G1 X37.839 Y5.966 E4.34568
G1 X38.021 Y6.051 E4.38176
G1 X38.803 Y6.453 E4.53968
G1 X39.35 Y6.78 E4.65414
G1 X39.96 Y7.101 E4.77794
G1 X40.624 Y7.348 E4.90518
G1 X41.312 Y7.511 E5.03217
G1 X42.017 Y7.585 E5.15949
G1 X42.725 Y7.569 E5.28668
G1 X43.426 Y7.464 E5.41399
G1 X44.107 Y7.271 E5.54112
G1 X44.75 Y6.998 E5.66658
G1 X45.07 Y6.825 E5.73191
G1 X45.795 Y6.4 E5.88285
G1 X45.917 Y6.334 E5.90776
G1 X46.754 Y5.923 E6.07524
G1 X46.872 Y5.87 E6.09847
G1 X47.695 Y5.538 E6.25786
G1 X47.868 Y5.476 E6.29087
G1 X48.7 Y5.209 E6.44781
G1 X48.849 Y5.167 E6.47561
G1 X49.712 Y4.958 E6.63509
G1 X49.886 Y4.922 E6.667
G1 X50.76 Y4.777 E6.82612
G1 X50.933 Y4.755 E6.85744
G1 X51.802 Y4.675 E7.01418
G1 X51.949 Y4.667 E7.04062
G1 X52.69 Y4.646 E7.17376
G1 X100.787 Y4.647 E15.81221
G1 X101.363 Y4.667 E15.91573
G1 X102.151 Y4.649 E16.05729
G1 X102.276 Y4.646 E16.07975
G1 X107.95 Y4.647 E17.09883
G1 X108.954 Y4.683 E17.27926
G1 X109.07 Y4.691 E17.30015
G1 X109.958 Y4.79 E17.46062
G1 X110.135 Y4.815 E17.49273
G1 X111.008 Y4.977 E17.6522
G1 X111.156 Y5.01 E17.67944
G1 X112.013 Y5.234 E17.83853
G1 X112.199 Y5.29 E17.87342
G1 X113.02 Y5.57 E18.02921
G1 X113.192 Y5.636 E18.0623
G1 X113.97 Y5.966 E18.21408
G1 X114.152 Y6.051 E18.25016
G1 X114.925 Y6.449 E18.40632
G1 X115.059 Y6.525 E18.43398
G1 X115.829 Y6.993 E18.59582
G1 X115.985 Y7.097 E18.62949
G1 X116.677 Y7.592 E18.78231
G1 X116.815 Y7.698 E18.81356
G1 X117.52 Y8.285 E18.97833
G1 X117.622 Y8.376 E19.00288
G1 X118.167 Y8.892 E19.13767
G1 X118.33 Y9.057 E19.17933
G1 X118.975 Y9.753 E19.34976
G1 X119.086 Y9.882 E19.38032
G1 X119.623 Y10.552 E19.53454
G1 X119.744 Y10.714 E19.57086
G1 X120.22 Y11.404 E19.72141
G1 X120.325 Y11.569 E19.75654
G1 X120.769 Y12.326 E19.91416
G1 X120.85 Y12.475 E19.94462
G1 X121.24 Y13.269 E20.1035
G1 X121.307 Y13.419 E20.13301
G1 X121.647 Y14.26 E20.29593
G1 X121.695 Y14.396 E20.32183
G1 X121.966 Y15.238 E20.4807
G1 X122.009 Y15.39 E20.50907
G1 X122.218 Y16.252 E20.66838
G1 X122.255 Y16.431 E20.70121
G1 X122.398 Y17.293 E20.85814
G1 X122.419 Y17.456 E20.88766
G1 X122.502 Y18.367 E21.05196
G1 X122.51 Y18.495 E21.07499
G1 X122.531 Y19.221 E21.20544
G1 X122.532 Y32.851 E23.65345
G1 X122.515 Y33.642 E23.79555
G1 X122.531 Y34.218 E23.89904
G1 X122.531 Y37.424 E24.47486
G1 X122.575 Y38.112 E24.59868
G1 X122.708 Y38.808 E24.72594
G1 X122.929 Y39.48 E24.853
G1 X123.233 Y40.122 E24.98058
G1 X123.226 Y40.152 E24.98611
G1 X124.089 Y41.404 E25.25922
G1 X124.194 Y41.569 E25.29435
G1 X124.651 Y42.349 E25.45671
G1 X124.707 Y42.453 E25.47793
G1 X125.123 Y43.3 E25.64741
G1 X125.168 Y43.399 E25.66694
G1 X125.516 Y44.26 E25.83373
G1 X125.564 Y44.395 E25.85947
G1 X125.834 Y45.235 E26.01794
G1 X125.878 Y45.39 E26.04688
G1 X126.088 Y46.258 E26.20727
G1 X126.124 Y46.432 E26.23918
G1 X126.267 Y47.293 E26.39594
G1 X126.291 Y47.479 E26.42963
G1 X126.371 Y48.348 E26.58636
G1 X126.379 Y48.495 E26.6128
G1 X126.4 Y49.222 E26.74343
G1 X126.4 Y62.842 E29.18965
G1 X126.383 Y63.63 E29.33121
G1 X126.4 Y64.222 E29.43758
G1 X126.4 Y77.848 E31.88487
G1 X126.363 Y78.869 E32.06837
G1 X126.356 Y78.975 E32.08745
G1 X126.256 Y79.873 E32.24973
G1 X126.231 Y80.05 E32.28184
G1 X126.069 Y80.923 E32.44131
G1 X126.036 Y81.071 E32.46854
G1 X125.812 Y81.928 E32.62763
G1 X125.76 Y82.101 E32.66008
G1 X125.476 Y82.934 E32.81815
G1 X125.411 Y83.106 E32.85117
G1 X125.08 Y83.885 E33.00319
G1 X125.002 Y84.053 E33.03646
G1 X124.594 Y84.847 E33.19679
G1 X124.527 Y84.965 E33.22116
G1 X124.056 Y85.739 E33.38389
G1 X123.951 Y85.897 E33.41796
G1 X123.454 Y86.592 E33.57142
G1 X123.348 Y86.73 E33.60267
G1 X122.774 Y87.42 E33.76387
G1 X122.682 Y87.524 E33.78881
G1 X122.154 Y88.082 E33.92679
G1 X121.989 Y88.245 E33.96844
G1 X121.302 Y88.882 E34.13671
G1 X121.166 Y88.999 E34.16893
G1 X120.494 Y89.538 E34.32365
G1 X120.332 Y89.659 E34.35997
G1 X119.634 Y90.14 E34.51222
G1 X119.477 Y90.24 E34.54565
G1 X118.697 Y90.697 E34.70802
G1 X118.593 Y90.753 E34.72923
G1 X117.746 Y91.169 E34.89871
G1 X117.636 Y91.219 E34.92042
G1 X116.795 Y91.558 E35.08327
G1 X116.639 Y91.614 E35.11304
G1 X115.8 Y91.883 E35.27129
G1 X115.651 Y91.925 E35.29909
G1 X114.788 Y92.134 E35.45857
G1 X114.615 Y92.17 E35.49031
G1 X113.74 Y92.315 E35.6496
G1 X113.566 Y92.337 E35.6811
G1 X112.698 Y92.417 E35.83766
G1 X112.551 Y92.425 E35.8641
G1 X111.81 Y92.446 E35.99724
G1 X108.181 Y92.445 E36.64903
G1 X107.177 Y92.409 E36.82947
G1 X107.061 Y92.401 E36.85035
G1 X106.173 Y92.302 E37.01083
G1 X105.996 Y92.277 E37.04293
G1 X105.125 Y92.115 E37.20205
G1 X104.975 Y92.082 E37.22964
G1 X104.118 Y91.858 E37.38873
G1 X103.932 Y91.802 E37.42362
G1 X103.111 Y91.522 E37.57941
G1 X102.939 Y91.456 E37.6125
G1 X102.161 Y91.126 E37.76428
G1 X101.979 Y91.041 E37.80036
G1 X101.197 Y90.639 E37.95828
G1 X100.65 Y90.312 E38.07274
G1 X100.04 Y89.991 E38.19655
G1 X99.376 Y89.744 E38.32379
G1 X98.688 Y89.581 E38.45078
G1 X97.983 Y89.507 E38.57809
G1 X97.275 Y89.523 E38.70529
G1 X96.574 Y89.628 E38.83259
G1 X95.893 Y89.821 E38.95972
G1 X95.25 Y90.094 E39.08518
G1 X94.93 Y90.267 E39.15052
G1 X94.205 Y90.692 E39.30146
G1 X94.086 Y90.757 E39.32581
G1 X93.246 Y91.169 E39.49385
G1 X93.136 Y91.219 E39.51555
G1 X92.295 Y91.558 E39.67841
G1 X92.139 Y91.614 E39.70818
G1 X91.3 Y91.883 E39.86642
G1 X91.151 Y91.925 E39.89422
G1 X90.288 Y92.134 E40.0537
G1 X90.115 Y92.17 E40.08544
G1 X89.24 Y92.315 E40.24474
G1 X89.066 Y92.337 E40.27624
G1 X88.198 Y92.417 E40.4328
G1 X88.051 Y92.425 E40.45924
G1 X87.31 Y92.446 E40.59238
G1 X39.214 Y92.445 E49.23065
G1 X38.638 Y92.425 E49.33416
G1 X37.849 Y92.443 E49.47591
G1 X37.724 Y92.446 E49.49836
G1 X32.05 Y92.445 E50.51744
G1 X31.046 Y92.409 E50.69788
G1 X30.93 Y92.401 E50.71876
G1 X30.042 Y92.302 E50.87924
G1 X29.865 Y92.277 E50.91135
G1 X28.994 Y92.115 E51.07046
G1 X28.844 Y92.082 E51.09805
G1 X27.987 Y91.858 E51.25714
G1 X27.801 Y91.802 E51.29203
G1 X26.98 Y91.522 E51.44782
G1 X26.808 Y91.456 E51.48091
G1 X26.03 Y91.126 E51.6327
G1 X25.848 Y91.041 E51.66877
G1 X25.075 Y90.643 E51.82493
G1 X24.941 Y90.567 E51.8526
G1 X24.171 Y90.099 E52.01443
G1 X24.015 Y89.995 E52.04811
G1 X23.317 Y89.496 E52.20221
G1 X23.185 Y89.394 E52.23217
G1 X22.48 Y88.807 E52.39694
G1 X22.378 Y88.716 E52.42149
G1 X21.833 Y88.2 E52.55629
G1 X21.668 Y88.032 E52.59858
G1 X21.025 Y87.339 E52.76837
G1 X20.914 Y87.21 E52.79894
G1 X20.359 Y86.518 E52.95826
G1 X20.264 Y86.39 E52.98689
G1 X19.775 Y85.68 E53.14173
G1 X19.674 Y85.521 E53.17556
G1 X19.218 Y84.743 E53.33752
G1 X19.162 Y84.639 E53.35874
G1 X18.746 Y83.792 E53.52822
G1 X18.693 Y83.674 E53.55145
G1 X18.352 Y82.829 E53.71511
G1 X18.299 Y82.679 E53.74368
G1 X18.029 Y81.837 E53.9025
G1 X17.991 Y81.701 E53.92786
G1 X17.775 Y80.813 E54.092
G1 X17.748 Y80.677 E54.1169
G1 X17.599 Y79.778 E54.28057
G1 X17.581 Y79.636 E54.30628
G1 X17.498 Y78.724 E54.47075
G1 X17.489 Y78.577 E54.4972
G1 X17.469 Y77.871 E54.62405
G1 X17.468 Y64.241 E57.07207
G1 X17.485 Y63.45 E57.21417
G1 X17.469 Y62.874 E57.31766
G1 X17.469 Y59.668 E57.89347
G1 X17.425 Y58.98 E58.01729
G1 X17.292 Y58.284 E58.14456
G1 X17.071 Y57.612 E58.27161
G1 X16.767 Y56.97 E58.39919
G1 X16.774 Y56.94 E58.40473
G1 X15.906 Y55.68 E58.67953
G1 X15.805 Y55.521 E58.71336
G1 X15.349 Y54.743 E58.87533
G1 X15.293 Y54.639 E58.89654
G1 X14.877 Y53.792 E59.06602
G1 X14.824 Y53.674 E59.08926
G1 X14.484 Y52.832 E59.25235
G1 X14.43 Y52.679 E59.28149
G1 X14.16 Y51.837 E59.4403
G1 X14.121 Y51.697 E59.4664
G1 X13.912 Y50.834 E59.62588
G1 X13.876 Y50.66 E59.65779
G1 X13.73 Y49.778 E59.81836
G1 X13.709 Y49.613 E59.84824
G1 X13.629 Y48.743 E60.00515
G1 X13.621 Y48.597 E60.03141
G1 X13.6 Y47.87 E60.16204
G1 X13.6 Y34.25 E62.60826
G1 X13.617 Y33.462 E62.74982
G1 X13.6 Y32.87 E62.85619
G1 X13.6 Y19.244 E65.30348
G1 X13.637 Y18.223 E65.48698
G1 X13.644 Y18.117 E65.50606
G1 X13.747 Y17.187 E65.67411
G1 X13.767 Y17.055 E65.69809
G1 X13.931 Y16.169 E65.85992
G1 X13.964 Y16.021 E65.88716
G1 X14.194 Y15.14 E66.05069
G1 X14.237 Y14.999 E66.07717
G1 X14.524 Y14.157 E66.23694
G1 X14.59 Y13.985 E66.27003
G1 X14.92 Y13.207 E66.42181
G1 X15.008 Y13.018 E66.45925
G1 X15.403 Y12.252 E66.61405
G1 X15.473 Y12.127 E66.63978
G1 X15.947 Y11.348 E66.80355
G1 X16.051 Y11.192 E66.83723
G0 F7200 X16.8 Y10.183
G1 F1350 X16.8 Y57.039 E75.25279
G0 F7200 X14.4 Y52.585
G1 F1350 X14.4 Y14.52 E82.08944
G0 F7200 X19.2 Y7.799
G1 F1350 X19.2 Y84.709 E95.90284
G0 F7200 X21.6 Y87.958
G1 F1350 X21.6 Y6.244 E110.57906
G0 F7200 X24 Y5.273
G1 F1350 X24 Y89.984 E125.79356
G0 F7200 X26.4 Y91.282
G1 F1350 X26.4 Y4.759 E141.3335
G0 F7200 X28.8 Y4.647
G1 F1350 X28.8 Y92.07 E157.03508
G0 F7200 X31.2 Y92.414
G1 F1350 X31.2 Y4.647 E172.79845
G0 F7200 X33.6 Y4.765
G1 F1350 X33.6 Y92.445 E188.54619
G0 F7200 X36 Y92.445
G1 F1350 X36 Y5.27 E204.20324
G0 F7200 X38.4 Y6.246
G1 F1350 X38.4 Y92.431 E219.68247
G0 F7200 X40.8 Y92.445
G1 F1350 X40.8 Y7.39 E234.95875
G0 F7200 X43.2 Y7.497
G1 F1350 X43.2 Y92.445 E250.21581
G0 F7200 X45.6 Y92.445
G1 F1350 X45.6 Y6.514 E265.64943
G0 F7200 X48 Y5.433
G1 F1350 X48 Y92.445 E281.27719
G0 F7200 X50.4 Y92.445
G1 F1350 X50.4 Y4.836 E297.01218
G0 F7200 X52.8 Y4.647
G1 F1350 X52.8 Y92.445 E312.78112
G0 F7200 X55.2 Y92.445
G1 F1350 X55.2 Y4.647 E328.55006
G0 F7200 X57.6 Y4.647
G1 F1350 X57.6 Y92.445 E344.31899
G0 F7200 X60 Y92.445
G1 F1350 X60 Y4.647 E360.08793
G0 F7200 X62.4 Y4.647
G1 F1350 X62.4 Y92.445 E375.85686
G0 F7200 X64.8 Y92.445
G1 F1350 X64.8 Y4.647 E391.6258
G0 F7200 X67.2 Y4.647
G1 F1350 X67.2 Y92.445 E407.39474
G0 F7200 X69.6 Y92.445
G1 F1350 X69.6 Y4.647 E423.16367
G0 F7200 X72 Y4.647
G1 F1350 X72 Y92.445 E438.93261
G0 F7200 X74.4 Y92.445
G1 F1350 X74.4 Y4.647 E454.70154
G0 F7200 X76.8 Y4.647
G1 F1350 X76.8 Y92.445 E470.47048
G0 F7200 X79.2 Y92.445
G1 F1350 X79.2 Y4.647 E486.23942
G0 F7200 X81.6 Y4.647
G1 F1350 X81.6 Y92.445 E502.00835
G0 F7200 X84 Y92.445
G1 F1350 X84 Y4.647 E517.77729
G0 F7200 X86.4 Y4.647
G1 F1350 X86.4 Y92.445 E533.54622
G0 F7200 X88.8 Y92.362
G1 F1350 X88.8 Y4.647 E549.30025
G0 F7200 X91.2 Y4.647
G1 F1350 X91.2 Y91.912 E564.97346
G0 F7200 X93.6 Y90.996
G1 F1350 X93.6 Y4.647 E580.48215
G0 F7200 X96 Y4.647
G1 F1350 X96 Y89.791 E595.77441
G0 F7200 X98.4 Y89.55
G1 F1350 X98.4 Y4.647 E611.02339
G0 F7200 X100.8 Y4.648
G1 F1350 X100.8 Y90.401 E626.42504
G0 F7200 X103.2 Y91.552
G1 F1350 X103.2 Y4.647 E642.03359
G0 F7200 X105.6 Y4.647
G1 F1350 X105.6 Y92.203 E657.75906
G0 F7200 X108 Y92.438
G1 F1350 X108 Y4.649 E673.52638
G0 F7200 X110.4 Y4.865
G1 F1350 X110.4 Y92.445 E689.25616
G0 F7200 X112.8 Y92.408
G1 F1350 X112.8 Y5.495 E704.86615
G0 F7200 X115.2 Y6.611
G1 F1350 X115.2 Y92.035 E720.2087
G0 F7200 X117.6 Y91.234
G1 F1350 X117.6 Y8.357 E735.0938
G0 F7200 X120 Y11.086
G1 F1350 X120 Y89.888 E749.24701
G0 F7200 X122.4 Y87.823
G1 F1350 X122.4 Y17.309 E761.91166
G0 F7200 X123.232 Y38.031
G0 X124.8 Y42.643
G1 F1350 X124.8 Y84.447 E769.41986
G0 F600 X124.8 Y84.447 Z0.81
G0 F7200 X120.043 Y11.148
;TIME_ELAPSED:195.954621
;LAYER:-5
;TYPE:SUPPORT
G1 F1350 X116.01 Y7.115 E770.70033
G1 X116.676 Y7.592 E770.88425
G1 X116.814 Y7.697 E770.92318
G1 X117.519 Y8.285 E771.12928
G1 X117.621 Y8.376 E771.15997
G1 X118.166 Y8.891 E771.32831
G1 X118.329 Y9.057 E771.38054
G1 X118.974 Y9.753 E771.59358
G1 X119.085 Y9.882 E771.63178
G1 X119.621 Y10.552 E771.82441
G1 X119.742 Y10.714 E771.86981
G0 F7200 X116.01 Y7.115
G1 F1350 X115.984 Y7.097 E771.87691
G1 X115.828 Y6.993 E771.919
G1 X115.058 Y6.524 E772.12141
G1 X114.924 Y6.448 E772.156
G1 X114.151 Y6.051 E772.35109
G1 X113.969 Y5.965 E772.39628
G1 X113.191 Y5.636 E772.58593
G1 X113.018 Y5.569 E772.62758
G1 X112.207 Y5.293 E772.8199
G1 X121.876 Y14.962 E775.88981
G1 X121.965 Y15.237 E775.9547
G1 X122.008 Y15.389 E775.99016
G1 X122.217 Y16.252 E776.18951
G1 X122.253 Y16.431 E776.2305
G1 X122.397 Y17.293 E776.42671
G1 X122.418 Y17.455 E776.46338
G1 X122.421 Y17.486 E776.47037
G1 X109.695 Y4.76 E780.51087
G1 X109.069 Y4.69 E780.65229
G1 X108.953 Y4.683 E780.67838
G1 X107.949 Y4.647 E780.90393
G1 X107.601 Y4.647 E780.98205
G1 X122.53 Y19.576 E785.722
G1 X122.53 Y21.556 E786.16652
G1 X105.621 Y4.647 E791.53512
G1 X103.642 Y4.647 E791.97942
G1 X122.53 Y23.536 E797.9765
G1 X122.53 Y25.515 E798.4208
G1 X101.68 Y4.665 E805.04066
G1 X101.362 Y4.666 E805.11205
G1 X100.786 Y4.647 E805.24144
G1 X99.682 Y4.647 E805.48929
G1 X122.531 Y27.496 E812.74383
G1 X122.531 Y29.476 E813.18836
G1 X97.702 Y4.647 E821.07155
G1 X95.722 Y4.647 E821.51607
G1 X122.531 Y31.456 E830.02791
G1 X122.531 Y32.85 E830.34087
G1 X122.515 Y33.306 E830.44331
G1 X122.515 Y33.419 E830.46868
G1 X93.742 Y4.647 E839.60392
G1 X91.762 Y4.647 E840.04845
G1 X122.53 Y35.414 E849.81711
G1 X122.53 Y37.394 E850.26163
G1 X89.782 Y4.647 E860.65894
G1 X87.802 Y4.647 E861.10346
G1 X123.192 Y40.036 E872.3396
G1 X123.232 Y40.121 E872.36069
G1 X123.242 Y40.137 E872.36493
G1 X123.225 Y40.151 E872.36987
G1 X124.088 Y41.403 E872.71126
G1 X124.193 Y41.569 E872.75535
G1 X124.65 Y42.348 E872.95812
G1 X124.706 Y42.452 E872.98464
G1 X125.122 Y43.3 E873.19669
G1 X125.167 Y43.398 E873.2209
G1 X125.514 Y44.259 E873.42931
G1 X125.56 Y44.384 E873.45921
G1 X85.822 Y4.647 E886.07584
G1 X83.843 Y4.647 E886.52014
G1 X126.222 Y47.026 E899.97544
G1 X126.266 Y47.292 E900.03597
G1 X126.289 Y47.478 E900.07805
G1 X126.369 Y48.347 E900.27397
G1 X126.378 Y48.494 E900.30703
G1 X126.398 Y49.182 E900.46156
G1 X81.863 Y4.647 E914.60139
G1 X79.883 Y4.647 E915.04591
G1 X126.399 Y51.163 E929.81471
G1 X126.399 Y53.143 E930.25923
G1 X77.903 Y4.647 E945.65668
G1 X75.922 Y4.646 E946.10142
G1 X126.399 Y55.123 E962.12784
G1 X126.399 Y57.103 E962.57236
G1 X73.942 Y4.646 E979.22742
G1 X71.962 Y4.646 E979.67194
G1 X126.399 Y59.083 E996.95565
G1 X126.399 Y61.062 E997.39995
G1 X69.983 Y4.646 E1015.31199
G1 X68.003 Y4.646 E1015.75651
G1 X126.392 Y63.035 E1034.29498
G1 X126.383 Y63.283 E1034.35069
G1 X126.382 Y63.629 E1034.42837
G1 X126.399 Y64.222 E1034.56156
G1 X126.399 Y65.022 E1034.74116
G1 X66.023 Y4.646 E1053.9105
G1 X64.043 Y4.646 E1054.35502
G1 X126.399 Y67.002 E1074.15301
G1 X126.399 Y68.982 E1074.59753
G1 X62.063 Y4.646 E1095.02416
G1 X60.083 Y4.646 E1095.46869
G1 X126.399 Y70.962 E1116.52397
G1 X126.399 Y72.942 E1116.96849
G1 X58.103 Y4.646 E1138.65242
G1 X56.123 Y4.646 E1139.09695
G1 X126.399 Y74.922 E1161.40953
G1 X126.399 Y76.902 E1161.85405
G1 X54.143 Y4.646 E1184.79528
G1 X52.689 Y4.645 E1185.12171
G1 X52.178 Y4.66 E1185.23648
G1 X126.363 Y78.845 E1208.79017
G1 X126.362 Y78.868 E1208.79534
G1 X126.355 Y78.974 E1208.81919
G1 X126.255 Y79.873 E1209.02226
G1 X126.229 Y80.05 E1209.06243
G1 X126.13 Y80.592 E1209.18612
G1 X50.378 Y4.84 E1233.23733
G1 X49.885 Y4.922 E1233.34953
