;Generated with Cura_SteamEngine 15.01
; Default start code
G28 ; Home extruder
G1 Z15 F500
M107 ; Turn off fan
G90 ; Absolute positioning
M82 ; Extruder in absolute mode
M190 S50
; Activate all used extruder
M104 T0 S195
G92 E0 ; Reset extruder position
; Wait for all used extruders to reach temperature
M109 T0 S195
;Layer count: 20
;LAYER:0
M107
G0 F5400 X19.545 Y25.617 Z0.300
G0 X19.963 Y25.404
;TYPE:SKIRT
G1 F1800 X19.545 Y25.617 E0.02341
G1 X18.618 Y26.544 E0.08881
G1 X18.239 Y27.289 E0.13051
G1 X18.024 Y27.708 E0.15401
G1 X17.894 Y28.535 E0.19577
G1 X17.820 Y29.002 E0.21936
G1 X17.950 Y29.824 E0.26088
G1 X18.024 Y30.291 E0.28447
G1 X18.403 Y31.035 E0.32613
G1 X18.617 Y31.454 E0.34960
G1 X19.544 Y32.381 E0.41501
G1 X20.289 Y32.760 E0.45671
G1 X20.708 Y32.975 E0.48020
G1 X22.000 Y33.179 E0.54546
G1 X23.291 Y32.975 E0.61067
G1 X24.036 Y32.595 E0.65239
G1 X24.454 Y32.382 E0.67580
G1 X25.381 Y31.455 E0.74120
G1 X25.760 Y30.710 E0.78290
G1 X25.975 Y30.291 E0.80640
G1 X26.179 Y29.000 E0.87160
G1 X25.975 Y27.708 E0.93686
G1 X25.595 Y26.963 E0.97859
G1 X25.382 Y26.545 E1.00199
G1 X24.455 Y25.618 E1.06740
G1 X23.710 Y25.239 E1.10910
G1 X23.291 Y25.024 E1.13259
G1 X22.465 Y24.894 E1.17431
G1 X21.998 Y24.820 E1.19790
G1 X20.708 Y25.024 E1.26306
G1 X19.963 Y25.404 E1.30478
G0 F5400 X19.306 Y25.290
G1 F1800 X18.290 Y26.306 E1.37647
G1 X17.639 Y27.582 E1.44793
G1 X17.499 Y28.472 E1.49288
G1 X17.415 Y29.000 E1.51955
G1 X17.555 Y29.887 E1.56435
G1 X17.639 Y30.417 E1.59113
G1 X18.290 Y31.693 E1.66259
G1 X19.306 Y32.709 E1.73428
G1 X20.582 Y33.360 E1.80574
G1 X21.999 Y33.583 E1.87731
G1 X23.417 Y33.359 E1.94893
G1 X24.693 Y32.709 E2.02037
G1 X25.709 Y31.693 E2.09206
G1 X26.359 Y30.417 E2.16350
G1 X26.583 Y28.999 E2.23512
G1 X26.360 Y27.582 E2.30669
G1 X25.709 Y26.306 E2.37815
G1 X24.693 Y25.290 E2.44984
G1 X23.417 Y24.640 E2.52128
G1 X22.528 Y24.499 E2.56619
G1 X21.999 Y24.415 E2.59291
G1 X20.582 Y24.639 E2.66448
G1 X19.306 Y25.290 E2.73595
G0 F5400 X19.067 Y24.963
G1 F1800 X17.963 Y26.067 E2.81384
G1 X17.254 Y27.457 E2.89169
G1 X17.104 Y28.410 E2.93982
G1 X17.010 Y29.000 E2.96963
G1 X17.160 Y29.950 E3.01761
G1 X17.254 Y30.542 E3.04751
G1 X17.963 Y31.932 E3.12536
G1 X19.067 Y33.036 E3.20325
G1 X20.457 Y33.745 E3.28110
G1 X22.000 Y33.988 E3.35903
G1 X23.542 Y33.745 E3.43691
G1 X24.932 Y33.036 E3.51476
G1 X26.036 Y31.932 E3.59265
G1 X26.745 Y30.542 E3.67050
G1 X26.988 Y29.000 E3.74838
G1 X26.745 Y27.457 E3.82631
G1 X26.036 Y26.067 E3.90416
G1 X24.932 Y24.963 E3.98205
G1 X23.542 Y24.254 E4.05990
G1 X22.590 Y24.104 E4.10798
G1 X21.999 Y24.010 E4.13784
G1 X20.457 Y24.254 E4.21572
G1 X19.067 Y24.963 E4.29357
G0 F5400 X18.828 Y24.636
G1 F1800 X17.636 Y25.828 E4.37767
G1 X16.869 Y27.332 E4.46190
G1 X16.605 Y29.000 E4.54615
G1 X16.869 Y30.667 E4.63036
G1 X17.636 Y32.171 E4.71459
G1 X18.828 Y33.363 E4.79869
G1 X20.332 Y34.130 E4.88292
G1 X22.000 Y34.393 E4.96716
G1 X23.667 Y34.130 E5.05136
G1 X25.171 Y33.363 E5.13559
G1 X26.363 Y32.171 E5.21969
G1 X27.130 Y30.667 E5.30392
G1 X27.393 Y29.000 E5.38811
G1 X27.130 Y27.332 E5.47236
G1 X26.363 Y25.828 E5.55659
G1 X25.171 Y24.636 E5.64069
G1 X23.667 Y23.869 E5.72492
G1 X22.000 Y23.605 E5.80912
G1 X20.332 Y23.869 E5.89337
G1 X18.828 Y24.636 E5.97760
G0 F5400 X18.590 Y24.308
G1 F1800 X17.308 Y25.590 E6.06806
G1 X16.484 Y27.206 E6.15855
G1 X16.200 Y29.000 E6.24917
G1 X16.484 Y30.793 E6.33974
G1 X17.308 Y32.409 E6.43024
G1 X18.590 Y33.691 E6.52069
G1 X20.206 Y34.515 E6.61119
G1 X22.000 Y34.798 E6.70180
G1 X23.793 Y34.515 E6.79236
G1 X25.409 Y33.691 E6.88286
G1 X26.691 Y32.409 E6.97331
G1 X27.515 Y30.793 E7.06381
G1 X27.798 Y29.000 E7.15437
G1 X27.515 Y27.206 E7.24498
G1 X26.691 Y25.590 E7.33548
G1 X25.409 Y24.308 E7.42593
G1 X23.793 Y23.484 E7.51643
G1 X22.000 Y23.200 E7.60700
G1 X20.206 Y23.484 E7.69761
G1 X18.590 Y24.308 E7.78811
G0 F5400 X14.778 Y18.191
G1 F1800 X15.872 Y17.534 E7.85178
G1 X17.025 Y16.990 E7.91538
G1 X18.226 Y16.560 E7.97903
G1 X19.464 Y16.250 E8.04270
G1 X20.726 Y16.062 E8.10635
G1 X22.000 Y16.000 E8.16999
G1 X23.273 Y16.062 E8.23357
G1 X24.535 Y16.250 E8.29723
G1 X25.773 Y16.560 E8.36090
G1 X26.974 Y16.990 E8.42454
G1 X28.127 Y17.534 E8.48815
G1 X29.221 Y18.191 E8.55181
G1 X30.247 Y18.951 E8.61552
G1 X31.192 Y19.807 E8.67913
G1 X32.048 Y20.752 E8.74274
G1 X32.808 Y21.778 E8.80644
G1 X33.465 Y22.872 E8.87011
G1 X34.009 Y24.025 E8.93371
G1 X34.439 Y25.226 E8.99735
G1 X34.749 Y26.464 E9.06103
G1 X34.937 Y27.726 E9.12468
G1 X35.000 Y29.000 E9.18832
G1 X34.937 Y30.273 E9.25191
G1 X34.749 Y31.535 E9.31556
G1 X34.439 Y32.773 E9.37923
G1 X34.009 Y33.974 E9.44288
G1 X33.465 Y35.127 E9.50648
G1 X32.808 Y36.221 E9.57015
G1 X32.048 Y37.247 E9.63385
G1 X31.192 Y38.192 E9.69746
G1 X30.247 Y39.048 E9.76107
G1 X29.221 Y39.808 E9.82478
G1 X28.127 Y40.465 E9.88844
G1 X26.974 Y41.010 E9.95207
G1 X25.773 Y41.440 E10.01571
G1 X24.535 Y41.749 E10.07937
G1 X23.273 Y41.937 E10.14302
G1 X22.000 Y42.000 E10.20661
G1 X20.726 Y41.937 E10.27025
G1 X19.464 Y41.749 E10.33391
G1 X18.226 Y41.440 E10.39757
G1 X17.025 Y41.010 E10.46121
G1 X15.872 Y40.465 E10.52483
G1 X14.778 Y39.808 E10.58850
G1 X13.752 Y39.048 E10.65220
G1 X12.807 Y38.192 E10.71581
G1 X11.951 Y37.247 E10.77943
G1 X11.191 Y36.221 E10.84313
G1 X10.534 Y35.127 E10.90679
G1 X9.990 Y33.974 E10.97040
G1 X9.560 Y32.773 E11.03404
G1 X9.250 Y31.535 E11.09771
G1 X9.062 Y30.273 E11.16137
G1 X9.000 Y29.000 E11.22495
G1 X9.062 Y27.726 E11.28859
G1 X9.250 Y26.464 E11.35225
G1 X9.560 Y25.226 E11.41592
G1 X9.990 Y24.025 E11.47956
G1 X10.534 Y22.872 E11.54316
G1 X11.191 Y21.778 E11.60683
G1 X11.951 Y20.752 E11.67053
G1 X12.807 Y19.807 E11.73414
G1 X13.752 Y18.951 E11.79776
G1 X14.778 Y18.191 E11.86146
G0 F5400 X14.555 Y17.858
G1 F1800 X15.683 Y17.181 E11.92709
G1 X16.872 Y16.620 E11.99268
G1 X18.109 Y16.177 E12.05823
G1 X19.386 Y15.857 E12.12391
G1 X20.687 Y15.663 E12.18954
G1 X22.000 Y15.599 E12.25512
G1 X23.312 Y15.663 E12.32066
G1 X24.613 Y15.857 E12.38628
G1 X25.890 Y16.177 E12.45196
G1 X27.127 Y16.620 E12.51751
G1 X28.316 Y17.181 E12.58310
G1 X29.444 Y17.858 E12.64874
G1 X30.501 Y18.642 E12.71439
G1 X31.475 Y19.524 E12.77995
G1 X32.357 Y20.498 E12.84550
G1 X33.141 Y21.555 E12.91116
G1 X33.818 Y22.683 E12.97680
G1 X34.379 Y23.872 E13.04239
G1 X34.822 Y25.109 E13.10794
G1 X35.142 Y26.386 E13.17362
G1 X35.336 Y27.687 E13.23924
G1 X35.401 Y29.000 E13.30483
G1 X35.336 Y30.312 E13.37036
G1 X35.142 Y31.613 E13.43599
G1 X34.822 Y32.890 E13.50167
G1 X34.379 Y34.127 E13.56722
G1 X33.818 Y35.316 E13.63281
G1 X33.141 Y36.444 E13.69845
G1 X32.357 Y37.501 E13.76410
G1 X31.475 Y38.475 E13.82966
G1 X30.501 Y39.357 E13.89521
G1 X29.444 Y40.141 E13.96087
G1 X28.316 Y40.818 E14.02650
G1 X27.127 Y41.380 E14.09212
G1 X25.889 Y41.823 E14.15772
G1 X24.613 Y42.142 E14.22334
G1 X23.312 Y42.336 E14.28896
G1 X22.000 Y42.401 E14.35450
G1 X20.687 Y42.336 E14.42008
G1 X19.386 Y42.142 E14.48571
G1 X18.110 Y41.823 E14.55133
G1 X16.872 Y41.380 E14.61693
G1 X15.683 Y40.818 E14.68254
G1 X14.555 Y40.141 E14.74817
G1 X13.498 Y39.357 E14.81383
G1 X12.524 Y38.475 E14.87938
G1 X11.642 Y37.501 E14.94494
G1 X10.858 Y36.444 E15.01060
G1 X10.181 Y35.316 E15.07623
G1 X9.620 Y34.127 E15.14182
G1 X9.177 Y32.890 E15.20737
G1 X8.857 Y31.613 E15.27305
G1 X8.663 Y30.312 E15.33868
G1 X8.599 Y29.000 E15.40421
G1 X8.663 Y27.687 E15.46979
G1 X8.857 Y26.386 E15.53542
G1 X9.177 Y25.109 E15.60110
G1 X9.620 Y23.872 E15.66665
G1 X10.181 Y22.683 E15.73224
G1 X10.858 Y21.555 E15.79788
G1 X11.642 Y20.498 E15.86353
G1 X12.524 Y19.524 E15.92909
G1 X13.498 Y18.642 E15.99464
G1 X14.555 Y17.858 E16.06030
G0 F5400 X14.333 Y17.525
G1 F1800 X15.494 Y16.828 E16.12786
G1 X16.719 Y16.250 E16.19544
G1 X17.993 Y15.794 E16.26295
G1 X19.307 Y15.464 E16.33054
G1 X20.648 Y15.265 E16.39817
G1 X22.000 Y15.199 E16.46570
G1 X23.351 Y15.265 E16.53319
G1 X24.692 Y15.464 E16.60082
G1 X26.006 Y15.794 E16.66841
G1 X27.280 Y16.250 E16.73592
G1 X28.505 Y16.828 E16.80350
G1 X29.666 Y17.525 E16.87106
G1 X30.755 Y18.332 E16.93868
G1 X31.758 Y19.241 E17.00621
G1 X32.667 Y20.244 E17.07374
G1 X33.474 Y21.333 E17.14137
G1 X34.171 Y22.494 E17.20893
G1 X34.749 Y23.719 E17.27650
G1 X35.205 Y24.993 E17.34401
G1 X35.535 Y26.307 E17.41160
G1 X35.734 Y27.647 E17.47919
G1 X35.801 Y29.000 E17.54677
G1 X35.734 Y30.352 E17.61431
G1 X35.535 Y31.692 E17.68189
G1 X35.205 Y33.006 E17.74949
G1 X34.749 Y34.280 E17.81699
G1 X34.171 Y35.505 E17.88457
G1 X33.474 Y36.666 E17.95213
G1 X32.667 Y37.755 E18.01975
G1 X31.758 Y38.758 E18.08729
G1 X30.755 Y39.667 E18.15482
G1 X29.666 Y40.474 E18.22244
G1 X28.505 Y41.171 E18.29000
G1 X27.280 Y41.750 E18.35760
G1 X26.006 Y42.206 E18.42511
G1 X24.691 Y42.535 E18.49273
G1 X23.352 Y42.734 E18.56027
G1 X22.000 Y42.801 E18.62780
G1 X20.647 Y42.734 E18.69539
G1 X19.308 Y42.535 E18.76293
G1 X17.993 Y42.206 E18.83055
G1 X16.719 Y41.750 E18.89806
G1 X15.494 Y41.171 E18.96566
G1 X14.333 Y40.474 E19.03322
G1 X13.244 Y39.667 E19.10084
G1 X12.241 Y38.758 E19.16837
G1 X11.332 Y37.755 E19.23591
G1 X10.525 Y36.666 E19.30353
G1 X9.828 Y35.505 E19.37109
G1 X9.250 Y34.280 E19.43866
G1 X8.794 Y33.006 E19.50617
G1 X8.464 Y31.692 E19.57377
G1 X8.265 Y30.351 E19.64140
G1 X8.199 Y29.000 E19.70888
G1 X8.265 Y27.648 E19.77641
G1 X8.464 Y26.307 E19.84405
G1 X8.794 Y24.993 E19.91164
G1 X9.250 Y23.719 E19.97915
G1 X9.828 Y22.494 E20.04673
G1 X10.525 Y21.333 E20.11429
G1 X11.332 Y20.244 E20.18191
G1 X12.241 Y19.241 E20.24944
G1 X13.244 Y18.332 E20.31697
G1 X14.333 Y17.525 E20.38460
G0 F5400 X14.110 Y17.192
G1 F1800 X15.306 Y16.475 E20.45417
G1 X16.566 Y15.880 E20.52368
G1 X17.877 Y15.411 E20.59315
G1 X19.229 Y15.071 E20.66270
G1 X20.609 Y14.866 E20.73230
G1 X22.000 Y14.798 E20.80178
G1 X23.390 Y14.866 E20.87122
G1 X24.770 Y15.071 E20.94082
G1 X26.122 Y15.411 E21.01037
G1 X27.433 Y15.880 E21.07984
G1 X28.693 Y16.475 E21.14935
G1 X29.889 Y17.192 E21.21892
G1 X31.009 Y18.022 E21.28847
G1 X32.041 Y18.958 E21.35798
G1 X32.977 Y19.990 E21.42749
G1 X33.807 Y21.110 E21.49704
G1 X34.524 Y22.306 E21.56661
G1 X35.119 Y23.566 E21.63613
G1 X35.588 Y24.877 E21.70559
G1 X35.928 Y26.229 E21.77514
G1 X36.133 Y27.608 E21.84470
G1 X36.202 Y29.000 E21.91423
G1 X36.133 Y30.391 E21.98371
G1 X35.928 Y31.770 E22.05327
G1 X35.588 Y33.122 E22.12282
G1 X35.119 Y34.433 E22.19228
G1 X34.524 Y35.693 E22.26180
G1 X33.807 Y36.889 E22.33137
G1 X32.977 Y38.009 E22.40092
G1 X32.041 Y39.041 E22.47043
G1 X31.009 Y39.977 E22.53994
G1 X29.889 Y40.807 E22.60949
G1 X28.694 Y41.524 E22.67901
G1 X27.433 Y42.120 E22.74860
G1 X26.122 Y42.589 E22.81806
G1 X24.770 Y42.928 E22.88760
G1 X23.391 Y43.133 E22.95716
G1 X22.000 Y43.202 E23.02664
G1 X20.608 Y43.133 E23.09617
G1 X19.229 Y42.928 E23.16573
G1 X17.877 Y42.589 E23.23527
G1 X16.566 Y42.120 E23.30473
G1 X15.305 Y41.524 E23.37432
G1 X14.110 Y40.807 E23.44384
G1 X12.990 Y39.977 E23.51339
G1 X11.958 Y39.041 E23.58290
G1 X11.022 Y38.009 E23.65241
G1 X10.192 Y36.889 E23.72196
G1 X9.475 Y35.693 E23.79153
G1 X8.880 Y34.433 E23.86105
G1 X8.411 Y33.122 E23.93051
G1 X8.071 Y31.770 E24.00006
G1 X7.866 Y30.390 E24.06967
G1 X7.798 Y29.000 E24.13910
G1 X7.866 Y27.609 E24.20858
G1 X8.071 Y26.229 E24.27818
G1 X8.411 Y24.877 E24.34773
G1 X8.880 Y23.566 E24.41720
G1 X9.475 Y22.306 E24.48672
G1 X10.192 Y21.110 E24.55629
G1 X11.022 Y19.990 E24.62583
G1 X11.958 Y18.958 E24.69534
G1 X12.990 Y18.022 E24.76485
G1 X14.110 Y17.192 E24.83440
G0 F5400 X13.888 Y16.859
G1 F1800 X15.117 Y16.121 E24.90592
G1 X16.413 Y15.510 E24.97740
G1 X17.760 Y15.028 E25.04878
G1 X19.151 Y14.679 E25.12033
G1 X20.569 Y14.467 E25.19186
G1 X22.000 Y14.398 E25.26333
G1 X23.430 Y14.467 E25.33476
G1 X24.848 Y14.679 E25.40629
G1 X26.239 Y15.028 E25.47784
G1 X27.586 Y15.510 E25.54921
G1 X28.882 Y16.121 E25.62070
G1 X30.111 Y16.859 E25.69222
G1 X31.263 Y17.713 E25.76376
G1 X32.324 Y18.675 E25.83521
G1 X33.286 Y19.736 E25.90667
G1 X34.140 Y20.888 E25.97821
G1 X34.878 Y22.117 E26.04973
G1 X35.489 Y23.413 E26.12121
G1 X35.971 Y24.760 E26.19259
G1 X36.320 Y26.151 E26.26414
G1 X36.531 Y27.569 E26.33566
G1 X36.602 Y29.000 E26.40714
G1 X36.531 Y30.430 E26.47857
G1 X36.320 Y31.848 E26.55009
G1 X35.971 Y33.239 E26.62164
G1 X35.489 Y34.586 E26.69302
G1 X34.878 Y35.882 E26.76450
G1 X34.140 Y37.111 E26.83602
G1 X33.286 Y38.263 E26.90756
G1 X32.324 Y39.324 E26.97902
G1 X31.263 Y40.286 E27.05047
G1 X30.111 Y41.140 E27.12201
G1 X28.883 Y41.877 E27.19346
G1 X27.587 Y42.490 E27.26499
G1 X26.238 Y42.973 E27.33648
G1 X24.848 Y43.320 E27.40795
G1 X23.430 Y43.531 E27.47947
G1 X22.000 Y43.602 E27.55090
G1 X20.569 Y43.531 E27.62239
G1 X19.151 Y43.320 E27.69391
G1 X17.761 Y42.973 E27.76538
G1 X16.412 Y42.490 E27.83687
G1 X15.116 Y41.877 E27.90840
G1 X13.888 Y41.140 E27.97985
G1 X12.736 Y40.286 E28.05139
G1 X11.675 Y39.324 E28.12284
G1 X10.713 Y38.263 E28.19430
G1 X9.859 Y37.111 E28.26584
G1 X9.121 Y35.882 E28.33736
G1 X8.510 Y34.586 E28.40884
G1 X8.028 Y33.239 E28.48022
G1 X7.679 Y31.848 E28.55177
G1 X7.467 Y30.430 E28.62330
G1 X7.398 Y29.000 E28.69472
G1 X7.467 Y27.569 E28.76620
G1 X7.679 Y26.151 E28.83773
G1 X8.028 Y24.760 E28.90928
G1 X8.510 Y23.413 E28.98065
G1 X9.121 Y22.117 E29.05214
G1 X9.859 Y20.888 E29.12366
G1 X10.713 Y19.736 E29.19520
G1 X11.675 Y18.675 E29.26665
G1 X12.736 Y17.713 E29.33810
G1 X13.888 Y16.859 E29.40965
G0 F5400 X40.028 Y24.760
G1 F1800 X40.510 Y23.413 E29.48102
G1 X41.121 Y22.117 E29.55251
G1 X41.859 Y20.888 E29.62403
G1 X42.713 Y19.736 E29.69557
G1 X43.675 Y18.675 E29.76702
G1 X44.736 Y17.713 E29.83847
G1 X45.888 Y16.859 E29.91002
G1 X47.117 Y16.121 E29.98154
G1 X48.413 Y15.510 E30.05302
G1 X49.760 Y15.028 E30.12440
G1 X51.151 Y14.679 E30.19594
G1 X52.569 Y14.467 E30.26747
G1 X54.000 Y14.398 E30.33895
G1 X55.430 Y14.467 E30.41038
G1 X56.848 Y14.679 E30.48191
G1 X58.239 Y15.028 E30.55346
G1 X59.586 Y15.510 E30.62483
G1 X60.882 Y16.121 E30.69631
G1 X62.111 Y16.859 E30.76783
G1 X63.263 Y17.713 E30.83938
G1 X64.324 Y18.675 E30.91083
G1 X65.286 Y19.736 E30.98228
G1 X66.141 Y20.888 E31.05386
G1 X66.877 Y22.117 E31.12532
G1 X67.489 Y23.412 E31.19678
G1 X67.972 Y24.760 E31.26822
G1 X68.321 Y26.152 E31.33982
G1 X68.530 Y27.569 E31.41128
G1 X68.602 Y29.000 E31.48276
G1 X68.530 Y30.430 E31.55419
G1 X68.321 Y31.847 E31.62565
G1 X67.972 Y33.239 E31.69725
G1 X67.489 Y34.587 E31.76869
G1 X66.877 Y35.882 E31.84015
G1 X66.141 Y37.111 E31.91162
G1 X65.286 Y38.263 E31.98319
G1 X64.324 Y39.324 E32.05464
G1 X63.263 Y40.286 E32.12610
G1 X62.111 Y41.140 E32.19764
G1 X60.883 Y41.877 E32.26909
G1 X59.587 Y42.490 E32.34062
G1 X58.238 Y42.973 E32.41210
G1 X56.848 Y43.320 E32.48358
G1 X55.430 Y43.531 E32.55510
G1 X54.000 Y43.602 E32.62653
G1 X52.569 Y43.531 E32.69801
G1 X51.151 Y43.320 E32.76954
G1 X49.761 Y42.973 E32.84101
G1 X48.412 Y42.490 E32.91250
G1 X47.116 Y41.877 E32.98402
G1 X45.888 Y41.140 E33.05548
G1 X44.736 Y40.286 E33.12702
G1 X43.675 Y39.324 E33.19847
G1 X42.713 Y38.263 E33.26992
G1 X41.859 Y37.111 E33.34147
G1 X41.121 Y35.882 E33.41299
G1 X40.510 Y34.586 E33.48447
G1 X40.028 Y33.239 E33.55585
G1 X39.679 Y31.848 E33.62739
G1 X39.467 Y30.430 E33.69892
G1 X39.398 Y29.000 E33.77035
G1 X39.467 Y27.569 E33.84183
G1 X39.679 Y26.151 E33.91336
G1 X40.028 Y24.760 E33.98490
G0 F5400 X40.411 Y24.877
G1 F1800 X40.880 Y23.566 E34.05437
G1 X41.475 Y22.306 E34.12389
G1 X42.192 Y21.110 E34.19346
G1 X43.022 Y19.990 E34.26301
G1 X43.958 Y18.958 E34.33252
G1 X44.990 Y18.022 E34.40202
G1 X46.110 Y17.192 E34.47157
G1 X47.306 Y16.475 E34.54114
G1 X48.566 Y15.880 E34.61066
G1 X49.877 Y15.411 E34.68013
G1 X51.229 Y15.071 E34.74968
G1 X52.609 Y14.866 E34.81928
G1 X54.000 Y14.798 E34.88876
G1 X55.390 Y14.866 E34.95819
G1 X56.770 Y15.071 E35.02780
G1 X58.122 Y15.411 E35.09735
G1 X59.433 Y15.880 E35.16681
G1 X60.693 Y16.475 E35.23633
G1 X61.889 Y17.192 E35.30590
G1 X63.009 Y18.022 E35.37545
G1 X64.041 Y18.958 E35.44496
G1 X64.977 Y19.990 E35.51447
G1 X65.808 Y21.110 E35.58404
G1 X66.523 Y22.306 E35.65356
G1 X67.119 Y23.565 E35.72306
G1 X67.589 Y24.877 E35.79259
G1 X67.928 Y26.230 E35.86217
G1 X68.132 Y27.608 E35.93167
G1 X68.202 Y29.000 E36.00121
G1 X68.132 Y30.391 E36.07069
G1 X67.928 Y31.769 E36.14019
