;FLAVOR:Marlin
;TIME:10244
;Filament used: 26.6561m
;Layer height: 0.3
;MINX:19.925
;MINY:19.933
;MINZ:0.3
;MAXX:120.125
;MAXY:95.067
;MAXZ:27.9
;Generated with Cura_SteamEngine 4.9.0
M140 S60
M105
M190 S60
M104 S200
M105
M109 S200
M82 ;absolute extrusion mode
G28 ;Home
G1 Z15.0 F6000 ;Move the platform down 15mm
;Prime the extruder
G92 E0
G1 F200 E3
G92 E0
G92 E0
G92 E0
G1 F1500 E-6.5
;LAYER_COUNT:93
;LAYER:0
M107 P1
G0 F3600 X32.313 Y23.66 Z0.3
;TYPE:SKIRT
G1 F1500 E0
G1 F1800 X32.798 Y23.017 E0.06027
G1 X33.287 Y22.481 E0.11457
G1 X33.463 Y22.305 E0.1332
G1 X34.06 Y21.765 E0.19344
G1 X34.707 Y21.287 E0.25364
G1 X35.399 Y20.876 E0.31387
G1 X36.128 Y20.535 E0.3741
G1 X36.887 Y20.268 E0.43431
G1 X37.669 Y20.077 E0.49455
G1 X38.466 Y19.966 E0.55477
G1 X39.191 Y19.933 E0.60908
G1 X111.799 Y19.933 E6.04272
G1 X112.603 Y19.973 E6.10296
G1 X113.399 Y20.093 E6.16321
G1 X114.179 Y20.29 E6.22341
G1 X114.935 Y20.565 E6.28361
G1 X115.661 Y20.913 E6.34386
G1 X116.348 Y21.331 E6.40404
G1 X116.991 Y21.816 E6.46432
G1 X117.527 Y22.305 E6.51861
G1 X117.703 Y22.481 E6.53724
G1 X118.243 Y23.078 E6.59748
G1 X118.721 Y23.725 E6.65768
G1 X119.132 Y24.417 E6.71791
G1 X119.473 Y25.146 E6.77814
G1 X119.74 Y25.905 E6.83835
G1 X119.931 Y26.687 E6.89859
G1 X120.042 Y27.484 E6.95881
G1 X120.075 Y28.209 E7.01312
G1 X120.075 Y41.857 E8.03448
G1 X120.057 Y42.219 E8.0616
G1 X120.092 Y42.471 E8.08064
G1 X120.125 Y43.196 E8.13495
G1 X120.125 Y56.844 E9.1563
G1 X120.085 Y57.648 E9.21655
G1 X119.965 Y58.444 E9.27679
G1 X119.768 Y59.224 E9.33699
G1 X119.493 Y59.98 E9.39719
G1 X119.145 Y60.706 E9.45744
G1 X118.727 Y61.393 E9.51762
G1 X118.242 Y62.036 E9.5779
G1 X117.753 Y62.572 E9.63219
G1 X117.577 Y62.748 E9.65082
G1 X116.98 Y63.288 E9.71106
G1 X116.333 Y63.766 E9.77126
G1 X115.641 Y64.177 E9.83149
G1 X114.912 Y64.518 E9.89172
G1 X114.153 Y64.785 E9.95193
G1 X113.371 Y64.976 E10.01217
G1 X112.574 Y65.087 E10.07239
G1 X111.849 Y65.12 E10.1267
G1 X109.085 Y65.12 E10.33355
G1 X109.085 Y71.791 E10.83278
G1 X109.053 Y72.437 E10.88118
G1 X109.085 Y73.143 E10.93407
G1 X109.085 Y86.791 E11.95542
G1 X109.045 Y87.595 E12.01566
G1 X108.925 Y88.391 E12.0759
G1 X108.728 Y89.171 E12.13611
G1 X108.453 Y89.927 E12.19631
G1 X108.105 Y90.653 E12.25656
G1 X107.687 Y91.34 E12.31674
G1 X107.202 Y91.983 E12.37701
G1 X106.713 Y92.519 E12.43131
G1 X106.537 Y92.695 E12.44994
G1 X105.94 Y93.235 E12.51018
G1 X105.293 Y93.713 E12.57038
G1 X104.601 Y94.124 E12.63061
G1 X103.872 Y94.465 E12.69084
G1 X103.113 Y94.732 E12.75105
G1 X102.331 Y94.923 E12.81129
G1 X101.534 Y95.034 E12.87151
G1 X100.809 Y95.067 E12.92582
G1 X28.201 Y95.067 E18.35946
G1 X27.397 Y95.027 E18.4197
G1 X26.601 Y94.907 E18.47995
G1 X25.821 Y94.71 E18.54015
G1 X25.065 Y94.435 E18.60035
G1 X24.339 Y94.087 E18.6606
G1 X23.652 Y93.669 E18.72078
G1 X23.009 Y93.184 E18.78106
G1 X22.473 Y92.695 E18.83535
G1 X22.297 Y92.519 E18.85398
G1 X21.757 Y91.922 E18.91422
G1 X21.279 Y91.275 E18.97442
G1 X20.868 Y90.583 E19.03465
G1 X20.527 Y89.854 E19.09488
G1 X20.26 Y89.095 E19.15509
G1 X20.069 Y88.313 E19.21533
G1 X19.958 Y87.516 E19.27555
G1 X19.925 Y86.791 E19.32986
G1 X19.925 Y73.143 E20.35122
G1 X19.957 Y72.497 E20.39962
G1 X19.925 Y71.791 E20.45251
G1 X19.925 Y58.143 E21.47386
G1 X19.965 Y57.339 E21.5341
G1 X20.085 Y56.543 E21.59434
G1 X20.282 Y55.763 E21.65455
G1 X20.557 Y55.007 E21.71475
G1 X20.905 Y54.281 E21.775
G1 X21.323 Y53.594 E21.83518
G1 X21.808 Y52.951 E21.89545
G1 X22.297 Y52.415 E21.94975
G1 X22.473 Y52.239 E21.96838
G1 X23.07 Y51.699 E22.02862
G1 X23.717 Y51.221 E22.08882
G1 X24.409 Y50.81 E22.14905
G1 X25.138 Y50.469 E22.20928
G1 X25.897 Y50.202 E22.26949
G1 X26.679 Y50.011 E22.32973
G1 X27.476 Y49.9 E22.38995
G1 X28.201 Y49.867 E22.44426
G1 X30.966 Y49.867 E22.65118
G1 X30.966 Y43.196 E23.15041
G1 X30.984 Y42.839 E23.17716
G1 X30.948 Y42.582 E23.19658
G1 X30.915 Y41.857 E23.25089
G1 X30.915 Y28.209 E24.27224
G1 X30.955 Y27.405 E24.33248
G1 X31.075 Y26.609 E24.39273
G1 X31.272 Y25.829 E24.45293
G1 X31.547 Y25.073 E24.51313
G1 X31.895 Y24.347 E24.57338
G1 X32.313 Y23.66 E24.63356
G0 F3600 X32.91 Y23.853
G1 F1800 X33.392 Y23.247 E24.69151
G1 X33.888 Y22.73 E24.74512
G1 X34.463 Y22.211 E24.80309
G1 X35.088 Y21.755 E24.86099
G1 X35.757 Y21.365 E24.91894
G1 X36.463 Y21.047 E24.97688
G1 X37.198 Y20.803 E25.03484
G1 X37.954 Y20.636 E25.09278
G1 X38.724 Y20.548 E25.15078
G1 X39.191 Y20.533 E25.18574
G1 X111.799 Y20.533 E30.61939
G1 X112.572 Y20.573 E30.67731
G1 X113.337 Y20.692 E30.73525
G1 X114.086 Y20.89 E30.79323
G1 X114.81 Y21.164 E30.85116
G1 X115.503 Y21.511 E30.90916
G1 X116.155 Y21.928 E30.96707
G1 X116.761 Y22.41 E31.02502
G1 X117.278 Y22.906 E31.07864
G1 X117.797 Y23.481 E31.1366
G1 X118.253 Y24.106 E31.1945
G1 X118.643 Y24.775 E31.25245
G1 X118.961 Y25.481 E31.3104
G1 X119.205 Y26.216 E31.36835
G1 X119.372 Y26.972 E31.42629
G1 X119.46 Y27.742 E31.48429
G1 X119.475 Y28.209 E31.51926
G1 X119.475 Y41.857 E32.54061
G1 X119.455 Y42.246 E32.56976
G1 X119.525 Y43.196 E32.64104
G1 X119.525 Y56.844 E33.6624
G1 X119.485 Y57.617 E33.72032
G1 X119.366 Y58.382 E33.77826
G1 X119.168 Y59.131 E33.83624
G1 X118.894 Y59.855 E33.89417
G1 X118.547 Y60.548 E33.95217
G1 X118.13 Y61.2 E34.01008
G1 X117.648 Y61.806 E34.06803
G1 X117.152 Y62.323 E34.12165
G1 X116.577 Y62.842 E34.17961
G1 X115.952 Y63.298 E34.23751
G1 X115.283 Y63.688 E34.29546
G1 X114.577 Y64.006 E34.35341
G1 X113.842 Y64.25 E34.41136
G1 X113.086 Y64.417 E34.4693
G1 X112.316 Y64.505 E34.5273
G1 X111.849 Y64.52 E34.56227
G1 X108.485 Y64.52 E34.81401
G1 X108.485 Y71.791 E35.35814
G1 X108.449 Y72.491 E35.41059
G1 X108.485 Y73.143 E35.45946
G1 X108.485 Y86.791 E36.48081
G1 X108.445 Y87.564 E36.53874
G1 X108.326 Y88.329 E36.59668
G1 X108.128 Y89.078 E36.65465
G1 X107.854 Y89.802 E36.71258
G1 X107.507 Y90.495 E36.77058
G1 X107.09 Y91.147 E36.8285
G1 X106.608 Y91.753 E36.88645
G1 X106.112 Y92.27 E36.94006
G1 X105.537 Y92.789 E36.99803
G1 X104.912 Y93.245 E37.05593
G1 X104.243 Y93.635 E37.11388
G1 X103.537 Y93.953 E37.17182
G1 X102.802 Y94.197 E37.22978
G1 X102.046 Y94.364 E37.28772
G1 X101.276 Y94.452 E37.34572
G1 X100.809 Y94.467 E37.38068
G1 X28.201 Y94.467 E42.81433
G1 X27.428 Y94.427 E42.87225
G1 X26.663 Y94.308 E42.93019
G1 X25.914 Y94.11 E42.98816
G1 X25.19 Y93.836 E43.0461
G1 X24.497 Y93.489 E43.10409
G1 X23.845 Y93.072 E43.16201
G1 X23.239 Y92.59 E43.21996
G1 X22.722 Y92.094 E43.27358
G1 X22.203 Y91.519 E43.33154
G1 X21.747 Y90.894 E43.38944
G1 X21.357 Y90.225 E43.44739
G1 X21.039 Y89.519 E43.50534
G1 X20.795 Y88.784 E43.56329
G1 X20.628 Y88.028 E43.62123
G1 X20.54 Y87.258 E43.67923
G1 X20.525 Y86.791 E43.7142
G1 X20.525 Y73.143 E44.73555
G1 X20.561 Y72.443 E44.788
G1 X20.525 Y71.791 E44.83687
G1 X20.525 Y58.143 E45.85822
G1 X20.565 Y57.37 E45.91615
G1 X20.684 Y56.605 E45.97408
G1 X20.882 Y55.856 E46.03206
G1 X21.156 Y55.132 E46.08999
G1 X21.503 Y54.439 E46.14799
G1 X21.92 Y53.787 E46.20591
G1 X22.402 Y53.181 E46.26385
G1 X22.898 Y52.664 E46.31747
G1 X23.473 Y52.145 E46.37544
G1 X24.098 Y51.689 E46.43334
G1 X24.767 Y51.299 E46.49129
G1 X25.473 Y50.981 E46.54923
G1 X26.208 Y50.737 E46.60719
G1 X26.964 Y50.57 E46.66513
G1 X27.734 Y50.482 E46.72313
G1 X28.201 Y50.467 E46.75809
G1 X31.566 Y50.467 E47.00991
G1 X31.566 Y43.196 E47.55404
G1 X31.586 Y42.813 E47.58274
G1 X31.515 Y41.857 E47.65448
G1 X31.515 Y28.209 E48.67583
G1 X31.555 Y27.436 E48.73376
G1 X31.674 Y26.671 E48.79169
G1 X31.872 Y25.922 E48.84967
G1 X32.146 Y25.198 E48.9076
G1 X32.493 Y24.505 E48.9656
G1 X32.91 Y23.853 E49.02352
G0 F3600 X33.506 Y24.054
G1 F1800 X34.136 Y23.33 E49.09534
G1 X34.312 Y23.154 E49.11397
G1 X34.865 Y22.658 E49.16956
G1 X35.467 Y22.224 E49.2251
G1 X36.113 Y21.857 E49.2807
G1 X36.795 Y21.562 E49.33631
G1 X37.504 Y21.342 E49.39186
G1 X38.233 Y21.2 E49.44744
G1 X39.191 Y21.133 E49.51931
G1 X111.799 Y21.133 E54.95295
G1 X112.541 Y21.173 E55.00856
G1 X113.274 Y21.292 E55.06413
G1 X113.99 Y21.49 E55.11972
G1 X114.68 Y21.763 E55.17525
G1 X115.337 Y22.109 E55.23082
G1 X115.954 Y22.524 E55.28647
G1 X116.678 Y23.154 E55.35829
G1 X116.854 Y23.33 E55.37692
G1 X117.35 Y23.883 E55.43251
G1 X117.784 Y24.485 E55.48805
G1 X118.151 Y25.131 E55.54365
G1 X118.446 Y25.813 E55.59925
G1 X118.666 Y26.522 E55.65481
G1 X118.808 Y27.251 E55.71039
G1 X118.875 Y28.209 E55.78225
G1 X118.875 Y41.857 E56.80361
G1 X118.858 Y42.238 E56.83215
G1 X118.925 Y43.196 E56.90402
G1 X118.925 Y56.844 E57.92537
G1 X118.885 Y57.586 E57.98098
G1 X118.766 Y58.319 E58.03655
G1 X118.568 Y59.035 E58.09214
G1 X118.295 Y59.725 E58.14767
G1 X117.949 Y60.382 E58.20324
G1 X117.534 Y60.999 E58.25889
G1 X116.904 Y61.723 E58.33071
G1 X116.728 Y61.899 E58.34933
G1 X116.175 Y62.395 E58.40493
G1 X115.573 Y62.829 E58.46046
G1 X114.927 Y63.196 E58.51606
G1 X114.245 Y63.491 E58.57167
G1 X113.536 Y63.711 E58.62723
G1 X112.807 Y63.853 E58.68281
G1 X111.849 Y63.92 E58.75467
G1 X108.201 Y63.92 E59.02767
G1 X107.885 Y63.903 E59.05135
G1 X107.885 Y71.791 E59.64166
G1 X107.843 Y72.544 E59.69809
G1 X107.885 Y73.143 E59.74303
G1 X107.885 Y86.791 E60.76438
G1 X107.845 Y87.533 E60.81999
G1 X107.726 Y88.266 E60.87556
G1 X107.528 Y88.982 E60.93116
G1 X107.255 Y89.672 E60.98669
G1 X106.909 Y90.329 E61.04226
G1 X106.494 Y90.946 E61.0979
G1 X105.864 Y91.67 E61.16972
G1 X105.688 Y91.846 E61.18835
G1 X105.135 Y92.342 E61.24394
G1 X104.533 Y92.776 E61.29948
G1 X103.887 Y93.143 E61.35508
G1 X103.205 Y93.438 E61.41069
G1 X102.496 Y93.658 E61.46624
G1 X101.767 Y93.8 E61.52182
G1 X100.809 Y93.867 E61.59369
G1 X28.201 Y93.867 E67.02733
G1 X27.459 Y93.827 E67.08294
G1 X26.726 Y93.708 E67.13851
G1 X26.01 Y93.51 E67.1941
G1 X25.32 Y93.237 E67.24964
G1 X24.663 Y92.891 E67.3052
G1 X24.046 Y92.476 E67.36085
G1 X23.322 Y91.846 E67.43267
G1 X23.146 Y91.67 E67.4513
G1 X22.65 Y91.117 E67.50689
G1 X22.216 Y90.515 E67.56243
G1 X21.849 Y89.869 E67.61803
G1 X21.554 Y89.187 E67.67364
G1 X21.334 Y88.478 E67.72919
G1 X21.192 Y87.749 E67.78477
G1 X21.125 Y86.791 E67.85664
G1 X21.125 Y73.143 E68.87799
G1 X21.167 Y72.39 E68.93443
G1 X21.125 Y71.791 E68.97936
G1 X21.125 Y58.143 E70.00072
G1 X21.165 Y57.401 E70.05632
G1 X21.284 Y56.668 E70.1119
G1 X21.482 Y55.952 E70.16749
G1 X21.755 Y55.262 E70.22302
G1 X22.101 Y54.605 E70.27859
G1 X22.516 Y53.988 E70.33424
G1 X23.146 Y53.264 E70.40606
G1 X23.322 Y53.088 E70.42468
G1 X23.875 Y52.592 E70.48028
G1 X24.477 Y52.158 E70.53581
G1 X25.123 Y51.791 E70.59141
G1 X25.805 Y51.496 E70.64702
G1 X26.514 Y51.276 E70.70257
G1 X27.243 Y51.134 E70.75815
G1 X28.201 Y51.067 E70.83002
G1 X31.849 Y51.067 E71.10302
G1 X32.166 Y51.084 E71.12678
G1 X32.166 Y43.196 E71.71708
G1 X32.182 Y42.815 E71.74562
G1 X32.115 Y41.857 E71.81748
G1 X32.115 Y28.209 E72.83884
G1 X32.155 Y27.467 E72.89444
G1 X32.274 Y26.734 E72.95002
G1 X32.472 Y26.018 E73.00561
G1 X32.745 Y25.328 E73.06114
G1 X33.091 Y24.671 E73.11671
G1 X33.506 Y24.054 E73.17236
G0 F3600 X33.689 Y24.844
G1 F1800 X34.101 Y24.266 E73.22547
G1 X34.56 Y23.754 E73.27693
G1 X34.736 Y23.578 E73.29556
G1 X35.265 Y23.105 E73.34866
G1 X35.845 Y22.695 E73.40182
G1 X36.466 Y22.353 E73.45487
G1 X37.122 Y22.082 E73.50799
G1 X37.805 Y21.887 E73.56114
G1 X38.504 Y21.771 E73.61417
G1 X39.191 Y21.733 E73.66566
G1 X111.799 Y21.733 E79.0993
G1 X112.508 Y21.773 E79.15244
G1 X113.207 Y21.892 E79.20551
G1 X113.889 Y22.09 E79.25865
G1 X114.544 Y22.362 E79.31173
G1 X115.164 Y22.707 E79.36482
G1 X115.742 Y23.119 E79.41794
G1 X116.254 Y23.578 E79.4694
G1 X116.43 Y23.754 E79.48803
G1 X116.903 Y24.283 E79.54113
G1 X117.313 Y24.863 E79.59429
G1 X117.655 Y25.484 E79.64734
G1 X117.926 Y26.14 E79.70046
G1 X118.121 Y26.823 E79.75361
G1 X118.237 Y27.522 E79.80664
G1 X118.275 Y28.209 E79.85813
G1 X118.275 Y41.857 E80.87948
G1 X118.251 Y42.29 E80.91193
G1 X118.287 Y42.509 E80.92854
G1 X118.325 Y43.196 E80.98003
G1 X118.325 Y56.844 E82.00139
G1 X118.285 Y57.553 E82.05453
G1 X118.166 Y58.252 E82.10759
G1 X117.968 Y58.934 E82.16074
G1 X117.696 Y59.589 E82.21381
G1 X117.351 Y60.209 E82.26691
G1 X116.939 Y60.787 E82.32003
G1 X116.48 Y61.299 E82.37149
G1 X116.304 Y61.475 E82.39011
G1 X115.775 Y61.948 E82.44322
G1 X115.195 Y62.358 E82.49637
G1 X114.574 Y62.7 E82.54943
G1 X113.918 Y62.971 E82.60254
G1 X113.235 Y63.166 E82.6557
G1 X112.536 Y63.282 E82.70872
G1 X111.849 Y63.32 E82.76021
G1 X108.201 Y63.32 E83.03321
G1 X107.492 Y63.28 E83.08635
G1 X107.285 Y63.245 E83.10207
G1 X107.285 Y71.791 E83.74161
G1 X107.247 Y72.456 E83.79145
G1 X107.285 Y73.143 E83.84294
G1 X107.285 Y86.791 E84.8643
G1 X107.245 Y87.5 E84.91744
G1 X107.126 Y88.199 E84.9705
G1 X106.928 Y88.881 E85.02365
G1 X106.656 Y89.536 E85.07672
G1 X106.311 Y90.156 E85.12982
G1 X105.899 Y90.734 E85.18294
G1 X105.44 Y91.246 E85.2344
G1 X105.264 Y91.422 E85.25302
G1 X104.735 Y91.895 E85.30613
G1 X104.155 Y92.305 E85.35928
G1 X103.534 Y92.647 E85.41234
G1 X102.878 Y92.918 E85.46545
G1 X102.195 Y93.113 E85.51861
G1 X101.496 Y93.229 E85.57163
G1 X100.809 Y93.267 E85.62312
G1 X28.201 Y93.267 E91.05677
G1 X27.492 Y93.227 E91.10991
G1 X26.793 Y93.108 E91.16297
G1 X26.111 Y92.91 E91.21612
G1 X25.456 Y92.638 E91.26919
G1 X24.836 Y92.293 E91.32229
G1 X24.258 Y91.881 E91.37541
G1 X23.746 Y91.422 E91.42687
G1 X23.57 Y91.246 E91.44549
G1 X23.097 Y90.717 E91.4986
G1 X22.687 Y90.137 E91.55175
G1 X22.345 Y89.516 E91.60481
G1 X22.074 Y88.86 E91.65792
G1 X21.879 Y88.177 E91.71108
G1 X21.763 Y87.478 E91.7641
G1 X21.725 Y86.791 E91.81559
G1 X21.725 Y73.143 E92.83695
G1 X21.763 Y72.474 E92.88709
G1 X21.725 Y71.791 E92.93828
G1 X21.725 Y58.143 E93.95963
G1 X21.765 Y57.434 E94.01278
G1 X21.884 Y56.735 E94.06584
G1 X22.082 Y56.053 E94.11898
G1 X22.354 Y55.398 E94.17206
G1 X22.699 Y54.778 E94.22516
G1 X23.111 Y54.2 E94.27828
G1 X23.57 Y53.688 E94.32974
G1 X23.746 Y53.512 E94.34836
G1 X24.275 Y53.039 E94.40147
G1 X24.855 Y52.629 E94.45462
G1 X25.476 Y52.287 E94.50768
G1 X26.132 Y52.016 E94.56079
G1 X26.815 Y51.821 E94.61395
G1 X27.514 Y51.705 E94.66697
G1 X28.201 Y51.667 E94.71846
G1 X31.849 Y51.667 E94.99146
G1 X32.558 Y51.707 E95.0446
G1 X32.766 Y51.742 E95.06039
G1 X32.766 Y43.196 E95.69993
G1 X32.79 Y42.768 E95.73201
G1 X32.753 Y42.544 E95.749
G1 X32.715 Y41.857 E95.80049
G1 X32.715 Y28.209 E96.82184
G1 X32.755 Y27.5 E96.87499
G1 X32.874 Y26.801 E96.92805
G1 X33.072 Y26.119 E96.98119
G1 X33.344 Y25.464 E97.03427
G1 X33.689 Y24.844 E97.08737
G0 F3600 X34.286 Y25.026
G1 F1800 X34.696 Y24.49 E97.13787
G1 X35.16 Y24.002 E97.18826
G1 X35.665 Y23.554 E97.23878
G1 X36.219 Y23.169 E97.28927
G1 X36.815 Y22.852 E97.33979
G1 X37.444 Y22.607 E97.3903
G1 X38.098 Y22.439 E97.44083
G1 X38.767 Y22.349 E97.49135
G1 X39.191 Y22.333 E97.5231
G1 X111.799 Y22.333 E102.95674
G1 X112.473 Y22.373 E103.00727
G1 X113.137 Y22.492 E103.05775
G1 X113.783 Y22.689 E103.10829
G1 X114.4 Y22.961 E103.15876
G1 X114.982 Y23.304 E103.20931
G1 X115.518 Y23.714 E103.25981
G1 X116.006 Y24.178 E103.3102
G1 X116.454 Y24.683 E103.36072
G1 X116.839 Y25.237 E103.41121
G1 X117.156 Y25.833 E103.46173
G1 X117.401 Y26.462 E103.51225
G1 X117.569 Y27.116 E103.56278
G1 X117.659 Y27.785 E103.61329
G1 X117.675 Y28.209 E103.64505
G1 X117.675 Y41.857 E104.6664
G1 X117.648 Y42.317 E104.70088
G1 X117.725 Y43.196 E104.76691
G1 X117.725 Y56.844 E105.78827
G1 X117.685 Y57.518 E105.83879
G1 X117.566 Y58.182 E105.88928
G1 X117.369 Y58.828 E105.93982
G1 X117.097 Y59.445 E105.99028
G1 X116.754 Y60.027 E106.04083
G1 X116.344 Y60.563 E106.09133
G1 X115.88 Y61.051 E106.14173
G1 X115.375 Y61.499 E106.19225
G1 X114.821 Y61.884 E106.24273
G1 X114.225 Y62.201 E106.29325
G1 X113.596 Y62.446 E106.34377
G1 X112.942 Y62.614 E106.3943
G1 X112.273 Y62.704 E106.44482
G1 X111.849 Y62.72 E106.47657
G1 X108.201 Y62.72 E106.74957
G1 X107.527 Y62.68 E106.80009
G1 X106.863 Y62.561 E106.85058
G1 X106.685 Y62.507 E106.8645
G1 X106.685 Y71.791 E107.55927
G1 X106.645 Y72.465 E107.6098
G1 X106.685 Y73.143 E107.66062
G1 X106.685 Y86.791 E108.68197
G1 X106.645 Y87.465 E108.7325
G1 X106.526 Y88.129 E108.78298
G1 X106.329 Y88.775 E108.83353
G1 X106.057 Y89.392 E108.88399
G1 X105.714 Y89.974 E108.93454
G1 X105.304 Y90.51 E108.98504
G1 X104.84 Y90.998 E109.03544
