;FLAVOR:Marlin
;TIME:7093
;Filament used: 7.84511m
;Layer height: 0.2
;MINX:41.798
;MINY:30.3
;MINZ:0.3
;MAXX:108.202
;MAXY:107.7
;MAXZ:16.9
;Generated with Cura_SteamEngine 4.9.0
M140 S60
M105
M190 S60
M104 S200
M105
M109 S200
M82 ;absolute extrusion mode
SET_SKEW  XY=139.22,142.90,100
G28 ;Home
G1 Z15.0 F6000 ;Move the platform down 15mm
;Prime the extruder
G92 E0
G1 F200 E3
G92 E0
G92 E0
G92 E0
G1 F1500 E-6.5
;LAYER_COUNT:85
;LAYER:0
M107
G0 F3600 X42.458 Y31.578 Z0.3
;TYPE:SKIRT
G1 F1500 E0
G1 F1800 X42.794 Y31.201 E0.02519
G1 X43.185 Y30.88 E0.05043
G1 X43.622 Y30.626 E0.07565
G1 X44.093 Y30.443 E0.10086
G1 X44.588 Y30.337 E0.12612
G1 X45.24 Y30.301 E0.15869
G1 X104.339 Y30.3 E3.10715
G1 X105.037 Y30.31 E3.14198
G1 X105.54 Y30.357 E3.16719
G1 X106.03 Y30.483 E3.19243
G1 X106.494 Y30.685 E3.21767
G1 X106.92 Y30.957 E3.24289
G1 X107.298 Y31.292 E3.26809
G1 X107.618 Y31.683 E3.2933
G1 X107.873 Y32.12 E3.31854
G1 X108.056 Y32.591 E3.34375
G1 X108.163 Y33.085 E3.36897
G1 X108.199 Y33.74 E3.40169
G1 X108.202 Y50.512 E4.23845
G1 X108.198 Y51.607 E4.29308
G1 X108.2 Y51.835 E4.30446
G1 X108.2 Y68.506 E5.13618
G1 X108.198 Y69.601 E5.19081
G1 X108.2 Y69.835 E5.20248
G1 X108.2 Y86.506 E6.0342
G1 X108.198 Y87.601 E6.08883
G1 X108.2 Y87.835 E6.10051
G1 X108.2 Y103.808 E6.8974
G1 X108.19 Y104.535 E6.93368
G1 X108.143 Y105.038 E6.95888
G1 X108.017 Y105.528 E6.98412
G1 X107.816 Y105.992 E7.00935
G1 X107.544 Y106.418 E7.03457
G1 X107.209 Y106.797 E7.0598
G1 X106.818 Y107.117 E7.08501
G1 X106.382 Y107.372 E7.11021
G1 X105.911 Y107.556 E7.13544
G1 X105.416 Y107.662 E7.16069
G1 X104.76 Y107.699 E7.19347
G1 X45.666 Y107.7 E10.14168
G1 X44.968 Y107.691 E10.17651
G1 X44.464 Y107.644 E10.20176
G1 X43.974 Y107.519 E10.22699
G1 X43.51 Y107.318 E10.25222
G1 X43.084 Y107.047 E10.27741
G1 X42.705 Y106.712 E10.30264
G1 X42.384 Y106.321 E10.32788
G1 X42.129 Y105.885 E10.35308
G1 X41.945 Y105.414 E10.37831
G1 X41.838 Y104.92 E10.40353
G1 X41.801 Y104.244 E10.4373
G1 X41.798 Y87.488 E11.27326
G1 X41.802 Y86.393 E11.32789
G1 X41.8 Y86.141 E11.34047
G1 X41.799 Y69.492 E12.17109
G1 X41.802 Y68.306 E12.23026
G1 X41.8 Y68.066 E12.24223
G1 X41.799 Y51.492 E13.06911
G1 X41.802 Y50.306 E13.12828
G1 X41.8 Y50.092 E13.13896
G1 X41.8 Y34.126 E13.93551
G1 X41.81 Y33.461 E13.96869
G1 X41.858 Y32.958 E13.9939
G1 X41.984 Y32.468 E14.01914
G1 X42.186 Y32.004 E14.04439
G1 X42.458 Y31.578 E14.0696
G1 F1500 E7.5696
;MESH:Holder Construccion.stl(1)
G0 F3600 X44.335 Y34.114
G0 X45.614 Y34.114
G0 X51.761 Y43.263
G0 X52.727 Y43.987
G0 X53.5 Y44.208
G0 X53.5 Y44.108
;TYPE:WALL-INNER
G1 F1500 E14.0696
G1 F1800 X54.151 Y44.006 E14.10248
G1 X54.74 Y43.707 E14.13543
G1 X55.207 Y43.24 E14.16838
G1 X55.508 Y42.645 E14.20165
G1 X55.608 Y42 E14.23421
G1 X55.506 Y41.349 E14.26709
G1 X55.207 Y40.76 E14.30004
G1 X54.74 Y40.293 E14.33299
G1 X54.146 Y39.993 E14.36619
G1 X53.5 Y39.89 E14.39883
G1 X52.848 Y39.994 E14.43177
G1 X52.26 Y40.293 E14.46468
G1 X51.793 Y40.76 E14.49763
G1 X51.493 Y41.354 E14.53083
G1 X51.39 Y42 E14.56346
G1 X51.494 Y42.652 E14.5964
G1 X51.793 Y43.24 E14.62931
G1 X52.26 Y43.707 E14.66226
G1 X52.855 Y44.008 E14.69553
G1 X53.5 Y44.108 E14.72809
G0 F3600 X53.5 Y44.208
G0 X97.5 Y44.208
G0 X97.5 Y44.108
G1 F1800 X98.151 Y44.006 E14.76097
G1 X98.74 Y43.707 E14.79392
G1 X99.207 Y43.24 E14.82687
G1 X99.507 Y42.646 E14.86007
G1 X99.61 Y42 E14.89271
G1 X99.506 Y41.348 E14.92565
G1 X99.207 Y40.76 E14.95856
G1 X98.74 Y40.293 E14.99151
G1 X98.146 Y39.993 E15.02471
G1 X97.5 Y39.89 E15.05734
G1 X96.848 Y39.994 E15.09028
G1 X96.26 Y40.293 E15.12319
G1 X95.793 Y40.76 E15.15614
G1 X95.492 Y41.355 E15.18941
G1 X95.392 Y42 E15.22197
G1 X95.494 Y42.651 E15.25485
G1 X95.793 Y43.24 E15.2878
G1 X96.26 Y43.707 E15.32075
G1 X96.855 Y44.008 E15.35402
G1 X97.5 Y44.108 E15.38658
G0 F3600 X97.5 Y44.208
G0 X104.33 Y49.83
G0 X104.4 Y49.9
G1 F1800 X45.6 Y49.9 E18.32013
G1 X45.6 Y34.1 E19.10839
G1 X104.4 Y34.1 E22.04193
G1 X104.4 Y49.9 E22.8302
G0 F3600 X104.8 Y50.3
;TYPE:WALL-OUTER
G1 F1800 X45.2 Y50.3 E25.80366
G1 X45.2 Y33.7 E26.63183
G1 X104.8 Y33.7 E29.60529
G1 X104.8 Y50.3 E30.43347
G0 F3600 X104.6 Y50.3
G0 X104.33 Y49.83
G0 X97.423 Y44.196
G0 X97.5 Y43.703
G1 F1800 X98.026 Y43.621 E30.46003
G1 X98.502 Y43.379 E30.48667
G1 X98.879 Y43.002 E30.51327
G1 X99.122 Y42.521 E30.54015
G1 X99.205 Y42 E30.56647
G1 X99.121 Y41.473 E30.5931
G1 X98.879 Y40.998 E30.61969
G1 X98.502 Y40.621 E30.64629
G1 X98.021 Y40.378 E30.67318
G1 X97.5 Y40.295 E30.6995
G1 X96.973 Y40.379 E30.72612
G1 X96.498 Y40.621 E30.75272
G1 X96.121 Y40.998 E30.77932
G1 X95.878 Y41.479 E30.8062
G1 X95.797 Y42 E30.83251
G1 X95.879 Y42.526 E30.85907
G1 X96.121 Y43.002 E30.88571
G1 X96.498 Y43.379 E30.91231
G1 X96.979 Y43.622 E30.93919
G1 X97.5 Y43.703 E30.9655
G0 F3600 X97.697 Y43.673
G0 X97.773 Y44.166
G0 X53.423 Y44.196
G0 X53.5 Y43.703
G1 F1800 X54.026 Y43.621 E30.99206
G1 X54.502 Y43.379 E31.0187
G1 X54.879 Y43.002 E31.0453
G1 X55.122 Y42.521 E31.07218
G1 X55.203 Y42 E31.09849
G1 X55.121 Y41.474 E31.12505
G1 X54.879 Y40.998 E31.15169
G1 X54.502 Y40.621 E31.17829
G1 X54.021 Y40.378 E31.20517
G1 X53.5 Y40.295 E31.23149
G1 X52.973 Y40.379 E31.25812
G1 X52.498 Y40.621 E31.28471
G1 X52.121 Y40.998 E31.31131
G1 X51.878 Y41.479 E31.3382
G1 X51.795 Y42 E31.36452
G1 X51.879 Y42.527 E31.39114
G1 X52.121 Y43.002 E31.41774
G1 X52.498 Y43.379 E31.44434
G1 X52.979 Y43.622 E31.47122
G1 X53.5 Y43.703 E31.49753
G0 F3600 X53.697 Y43.673
G0 X53.5 Y44.502
;TYPE:SKIN
G1 F1800 X54.272 Y44.382 E31.53651
G1 X54.972 Y44.027 E31.57566
G1 X55.527 Y43.472 E31.61482
G1 X55.884 Y42.766 E31.65429
G1 X56.002 Y42 E31.69296
G1 X55.882 Y41.228 E31.73194
G1 X55.527 Y40.528 E31.77109
G1 X54.972 Y39.973 E31.81025
G1 X54.267 Y39.617 E31.84966
G1 X53.5 Y39.495 E31.8884
G1 X52.725 Y39.618 E31.92755
G1 X52.028 Y39.973 E31.96658
G1 X51.473 Y40.528 E32.00573
G1 X51.117 Y41.233 E32.04514
G1 X50.995 Y42 E32.08388
G1 X51.118 Y42.775 E32.12303
G1 X51.473 Y43.472 E32.16206
G1 X52.028 Y44.027 E32.20121
G1 X52.734 Y44.384 E32.24068
G1 X53.5 Y44.502 E32.27935
G0 F3600 X45.99 Y49.51
G1 F1800 X45.99 Y34.49 E33.0287
G1 X104.01 Y34.49 E35.92333
G1 X104.01 Y49.51 E36.67268
G1 X45.99 Y49.51 E39.56731
G0 F3600 X94.998 Y42
G1 F1800 X95.118 Y42.772 E39.60629
G1 X95.473 Y43.472 E39.64545
G1 X96.028 Y44.027 E39.6846
G1 X96.734 Y44.384 E39.72407
G1 X97.5 Y44.502 E39.76274
G1 X98.272 Y44.382 E39.80172
G1 X98.972 Y44.027 E39.84088
G1 X99.527 Y43.472 E39.88003
G1 X99.883 Y42.767 E39.91944
G1 X100.005 Y42 E39.95818
G1 X99.882 Y41.225 E39.99733
G1 X99.527 Y40.528 E40.03636
G1 X98.972 Y39.973 E40.07551
G1 X98.267 Y39.617 E40.11492
G1 X97.5 Y39.495 E40.15366
G1 X96.725 Y39.618 E40.19281
G1 X96.028 Y39.973 E40.23184
G1 X95.473 Y40.528 E40.271
G1 X95.116 Y41.234 E40.31046
G1 X94.998 Y42 E40.34913
G0 F3600 X95.761 Y40.737
G0 X103.829 Y34.815
G1 F1800 X103.683 Y34.67 E40.3594
G0 F3600 X103.118 Y34.67
G1 F1800 X103.829 Y35.381 E40.40956
G0 F3600 X103.829 Y35.947
G1 F1800 X102.552 Y34.67 E40.49966
G0 F3600 X101.986 Y34.67
G1 F1800 X103.829 Y36.512 E40.62966
G0 F3600 X103.829 Y37.078
G1 F1800 X101.421 Y34.67 E40.79956
G0 F3600 X100.855 Y34.67
G1 F1800 X103.829 Y37.644 E41.00939
G0 F3600 X103.829 Y38.209
G1 F1800 X100.289 Y34.67 E41.25912
G0 F3600 X99.723 Y34.67
G1 F1800 X103.829 Y38.775 E41.54878
G0 F3600 X103.829 Y39.341
G1 F1800 X99.158 Y34.67 E41.87835
G0 F3600 X98.592 Y34.67
G1 F1800 X103.829 Y39.906 E42.24781
G0 F3600 X103.829 Y40.472
G1 F1800 X98.026 Y34.67 E42.65721
G0 F3600 X97.461 Y34.67
G1 F1800 X103.829 Y41.038 E43.10651
G0 F3600 X103.829 Y41.604
G1 F1800 X96.895 Y34.67 E43.59574
G0 F3600 X96.329 Y34.67
G1 F1800 X103.829 Y42.169 E44.12487
G0 F3600 X103.829 Y42.735
G1 F1800 X95.764 Y34.67 E44.6939
G0 F3600 X95.198 Y34.67
G1 F1800 X103.829 Y43.301 E45.30286
G0 F3600 X103.829 Y43.866
G1 F1800 X94.632 Y34.67 E45.95172
G0 F3600 X94.067 Y34.67
G1 F1800 X103.829 Y44.432 E46.64049
G0 F3600 X103.829 Y44.998
G1 F1800 X100.064 Y41.232 E46.90616
G0 F3600 X100.172 Y41.906
G1 F1800 X103.829 Y45.563 E47.16418
G0 F3600 X103.829 Y46.129
G1 F1800 X100.119 Y42.42 E47.42591
G0 F3600 X100.021 Y42.887
G1 F1800 X103.829 Y46.695 E47.69458
G0 F3600 X103.829 Y47.26
G1 F1800 X99.832 Y43.263 E47.97659
G0 F3600 X99.627 Y43.624
G1 F1800 X103.829 Y47.826 E48.27307
G0 F3600 X103.829 Y48.392
G1 F1800 X99.344 Y43.907 E48.58951
G0 F3600 X99.057 Y44.185
G1 F1800 X103.829 Y48.957 E48.9262
G0 F3600 X103.634 Y49.329
G1 F1800 X98.681 Y44.375 E49.27569
G0 F3600 X98.299 Y44.559
G1 F1800 X103.069 Y49.329 E49.61224
G0 F3600 X102.503 Y49.329
G1 F1800 X97.81 Y44.636 E49.94336
G0 F3600 X97.255 Y44.646
G1 F1800 X101.937 Y49.329 E50.27374
G0 F3600 X101.372 Y49.329
G1 F1800 X96.521 Y44.478 E50.616
G1 X96.451 Y44.408
G0 F3600 X95.018 Y42.975
G1 F1800 X86.713 Y34.67 E51.20196
G0 F3600 X87.278 Y34.67
G1 F1800 X94.853 Y42.244 E51.73639
G0 F3600 X94.864 Y41.689
G1 F1800 X87.844 Y34.67 E52.23165
G0 F3600 X88.41 Y34.67
G1 F1800 X94.939 Y41.199 E52.6923
G0 F3600 X95.124 Y40.818
G1 F1800 X88.975 Y34.67 E53.12611
G0 F3600 X89.541 Y34.67
G1 F1800 X95.313 Y40.442 E53.53336
G0 F3600 X95.59 Y40.153
G1 F1800 X90.107 Y34.67 E53.92022
G0 F3600 X90.673 Y34.67
G1 F1800 X95.873 Y39.87 E54.2871
G0 F3600 X96.233 Y39.665
G1 F1800 X91.238 Y34.67 E54.63953
G0 F3600 X91.804 Y34.67
G1 F1800 X96.608 Y39.474 E54.97848
G0 F3600 X97.078 Y39.378
G1 F1800 X92.37 Y34.67 E55.31065
G0 F3600 X92.935 Y34.67
G1 F1800 X97.592 Y39.326 E55.63919
G0 F3600 X98.265 Y39.434
G1 F1800 X93.501 Y34.67 E55.97532
G1 X93.431 Y34.6
G0 F3600 X86.147 Y34.67
G1 F1800 X100.806 Y49.329 E57.00959
G0 F3600 X100.24 Y49.329
G1 F1800 X85.581 Y34.67 E58.04386
G0 F3600 X85.016 Y34.67
G1 F1800 X99.675 Y49.329 E59.07813
G0 F3600 X99.109 Y49.329
G1 F1800 X84.45 Y34.67 E60.1124
G0 F3600 X83.884 Y34.67
G1 F1800 X98.543 Y49.329 E61.14668
G0 F3600 X97.978 Y49.329
G1 F1800 X83.319 Y34.67 E62.18095
G0 F3600 X82.753 Y34.67
G1 F1800 X97.412 Y49.329 E63.21522
G0 F3600 X96.846 Y49.329
G1 F1800 X82.187 Y34.67 E64.24949
G0 F3600 X81.622 Y34.67
G1 F1800 X96.281 Y49.329 E65.28376
G0 F3600 X95.715 Y49.329
G1 F1800 X81.056 Y34.67 E66.31803
G0 F3600 X80.49 Y34.67
G1 F1800 X95.149 Y49.329 E67.35231
G0 F3600 X94.584 Y49.329
G1 F1800 X79.924 Y34.67 E68.38661
G0 F3600 X79.359 Y34.67
G1 F1800 X94.018 Y49.329 E69.42088
G0 F3600 X93.452 Y49.329
G1 F1800 X78.793 Y34.67 E70.45516
G0 F3600 X78.227 Y34.67
G1 F1800 X92.886 Y49.329 E71.48943
G0 F3600 X92.321 Y49.329
G1 F1800 X77.662 Y34.67 E72.5237
G0 F3600 X77.096 Y34.67
G1 F1800 X91.755 Y49.329 E73.55797
G0 F3600 X91.189 Y49.329
G1 F1800 X76.53 Y34.67 E74.59224
G0 F3600 X75.965 Y34.67
G1 F1800 X90.624 Y49.329 E75.62651
G0 F3600 X90.058 Y49.329
G1 F1800 X75.399 Y34.67 E76.66079
G0 F3600 X74.833 Y34.67
G1 F1800 X89.492 Y49.329 E77.69506
G0 F3600 X88.927 Y49.329
G1 F1800 X74.268 Y34.67 E78.72933
G0 F3600 X73.702 Y34.67
G1 F1800 X88.361 Y49.329 E79.7636
G0 F3600 X87.795 Y49.329
G1 F1800 X73.136 Y34.67 E80.79787
G0 F3600 X72.571 Y34.67
G1 F1800 X87.23 Y49.329 E81.83214
G0 F3600 X86.664 Y49.329
G1 F1800 X72.005 Y34.67 E82.86642
G0 F3600 X71.439 Y34.67
G1 F1800 X86.098 Y49.329 E83.90069
G0 F3600 X85.533 Y49.329
G1 F1800 X70.874 Y34.67 E84.93496
G0 F3600 X70.308 Y34.67
G1 F1800 X84.967 Y49.329 E85.96923
G0 F3600 X84.401 Y49.329
G1 F1800 X69.742 Y34.67 E87.0035
G0 F3600 X69.176 Y34.67
G1 F1800 X83.835 Y49.329 E88.03777
G0 F3600 X83.27 Y49.329
G1 F1800 X68.611 Y34.67 E89.07205
G0 F3600 X68.045 Y34.67
G1 F1800 X82.704 Y49.329 E90.10632
G0 F3600 X82.138 Y49.329
G1 F1800 X67.479 Y34.67 E91.14059
G0 F3600 X66.914 Y34.67
G1 F1800 X81.573 Y49.329 E92.17486
G0 F3600 X81.007 Y49.329
G1 F1800 X66.348 Y34.67 E93.20913
G0 F3600 X65.782 Y34.67
G1 F1800 X80.441 Y49.329 E94.2434
G0 F3600 X79.876 Y49.329
G1 F1800 X65.217 Y34.67 E95.27768
G0 F3600 X64.651 Y34.67
G1 F1800 X79.31 Y49.329 E96.31195
G0 F3600 X78.744 Y49.329
G1 F1800 X64.085 Y34.67 E97.34622
G0 F3600 X63.52 Y34.67
G1 F1800 X78.179 Y49.329 E98.38049
G0 F3600 X77.613 Y49.329
G1 F1800 X62.954 Y34.67 E99.41476
G0 F3600 X62.388 Y34.67
G1 F1800 X77.047 Y49.329 E100.44903
G0 F3600 X76.482 Y49.329
G1 F1800 X61.823 Y34.67 E101.48331
G0 F3600 X61.257 Y34.67
G1 F1800 X75.916 Y49.329 E102.51758
G0 F3600 X75.35 Y49.329
G1 F1800 X60.691 Y34.67 E103.55185
G0 F3600 X60.125 Y34.67
G1 F1800 X74.785 Y49.329 E104.58616
G0 F3600 X74.219 Y49.329
G1 F1800 X59.56 Y34.67 E105.62043
G0 F3600 X58.994 Y34.67
G1 F1800 X73.653 Y49.329 E106.6547
G0 F3600 X73.087 Y49.329
G1 F1800 X58.428 Y34.67 E107.68897
G0 F3600 X57.863 Y34.67
G1 F1800 X72.522 Y49.329 E108.72324
G0 F3600 X71.956 Y49.329
G1 F1800 X57.297 Y34.67 E109.75751
G0 F3600 X56.731 Y34.67
G1 F1800 X71.39 Y49.329 E110.79178
G0 F3600 X70.825 Y49.329
G1 F1800 X56.166 Y34.67 E111.82606
G0 F3600 X55.6 Y34.67
G1 F1800 X70.259 Y49.329 E112.86033
G0 F3600 X69.693 Y49.329
G1 F1800 X55.034 Y34.67 E113.8946
G0 F3600 X54.469 Y34.67
G1 F1800 X69.128 Y49.329 E114.92887
G0 F3600 X68.562 Y49.329
G1 F1800 X53.903 Y34.67 E115.96314
G0 F3600 X53.337 Y34.67
G1 F1800 X67.996 Y49.329 E116.99741
G0 F3600 X67.431 Y49.329
G1 F1800 X52.772 Y34.67 E118.03169
G0 F3600 X52.206 Y34.67
G1 F1800 X66.865 Y49.329 E119.06596
G0 F3600 X66.299 Y49.329
G1 F1800 X51.64 Y34.67 E120.10023
G0 F3600 X51.075 Y34.67
G1 F1800 X65.734 Y49.329 E121.1345
G0 F3600 X65.168 Y49.329
G1 F1800 X50.509 Y34.67 E122.16877
G0 F3600 X49.943 Y34.67
G1 F1800 X64.602 Y49.329 E123.20304
G0 F3600 X64.037 Y49.329
G1 F1800 X56.086 Y41.378 E123.76403
G0 F3600 X56.177 Y42.035
G1 F1800 X63.471 Y49.329 E124.27866
G0 F3600 X62.905 Y49.329
G1 F1800 X56.101 Y42.525 E124.75872
G0 F3600 X55.98 Y42.97
G1 F1800 X62.339 Y49.329 E125.20738
G0 F3600 X61.774 Y49.329
G1 F1800 X55.791 Y43.346 E125.62952
G0 F3600 X55.566 Y43.687
G1 F1800 X61.208 Y49.329 E126.02759
G0 F3600 X60.642 Y49.329
G1 F1800 X55.283 Y43.97 E126.4057
G0 F3600 X54.975 Y44.227
G1 F1800 X60.077 Y49.329 E126.76567
G0 F3600 X59.511 Y49.329
G1 F1800 X54.599 Y44.417 E127.11224
G0 F3600 X54.192 Y44.576
G1 F1800 X58.945 Y49.329 E127.44759
G0 F3600 X58.38 Y49.329
G1 F1800 X53.703 Y44.652 E127.77757
G0 F3600 X53.109 Y44.624
G1 F1800 X57.814 Y49.329 E128.10954
G0 F3600 X57.248 Y49.329
G1 F1800 X52.271 Y44.351 E128.46073
G1 X52.201 Y44.281
G0 F3600 X51.144 Y43.224
G1 F1800 X46.169 Y38.249 E128.81174
G0 F3600 X46.169 Y37.683
G1 F1800 X50.872 Y42.387 E129.1436
G0 F3600 X50.844 Y41.793
G1 F1800 X46.169 Y37.118 E129.47344
G0 F3600 X46.169 Y36.552
G1 F1800 X50.923 Y41.306 E129.80886
G0 F3600 X51.083 Y40.901
G1 F1800 X46.169 Y35.986 E130.15561
G0 F3600 X46.169 Y35.421
G1 F1800 X51.273 Y40.524 E130.51569
G0 F3600 X51.529 Y40.215
G1 F1800 X46.169 Y34.855 E130.89387
G0 F3600 X46.549 Y34.67
G1 F1800 X51.812 Y39.933 E131.2652
G0 F3600 X52.151 Y39.706
G1 F1800 X47.115 Y34.67 E131.62052
G0 F3600 X47.68 Y34.67
G1 F1800 X52.526 Y39.515 E131.96239
G0 F3600 X52.972 Y39.395
G1 F1800 X48.246 Y34.67 E132.2958
G0 F3600 X48.812 Y34.67
G1 F1800 X53.459 Y39.317 E132.62367
G0 F3600 X54.118 Y39.41
G1 F1800 X49.377 Y34.67 E132.95814
G1 X49.307 Y34.6
G0 F3600 X46.169 Y38.815
G1 F1800 X56.683 Y49.329 E133.69996
G0 F3600 X56.117 Y49.329
G1 F1800 X46.169 Y39.38 E134.40188
G0 F3600 X46.169 Y39.946
G1 F1800 X55.551 Y49.329 E135.06387
G0 F3600 X54.986 Y49.329
G1 F1800 X46.169 Y40.512 E135.68595
G0 F3600 X46.169 Y41.077
G1 F1800 X54.42 Y49.329 E136.26814
G0 F3600 X53.854 Y49.329
G1 F1800 X46.169 Y41.643 E136.81039
G0 F3600 X46.169 Y42.209
G1 F1800 X53.288 Y49.329 E137.31271
G0 F3600 X52.723 Y49.329
G1 F1800 X46.169 Y42.775 E137.77513
G0 F3600 X46.169 Y43.34
G1 F1800 X52.157 Y49.329 E138.19765
G0 F3600 X51.591 Y49.329
G1 F1800 X46.169 Y43.906 E138.58024
G0 F3600 X46.169 Y44.472
G1 F1800 X51.026 Y49.329 E138.92293
G0 F3600 X50.46 Y49.329
G1 F1800 X46.169 Y45.037 E139.22572
G0 F3600 X46.169 Y45.603
G1 F1800 X49.894 Y49.329 E139.48857
G0 F3600 X49.329 Y49.329
G1 F1800 X46.169 Y46.169 E139.71153
G0 F3600 X46.169 Y46.734
G1 F1800 X48.763 Y49.329 E139.89458
G0 F3600 X48.197 Y49.329
G1 F1800 X46.169 Y47.3 E140.0377
G0 F3600 X46.169 Y47.866
G1 F1800 X47.632 Y49.329 E140.14093
G0 F3600 X47.066 Y49.329
G1 F1800 X46.169 Y48.431 E140.20425
G0 F3600 X46.169 Y48.997
