;FLAVOR:Marlin
;TIME:10146
;Filament used: 12.7958m
;Layer height: 0.2
;MINX:12.646
;MINY:9.773
;MINZ:0.3
;MAXX:66.448
;MAXY:88.013
;MAXZ:41.9
;Generated with Cura_SteamEngine 4.9.0
M140 S60
M105
M190 S60
M104 S200
M105
M109 S200
M82 ;absolute extrusion mode
SET_SKEW  XY=139.22,142.90,100
G28 ;Home
G1 Z15.0 F6000 ;Move the platform down 15mm
;Prime the extruder
G92 E0
G1 F200 E3
G92 E0
G92 E0
G92 E0
G1 F1500 E-6.5
;LAYER_COUNT:209
;LAYER:0
M107
G0 F3600 X13.639 Y12.515 Z0.3
;TYPE:SKIRT
G1 F1500 E0
G1 F1800 X14.03 Y12.194 E0.02524
G1 X14.467 Y11.939 E0.05048
G1 X14.938 Y11.757 E0.07567
G1 X15.432 Y11.65 E0.10089
G1 X15.764 Y11.623 E0.11751
G1 X16.938 Y11.59 E0.1761
G1 X18.309 Y11.561 E0.24452
G1 X21.046 Y11.426 E0.38123
G1 X23.269 Y11.259 E0.49245
G1 X23.884 Y11.206 E0.52325
G1 X24.39 Y11.186 E0.54851
G1 X25.04 Y11.185 E0.58094
G1 X27.837 Y11.145 E0.7205
G1 X30.554 Y11.03 E0.85617
G1 X33.3 Y10.835 E0.99351
G1 X36.006 Y10.567 E1.12918
G1 X38.724 Y10.219 E1.26589
G1 X40.995 Y9.862 E1.38058
G1 X41.694 Y9.783 E1.41567
G1 X42.103 Y9.773 E1.43608
G1 X45.11 Y9.773 E1.5861
G1 X45.812 Y9.783 E1.62113
G1 X46.35 Y9.837 E1.64811
G1 X47.077 Y9.972 E1.685
G1 X49.806 Y10.439 E1.82313
G1 X52.503 Y10.823 E1.95904
G1 X55.239 Y11.134 E2.09642
G1 X57.977 Y11.366 E2.2335
G1 X60.695 Y11.52 E2.36932
G1 X63.323 Y11.596 E2.50049
G1 X63.636 Y11.621 E2.51616
G1 X64.131 Y11.723 E2.54137
G1 X64.604 Y11.902 E2.5666
G1 X65.043 Y12.153 E2.59183
G1 X65.437 Y12.47 E2.61706
G1 X65.775 Y12.845 E2.64225
G1 X66.051 Y13.269 E2.66749
G1 X66.257 Y13.731 E2.69272
G1 X66.387 Y14.219 E2.71792
G1 X66.447 Y15.011 E2.75754
G1 X66.448 Y84.09 E6.20391
G1 X66.439 Y84.817 E6.24018
G1 X66.393 Y85.32 E6.26538
G1 X66.268 Y85.81 E6.29061
G1 X66.067 Y86.274 E6.31584
G1 X65.796 Y86.701 E6.34107
G1 X65.461 Y87.08 E6.36631
G1 X65.071 Y87.401 E6.39151
G1 X64.635 Y87.657 E6.41673
G1 X64.164 Y87.84 E6.44194
G1 X63.67 Y87.948 E6.46717
G1 X63.008 Y87.985 E6.50025
G1 X59.911 Y87.986 E6.65476
G1 X59.214 Y87.976 E6.68953
G1 X58.651 Y87.932 E6.71771
G1 X56.408 Y87.676 E6.83034
G1 X53.704 Y87.446 E6.96573
G1 X50.955 Y87.289 E7.1031
G1 X48.201 Y87.21 E7.24055
G1 X45.483 Y87.208 E7.37616
G1 X42.733 Y87.285 E7.51341
G1 X39.987 Y87.44 E7.65062
G1 X38.382 Y87.566 E7.73095
G1 X38.224 Y87.575 E7.73884
G1 X37.058 Y87.608 E7.79704
G1 X35.687 Y87.637 E7.86545
G1 X32.95 Y87.772 E8.00217
G1 X30.718 Y87.939 E8.11383
G1 X30.109 Y87.992 E8.14433
G1 X29.607 Y88.012 E8.16939
G1 X16.512 Y88.013 E8.82271
G1 X15.814 Y88.004 E8.85753
G1 X15.31 Y87.957 E8.88279
G1 X14.82 Y87.832 E8.90802
G1 X14.356 Y87.631 E8.93324
G1 X13.93 Y87.36 E8.95843
G1 X13.551 Y87.025 E8.98367
G1 X13.23 Y86.634 E9.00891
G1 X12.975 Y86.198 E9.03411
G1 X12.791 Y85.727 E9.05934
G1 X12.684 Y85.233 E9.08455
G1 X12.647 Y84.557 E9.11833
G1 X12.646 Y15.461 E12.56554
G1 X12.656 Y14.775 E12.59977
G1 X12.704 Y14.272 E12.62498
G1 X12.83 Y13.782 E12.65022
G1 X13.031 Y13.319 E12.6754
G1 X13.303 Y12.893 E12.70062
G1 X13.639 Y12.515 E12.72585
G1 F1500 E6.22585
;MESH:A1_Nema17_20mm_20mm.stl(1)
G0 F3600 X16.46 Y14.148
G0 X16.46 Y15.427
G0 X19.174 Y81.486
G0 X19.244 Y81.416
;TYPE:WALL-INNER
G1 F1500 E12.72585
G1 F1800 X29.246 Y81.416 E13.22485
G1 X29.246 Y84.213 E13.3644
G1 X16.446 Y84.213 E14.00299
G1 X16.446 Y15.413 E17.43544
G1 X19.244 Y15.413 E17.57503
G1 X19.244 Y57.416 E19.67057
G1 X29.246 Y57.416 E20.16957
G1 X29.246 Y60.211 E20.30901
G1 X19.244 Y60.211 E20.80801
G1 X19.244 Y81.416 E21.86594
G0 F3600 X19.644 Y81.016
;TYPE:WALL-OUTER
G1 F1800 X29.646 Y81.016 E22.36494
G1 X29.646 Y84.613 E22.54439
G1 X16.046 Y84.613 E23.2229
G1 X16.046 Y15.013 E26.69526
G1 X19.644 Y15.013 E26.87476
G1 X19.644 Y57.016 E28.9703
G1 X29.646 Y57.016 E29.4693
G1 X29.646 Y60.611 E29.64866
G1 X19.644 Y60.611 E30.14766
G1 X19.644 Y81.016 E31.16567
G0 F3600 X19.844 Y81.016
G0 X19.844 Y81.516
G0 X18.854 Y81.806
;TYPE:SKIN
G1 F1800 X28.856 Y81.806 E31.66467
G1 X28.856 Y83.823 E31.7653
G1 X16.836 Y83.823 E32.36498
G1 X16.836 Y15.803 E35.75851
G1 X18.854 Y15.803 E35.85919
G1 X18.854 Y57.806 E37.95473
G1 X28.856 Y57.806 E38.45373
G1 X28.856 Y59.821 E38.55426
G1 X18.854 Y59.821 E39.05326
G1 X18.854 Y81.806 E40.1501
G0 F3600 X17.457 Y83.642
G1 F1800 X17.015 Y83.2 E40.18128
G0 F3600 X17.015 Y82.634
G1 F1800 X18.022 Y83.642 E40.25237
G0 F3600 X18.588 Y83.642
G1 F1800 X17.015 Y82.068 E40.36338
G0 F3600 X17.015 Y81.503
G1 F1800 X19.154 Y83.642 E40.5143
G0 F3600 X19.719 Y83.642
G1 F1800 X17.015 Y80.937 E40.70512
G0 F3600 X17.015 Y80.371
G1 F1800 X20.285 Y83.642 E40.93587
G0 F3600 X20.851 Y83.642
G1 F1800 X19.194 Y81.985 E41.05278
G0 F3600 X19.76 Y81.985
G1 F1800 X21.416 Y83.642 E41.16966
G0 F3600 X21.982 Y83.642
G1 F1800 X20.325 Y81.985 E41.28657
G0 F3600 X20.891 Y81.985
G1 F1800 X22.548 Y83.642 E41.40348
G0 F3600 X23.113 Y83.642
G1 F1800 X21.457 Y81.985 E41.52035
G0 F3600 X22.022 Y81.985
G1 F1800 X23.679 Y83.642 E41.63726
G0 F3600 X24.245 Y83.642
G1 F1800 X22.588 Y81.985 E41.75417
G0 F3600 X23.154 Y81.985
G1 F1800 X24.81 Y83.642 E41.87105
G0 F3600 X25.376 Y83.642
G1 F1800 X23.719 Y81.985 E41.98796
G0 F3600 X24.285 Y81.985
G1 F1800 X25.942 Y83.642 E42.10487
G0 F3600 X26.508 Y83.642
G1 F1800 X24.851 Y81.985 E42.22178
G0 F3600 X25.416 Y81.985
G1 F1800 X27.073 Y83.642 E42.33869
G0 F3600 X27.639 Y83.642
G1 F1800 X25.982 Y81.985 E42.4556
G0 F3600 X26.548 Y81.985
G1 F1800 X28.205 Y83.642 E42.57251
G0 F3600 X28.676 Y83.547
G1 F1800 X27.114 Y81.985 E42.68272
G0 F3600 X27.679 Y81.985
G1 F1800 X28.676 Y82.981 E42.75303
G0 F3600 X28.676 Y82.416
G1 F1800 X28.245 Y81.985 E42.78343
G0 F3600 X18.673 Y81.465
G1 F1800 X17.015 Y79.806 E42.90045
G0 F3600 X17.015 Y79.24
G1 F1800 X18.673 Y80.899 E43.01747
G0 F3600 X18.673 Y80.333
G1 F1800 X17.015 Y78.674 E43.13448
G0 F3600 X17.015 Y78.109
G1 F1800 X18.673 Y79.768 E43.2515
G0 F3600 X18.673 Y79.202
G1 F1800 X17.015 Y77.543 E43.36852
G0 F3600 X17.015 Y76.977
G1 F1800 X18.673 Y78.636 E43.48553
G0 F3600 X18.673 Y78.07
G1 F1800 X17.015 Y76.412 E43.60251
G0 F3600 X17.015 Y75.846
G1 F1800 X18.673 Y77.505 E43.71953
G0 F3600 X18.673 Y76.939
G1 F1800 X17.015 Y75.28 E43.83654
G0 F3600 X17.015 Y74.715
G1 F1800 X18.673 Y76.373 E43.95353
G0 F3600 X18.673 Y75.808
G1 F1800 X17.015 Y74.149 E44.07054
G0 F3600 X17.015 Y73.583
G1 F1800 X18.673 Y75.242 E44.18756
G0 F3600 X18.673 Y74.676
G1 F1800 X17.015 Y73.017 E44.30457
G0 F3600 X17.015 Y72.452
G1 F1800 X18.673 Y74.111 E44.42159
G0 F3600 X18.673 Y73.545
G1 F1800 X17.015 Y71.886 E44.53861
G0 F3600 X17.015 Y71.32
G1 F1800 X18.673 Y72.979 E44.65562
G0 F3600 X18.673 Y72.414
G1 F1800 X17.015 Y70.755 E44.77264
G0 F3600 X17.015 Y70.189
G1 F1800 X18.673 Y71.848 E44.88965
G0 F3600 X18.673 Y71.282
G1 F1800 X17.015 Y69.623 E45.00667
G0 F3600 X17.015 Y69.058
G1 F1800 X18.673 Y70.717 E45.12369
G0 F3600 X18.673 Y70.151
G1 F1800 X17.015 Y68.492 E45.2407
G0 F3600 X17.015 Y67.926
G1 F1800 X18.673 Y69.585 E45.35772
G0 F3600 X18.673 Y69.019
G1 F1800 X17.015 Y67.361 E45.4747
G0 F3600 X17.015 Y66.795
G1 F1800 X18.673 Y68.454 E45.59172
G0 F3600 X18.673 Y67.888
G1 F1800 X17.015 Y66.229 E45.70873
G0 F3600 X17.015 Y65.664
G1 F1800 X18.673 Y67.322 E45.82571
G0 F3600 X18.673 Y66.757
G1 F1800 X17.015 Y65.098 E45.94273
G0 F3600 X17.015 Y64.532
G1 F1800 X18.673 Y66.191 E46.05975
G0 F3600 X18.673 Y65.625
G1 F1800 X17.015 Y63.967 E46.17673
G0 F3600 X17.015 Y63.401
G1 F1800 X18.673 Y65.06 E46.29374
G0 F3600 X18.673 Y64.494
G1 F1800 X17.015 Y62.835 E46.41076
G0 F3600 X17.015 Y62.269
G1 F1800 X18.673 Y63.928 E46.52777
G0 F3600 X18.673 Y63.363
G1 F1800 X17.015 Y61.704 E46.64479
G0 F3600 X17.015 Y61.138
G1 F1800 X18.673 Y62.797 E46.76181
G0 F3600 X18.673 Y62.231
G1 F1800 X17.015 Y60.572 E46.87882
G0 F3600 X17.015 Y60.007
G1 F1800 X18.673 Y61.666 E46.99584
G0 F3600 X18.673 Y61.1
G1 F1800 X17.015 Y59.441 E47.11286
G0 F3600 X17.015 Y58.875
G1 F1800 X18.673 Y60.534 E47.22987
G0 F3600 X18.673 Y59.969
G1 F1800 X17.015 Y58.31 E47.34689
G0 F3600 X17.015 Y57.744
G1 F1800 X18.91 Y59.64 E47.48063
G0 F3600 X19.476 Y59.64
G1 F1800 X17.015 Y57.178 E47.6543
G0 F3600 X17.015 Y56.613
G1 F1800 X20.042 Y59.64 E47.86787
G0 F3600 X20.607 Y59.64
G1 F1800 X18.953 Y57.985 E47.9846
G0 F3600 X18.673 Y57.706
G1 F1800 X17.015 Y56.047 E48.10162
G0 F3600 X17.015 Y55.481
G1 F1800 X18.673 Y57.14 E48.21864
G0 F3600 X18.673 Y56.574
G1 F1800 X17.015 Y54.916 E48.33562
G0 F3600 X17.015 Y54.35
G1 F1800 X18.673 Y56.009 E48.45263
G0 F3600 X18.673 Y55.443
G1 F1800 X17.015 Y53.784 E48.56965
G0 F3600 X17.015 Y53.218
G1 F1800 X18.673 Y54.877 E48.68666
G0 F3600 X18.673 Y54.312
G1 F1800 X17.015 Y52.653 E48.80368
G0 F3600 X17.015 Y52.087
G1 F1800 X18.673 Y53.746 E48.9207
G0 F3600 X18.673 Y53.18
G1 F1800 X17.015 Y51.521 E49.03771
G0 F3600 X17.015 Y50.956
G1 F1800 X18.673 Y52.615 E49.15473
G0 F3600 X18.673 Y52.049
G1 F1800 X17.015 Y50.39 E49.27175
G0 F3600 X17.015 Y49.824
G1 F1800 X18.673 Y51.483 E49.38876
G0 F3600 X18.673 Y50.918
G1 F1800 X17.015 Y49.259 E49.50578
G0 F3600 X17.015 Y48.693
G1 F1800 X18.673 Y50.352 E49.62279
G0 F3600 X18.673 Y49.786
G1 F1800 X17.015 Y48.127 E49.73981
G0 F3600 X17.015 Y47.562
G1 F1800 X18.673 Y49.22 E49.85679
G0 F3600 X18.673 Y48.655
G1 F1800 X17.015 Y46.996 E49.97381
G0 F3600 X17.015 Y46.43
G1 F1800 X18.673 Y48.089 E50.09082
G0 F3600 X18.673 Y47.523
G1 F1800 X17.015 Y45.865 E50.2078
G0 F3600 X17.015 Y45.299
G1 F1800 X18.673 Y46.958 E50.32482
G0 F3600 X18.673 Y46.392
G1 F1800 X17.015 Y44.733 E50.44184
G0 F3600 X17.015 Y44.168
G1 F1800 X18.673 Y45.826 E50.55882
G0 F3600 X18.673 Y45.261
G1 F1800 X17.015 Y43.602 E50.67583
G0 F3600 X17.015 Y43.036
G1 F1800 X18.673 Y44.695 E50.79285
G0 F3600 X18.673 Y44.129
G1 F1800 X17.015 Y42.47 E50.90987
G0 F3600 X17.015 Y41.905
G1 F1800 X18.673 Y43.564 E51.02688
G0 F3600 X18.673 Y42.998
G1 F1800 X17.015 Y41.339 E51.1439
G0 F3600 X17.015 Y40.773
G1 F1800 X18.673 Y42.432 E51.26091
G0 F3600 X18.673 Y41.867
G1 F1800 X17.015 Y40.208 E51.37793
G0 F3600 X17.015 Y39.642
G1 F1800 X18.673 Y41.301 E51.49495
G0 F3600 X18.673 Y40.735
G1 F1800 X17.015 Y39.076 E51.61196
G0 F3600 X17.015 Y38.511
G1 F1800 X18.673 Y40.17 E51.72898
G0 F3600 X18.673 Y39.604
G1 F1800 X17.015 Y37.945 E51.84599
G0 F3600 X17.015 Y37.379
G1 F1800 X18.673 Y39.038 E51.96301
G0 F3600 X18.673 Y38.472
G1 F1800 X17.015 Y36.814 E52.07999
G0 F3600 X17.015 Y36.248
G1 F1800 X18.673 Y37.907 E52.19701
G0 F3600 X18.673 Y37.341
G1 F1800 X17.015 Y35.682 E52.31402
G0 F3600 X17.015 Y35.117
G1 F1800 X18.673 Y36.775 E52.431
G0 F3600 X18.673 Y36.21
G1 F1800 X17.015 Y34.551 E52.54802
G0 F3600 X17.015 Y33.985
G1 F1800 X18.673 Y35.644 E52.66504
G0 F3600 X18.673 Y35.078
G1 F1800 X17.015 Y33.419 E52.78205
G0 F3600 X17.015 Y32.854
G1 F1800 X18.673 Y34.513 E52.89907
G0 F3600 X18.673 Y33.947
G1 F1800 X17.015 Y32.288 E53.01609
G0 F3600 X17.015 Y31.722
G1 F1800 X18.673 Y33.381 E53.1331
G0 F3600 X18.673 Y32.816
G1 F1800 X17.015 Y31.157 E53.25012
G0 F3600 X17.015 Y30.591
G1 F1800 X18.673 Y32.25 E53.36713
G0 F3600 X18.673 Y31.684
G1 F1800 X17.015 Y30.025 E53.48415
G0 F3600 X17.015 Y29.46
G1 F1800 X18.673 Y31.119 E53.60117
G0 F3600 X18.673 Y30.553
G1 F1800 X17.015 Y28.894 E53.71818
G0 F3600 X17.015 Y28.328
G1 F1800 X18.673 Y29.987 E53.8352
G0 F3600 X18.673 Y29.422
G1 F1800 X17.015 Y27.763 E53.95221
G0 F3600 X17.015 Y27.197
G1 F1800 X18.673 Y28.856 E54.06923
G0 F3600 X18.673 Y28.29
G1 F1800 X17.015 Y26.631 E54.18625
G0 F3600 X17.015 Y26.066
G1 F1800 X18.673 Y27.724 E54.30323
G0 F3600 X18.673 Y27.159
G1 F1800 X17.015 Y25.5 E54.42024
G0 F3600 X17.015 Y24.934
G1 F1800 X18.673 Y26.593 E54.53726
G0 F3600 X18.673 Y26.027
G1 F1800 X17.015 Y24.369 E54.65424
G0 F3600 X17.015 Y23.803
G1 F1800 X18.673 Y25.462 E54.77126
G0 F3600 X18.673 Y24.896
G1 F1800 X17.015 Y23.237 E54.88827
G0 F3600 X17.015 Y22.671
G1 F1800 X18.673 Y24.33 E55.00529
G0 F3600 X18.673 Y23.765
G1 F1800 X17.015 Y22.106 E55.12231
G0 F3600 X17.015 Y21.54
G1 F1800 X18.673 Y23.199 E55.23932
G0 F3600 X18.673 Y22.633
G1 F1800 X17.015 Y20.974 E55.35634
G0 F3600 X17.015 Y20.409
G1 F1800 X18.673 Y22.068 E55.47335
G0 F3600 X18.673 Y21.502
G1 F1800 X17.015 Y19.843 E55.59037
G0 F3600 X17.015 Y19.277
G1 F1800 X18.673 Y20.936 E55.70739
G0 F3600 X18.673 Y20.371
G1 F1800 X17.015 Y18.712 E55.8244
G0 F3600 X17.015 Y18.146
G1 F1800 X18.673 Y19.805 E55.94142
G0 F3600 X18.673 Y19.239
G1 F1800 X17.015 Y17.58 E56.05843
G0 F3600 X17.015 Y17.015
G1 F1800 X18.673 Y18.673 E56.17542
G0 F3600 X18.673 Y18.108
G1 F1800 X17.015 Y16.449 E56.29243
G0 F3600 X17.114 Y15.983
G1 F1800 X18.673 Y17.542 E56.40243
G0 F3600 X18.673 Y16.976
G1 F1800 X17.68 Y15.983 E56.47249
G0 F3600 X18.246 Y15.983
G1 F1800 X18.673 Y16.411 E56.50265
G0 F3600 X19.216 Y57.444
G0 X19.518 Y57.985
G1 F1800 X21.173 Y59.64 E56.61942
G0 F3600 X21.739 Y59.64
G1 F1800 X20.084 Y57.985 E56.73619
G0 F3600 X20.65 Y57.985
G1 F1800 X22.304 Y59.64 E56.85292
G0 F3600 X22.87 Y59.64
G1 F1800 X21.216 Y57.985 E56.96966
G0 F3600 X21.781 Y57.985
G1 F1800 X23.436 Y59.64 E57.08643
G0 F3600 X24.002 Y59.64
G1 F1800 X22.347 Y57.985 E57.2032
G0 F3600 X22.913 Y57.985
G1 F1800 X24.567 Y59.64 E57.31993
G0 F3600 X25.133 Y59.64
G1 F1800 X23.478 Y57.985 E57.4367
G0 F3600 X24.044 Y57.985
G1 F1800 X25.699 Y59.64 E57.55347
G0 F3600 X26.264 Y59.64
G1 F1800 X24.61 Y57.985 E57.6702
G0 F3600 X25.175 Y57.985
G1 F1800 X26.83 Y59.64 E57.78697
G0 F3600 X27.396 Y59.64
G1 F1800 X25.741 Y57.985 E57.90374
G0 F3600 X26.307 Y57.985
G1 F1800 X27.961 Y59.64 E58.02047
G0 F3600 X28.527 Y59.64
G1 F1800 X26.872 Y57.985 E58.13724
G0 F3600 X27.438 Y57.985
G1 F1800 X28.676 Y59.223 E58.22459
G0 F3600 X28.676 Y58.657
G1 F1800 X28.004 Y57.985 E58.272
G0 F3600 X28.569 Y57.985
G1 F1800 X28.676 Y58.091 E58.27952
G1 F1500 E51.77952
;MESH:A1_Nema17_20mm_20mm.stl(3)
G0 F3600 X29.232 Y57.43
G0 X29.232 Y56.151
G0 X29.232 Y43.047
G0 X29.232 Y41.762
G0 X34.78 Y39.015
G0 X34.822 Y17.712
G0 X34.752 Y17.782
;TYPE:WALL-INNER
G1 F1500 E58.27952
G1 F1800 X24.75 Y17.782 E58.77852
G1 X24.75 Y14.985 E58.91806
G1 X37.55 Y14.985 E59.55666
G1 X37.55 Y83.785 E62.9891
G1 X34.752 Y83.785 E63.1287
G1 X34.752 Y41.782 E65.22423
G1 X24.75 Y41.782 E65.72324
G1 X24.75 Y38.987 E65.86268
G1 X34.752 Y38.987 E66.36168
G1 X34.752 Y17.782 E67.4196
G0 F3600 X34.352 Y18.182
;TYPE:WALL-OUTER
G1 F1800 X24.35 Y18.182 E67.9186
G1 X24.35 Y14.585 E68.09806
G1 X37.95 Y14.585 E68.77657
G1 X37.95 Y84.185 E72.24892
G1 X34.352 Y84.185 E72.42843
G1 X34.352 Y42.182 E74.52397
G1 X24.35 Y42.182 E75.02297
G1 X24.35 Y38.587 E75.20232
G1 X34.352 Y38.587 E75.70133
G1 X34.352 Y18.182 E76.71934
G0 F3600 X34.152 Y18.182
G0 X34.152 Y17.682
G0 X35.142 Y17.392
;TYPE:SKIN
G1 F1800 X25.14 Y17.392 E77.21834
G1 X25.14 Y15.375 E77.31897
G1 X37.16 Y15.375 E77.91865
G1 X37.16 Y83.395 E81.31218
G1 X35.142 Y83.395 E81.41286
G1 X35.142 Y41.392 E83.5084
G1 X25.14 Y41.392 E84.0074
G1 X25.14 Y39.377 E84.10793
G1 X35.142 Y39.377 E84.60693
G1 X35.142 Y17.392 E85.70376
G0 F3600 X36.979 Y16.049
G1 F1800 X36.485 Y15.554 E85.73865
G0 F3600 X35.919 Y15.554
G1 F1800 X36.979 Y16.614 E85.81344
G0 F3600 X36.979 Y17.18
G1 F1800 X35.353 Y15.554 E85.92817
G0 F3600 X34.788 Y15.554
G1 F1800 X36.979 Y17.746 E86.08279
G0 F3600 X36.979 Y18.311
G1 F1800 X34.222 Y15.554 E86.27731
G0 F3600 X33.656 Y15.554
G1 F1800 X35.313 Y17.211 E86.39422
G0 F3600 X35.321 Y17.219
G1 F1800 X36.979 Y18.877 E86.5112
G0 F3600 X36.979 Y19.443
G1 F1800 X35.321 Y17.785 E86.62818
G0 F3600 X35.321 Y18.35
G1 F1800 X36.979 Y20.009 E86.7452
G0 F3600 X36.979 Y20.574
G1 F1800 X35.321 Y18.916 E86.86218
G0 F3600 X35.321 Y19.482
G1 F1800 X36.979 Y21.14 E86.97916
G0 F3600 X36.979 Y21.706
G1 F1800 X35.321 Y20.047 E87.09617
G0 F3600 X35.321 Y20.613
G1 F1800 X36.979 Y22.271 E87.21316
G0 F3600 X36.979 Y22.837
G1 F1800 X35.321 Y21.179 E87.33014
G0 F3600 X35.321 Y21.744
G1 F1800 X36.979 Y23.403 E87.44715
G0 F3600 X36.979 Y23.968
G1 F1800 X35.321 Y22.31 E87.56413
G0 F3600 X35.321 Y22.876
G1 F1800 X36.979 Y24.534 E87.68111
G0 F3600 X36.979 Y25.1
G1 F1800 X35.321 Y23.442 E87.79809
G0 F3600 X35.321 Y24.007
G1 F1800 X36.979 Y25.665 E87.91508
G0 F3600 X36.979 Y26.231
G1 F1800 X35.321 Y24.573 E88.03206
G0 F3600 X35.321 Y25.139
G1 F1800 X36.979 Y26.797 E88.14904
G0 F3600 X36.979 Y27.362
