;FLAVOR:Marlin
;TIME:18852
;Filament used: 21.3844m
;Layer height: 0.2
;MINX:21.8
;MINY:6.8
;MINZ:0.3
;MAXX:128.2
;MAXY:113.2
;MAXZ:39.9
;Generated with Cura_SteamEngine 4.9.0
M140 S60
M105
M190 S60
M104 S200
M105
M109 S200
M82 ;absolute extrusion mode
SET_SKEW  XY=139.22,142.90,100
G28 ;Home
G1 Z15.0 F6000 ;Move the platform down 15mm
;Prime the extruder
G92 E0
G1 F200 E3
G92 E0
G92 E0
G92 E0
G1 F1500 E-6.5
;LAYER_COUNT:199
;LAYER:0
M107
G0 F3600 X22.389 Y10.389 Z0.3
;TYPE:SKIRT
G1 F1500 E0
G1 F1800 X22.655 Y9.88 E0.02865
G1 X22.989 Y9.369 E0.05911
G1 X23.462 Y8.798 E0.0961
G1 X23.821 Y8.441 E0.12136
G1 X24.276 Y8.056 E0.1511
G1 X24.747 Y7.735 E0.17953
G1 X25.268 Y7.446 E0.20926
G1 X25.865 Y7.191 E0.24164
G1 X26.519 Y6.996 E0.27569
G1 X27.013 Y6.897 E0.30083
G1 X27.486 Y6.839 E0.3246
G1 X28.194 Y6.806 E0.35996
G1 X28.656 Y6.8 E0.38301
G1 X121.344 Y6.8 E5.00724
G1 X121.92 Y6.81 E5.03598
G1 X122.514 Y6.839 E5.06565
G1 X123.47 Y6.994 E5.11397
G1 X124.044 Y7.157 E5.14374
G1 X124.611 Y7.389 E5.1743
G1 X125.12 Y7.655 E5.20295
G1 X125.625 Y7.984 E5.23302
G1 X126.201 Y8.461 E5.27033
G1 X126.559 Y8.821 E5.29566
G1 X126.941 Y9.272 E5.32515
G1 X127.257 Y9.734 E5.35307
G1 X127.556 Y10.271 E5.38374
G1 X127.809 Y10.864 E5.4159
G1 X128.004 Y11.519 E5.45
G1 X128.103 Y12.013 E5.47514
G1 X128.161 Y12.486 E5.49891
G1 X128.194 Y13.191 E5.53412
G1 X128.2 Y13.62 E5.55553
G1 X128.2 Y106.344 E10.18155
G1 X128.19 Y106.92 E10.21029
G1 X128.161 Y107.514 E10.23996
G1 X128.006 Y108.471 E10.28832
G1 X127.846 Y109.036 E10.31762
G1 X127.611 Y109.611 E10.34861
G1 X127.353 Y110.105 E10.37641
G1 X127.016 Y110.625 E10.40733
G1 X126.551 Y111.189 E10.4438
G1 X125.937 Y111.775 E10.48614
G1 X125.517 Y112.092 E10.51239
G1 X124.986 Y112.421 E10.54356
G1 X124.424 Y112.695 E10.57475
G1 X123.895 Y112.893 E10.60293
G1 X123.481 Y113.004 E10.62432
G1 X122.987 Y113.103 E10.64945
G1 X122.514 Y113.161 E10.67323
G1 X121.806 Y113.194 E10.70859
G1 X121.344 Y113.2 E10.73164
G1 X28.656 Y113.2 E15.35586
G1 X28.08 Y113.19 E15.3846
G1 X27.486 Y113.161 E15.41427
G1 X26.53 Y113.006 E15.46259
G1 X25.956 Y112.843 E15.49236
G1 X25.389 Y112.611 E15.52292
G1 X24.88 Y112.345 E15.55158
G1 X24.369 Y112.011 E15.58203
G1 X23.798 Y111.538 E15.61903
G1 X23.44 Y111.178 E15.64436
G1 X23.054 Y110.721 E15.6742
G1 X22.741 Y110.263 E15.70188
G1 X22.435 Y109.708 E15.73349
G1 X22.192 Y109.138 E15.76441
G1 X21.996 Y108.481 E15.79861
G1 X21.897 Y107.987 E15.82375
G1 X21.839 Y107.514 E15.84752
G1 X21.806 Y106.806 E15.88288
G1 X21.8 Y106.344 E15.90594
G1 X21.8 Y13.62 E20.53195
G1 X21.81 Y13.08 E20.5589
G1 X21.839 Y12.486 E20.58857
G1 X21.994 Y11.53 E20.63689
G1 X22.157 Y10.956 E20.66666
G1 X22.389 Y10.389 E20.69722
G1 F1500 E14.19722
;MESH:PortaPostit.stl
G0 F3600 X24.341 Y12.822
G0 X25.619 Y13.024
G0 X121.972 Y109.301
G0 X121.976 Y109.4
;TYPE:WALL-INNER
G1 F1500 E20.69722
G1 F1800 X28.024 Y109.4 E25.38451
G1 X27.53 Y109.351 E25.40927
G1 X27.079 Y109.214 E25.43279
G1 X26.67 Y108.995 E25.45593
G1 X26.3 Y108.691 E25.47983
G1 X26.007 Y108.333 E25.50291
G1 X25.786 Y107.921 E25.52623
G1 X25.649 Y107.47 E25.54975
G1 X25.6 Y106.98 E25.57431
G1 X25.6 Y13.024 E30.2618
G1 X25.649 Y12.53 E30.28656
G1 X25.786 Y12.079 E30.31008
G1 X26.007 Y11.667 E30.33341
G1 X26.3 Y11.309 E30.35649
G1 X26.67 Y11.005 E30.38038
G1 X27.079 Y10.786 E30.40352
G1 X27.53 Y10.649 E30.42704
G1 X28.024 Y10.6 E30.45181
G1 X121.976 Y10.6 E35.13909
G1 X122.47 Y10.649 E35.16386
G1 X122.921 Y10.786 E35.18737
G1 X123.333 Y11.007 E35.2107
G1 X123.691 Y11.3 E35.23378
G1 X123.995 Y11.67 E35.25767
G1 X124.214 Y12.079 E35.28081
G1 X124.351 Y12.53 E35.30433
G1 X124.4 Y13.02 E35.3289
G1 X124.4 Y106.976 E40.01638
G1 X124.351 Y107.47 E40.04115
G1 X124.214 Y107.921 E40.06466
G1 X123.993 Y108.333 E40.08799
G1 X123.7 Y108.691 E40.11107
G1 X123.33 Y108.995 E40.13496
G1 X122.921 Y109.214 E40.15811
G1 X122.47 Y109.351 E40.18162
G1 X121.976 Y109.4 E40.20639
G0 F3600 X121.995 Y109.8
;TYPE:WALL-OUTER
G1 F1800 X28.005 Y109.8 E44.89557
G1 X27.45 Y109.745 E44.92339
G1 X26.924 Y109.585 E44.95082
G1 X26.448 Y109.33 E44.97776
G1 X26.018 Y108.977 E45.00552
G1 X25.67 Y108.552 E45.03292
G1 X25.415 Y108.076 E45.05986
G1 X25.255 Y107.55 E45.08729
G1 X25.2 Y107 E45.11487
G1 X25.2 Y13.005 E49.8043
G1 X25.255 Y12.45 E49.83213
G1 X25.415 Y11.924 E49.85955
G1 X25.67 Y11.448 E49.8865
G1 X26.018 Y11.023 E49.9139
G1 X26.448 Y10.67 E49.94166
G1 X26.924 Y10.415 E49.9686
G1 X27.45 Y10.255 E49.99603
G1 X28.005 Y10.2 E50.02385
G1 X121.995 Y10.2 E54.71303
G1 X122.55 Y10.255 E54.74086
G1 X123.076 Y10.415 E54.76828
G1 X123.552 Y10.67 E54.79523
G1 X123.977 Y11.018 E54.82263
G1 X124.33 Y11.448 E54.85039
G1 X124.585 Y11.924 E54.87733
G1 X124.745 Y12.45 E54.90476
G1 X124.8 Y13 E54.93233
G1 X124.8 Y106.995 E59.62176
G1 X124.745 Y107.55 E59.64959
G1 X124.585 Y108.076 E59.67702
G1 X124.33 Y108.552 E59.70396
G1 X123.982 Y108.977 E59.73136
G1 X123.552 Y109.33 E59.75912
G1 X123.076 Y109.585 E59.78606
G1 X122.55 Y109.745 E59.81349
G1 X121.995 Y109.8 E59.84131
G0 F3600 X121.795 Y109.8
G0 X121.957 Y109.01
;TYPE:SKIN
G1 F1800 X28.043 Y109.01 E64.5267
G1 X27.605 Y108.967 E64.54866
G1 X27.226 Y108.852 E64.56842
G1 X26.894 Y108.673 E64.58724
G1 X26.578 Y108.414 E64.60762
G1 X26.333 Y108.114 E64.62694
G1 X26.147 Y107.768 E64.64654
G1 X26.033 Y107.393 E64.6661
G1 X25.99 Y106.961 E64.68775
G1 X25.99 Y13.043 E69.37334
G1 X26.033 Y12.607 E69.3952
G1 X26.147 Y12.232 E69.41475
G1 X26.333 Y11.886 E69.43435
G1 X26.578 Y11.586 E69.45368
G1 X26.894 Y11.327 E69.47406
G1 X27.226 Y11.148 E69.49288
G1 X27.605 Y11.033 E69.51264
G1 X28.043 Y10.99 E69.53459
G1 X121.957 Y10.99 E74.21998
G1 X122.393 Y11.033 E74.24184
G1 X122.768 Y11.147 E74.2614
G1 X123.114 Y11.333 E74.28099
G1 X123.414 Y11.578 E74.30032
G1 X123.673 Y11.894 E74.3207
G1 X123.852 Y12.226 E74.33952
G1 X123.967 Y12.605 E74.35928
G1 X124.01 Y13.034 E74.38079
G1 X124.01 Y106.957 E79.06663
G1 X123.967 Y107.393 E79.08848
G1 X123.853 Y107.768 E79.10804
G1 X123.667 Y108.114 E79.12764
G1 X123.422 Y108.414 E79.14696
G1 X123.106 Y108.673 E79.16734
G1 X122.774 Y108.852 E79.18616
G1 X122.395 Y108.967 E79.20592
G1 X121.957 Y109.01 E79.22788
G0 F3600 X26.399 Y107.857
G1 F1800 X27.143 Y108.602 E79.28041
G1 X27.213 Y108.672
G0 F3600 X27.923 Y108.816
G1 F1800 X26.182 Y107.075 E79.40324
G0 F3600 X26.169 Y106.496
G1 F1800 X28.502 Y108.829 E79.56785
G0 F3600 X29.067 Y108.829
G1 F1800 X26.169 Y105.93 E79.77235
G0 F3600 X26.169 Y105.365
G1 F1800 X29.633 Y108.829 E80.01676
G0 F3600 X30.199 Y108.829
G1 F1800 X26.169 Y104.799 E80.3011
G0 F3600 X26.169 Y104.233
G1 F1800 X30.764 Y108.829 E80.62533
G0 F3600 X31.33 Y108.829
G1 F1800 X26.169 Y103.668 E80.98947
G0 F3600 X26.169 Y103.102
G1 F1800 X31.896 Y108.829 E81.39354
G0 F3600 X32.461 Y108.829
G1 F1800 X26.169 Y102.536 E81.83751
G0 F3600 X26.169 Y101.971
G1 F1800 X33.027 Y108.829 E82.32138
G0 F3600 X33.593 Y108.829
G1 F1800 X26.169 Y101.405 E82.84518
G0 F3600 X26.169 Y100.839
G1 F1800 X34.158 Y108.829 E83.40889
G0 F3600 X34.724 Y108.829
G1 F1800 X26.169 Y100.274 E84.01249
G0 F3600 X26.169 Y99.708
G1 F1800 X35.29 Y108.829 E84.65602
G0 F3600 X35.855 Y108.829
G1 F1800 X26.169 Y99.142 E85.33946
G0 F3600 X26.169 Y98.577
G1 F1800 X36.421 Y108.829 E86.06279
G0 F3600 X36.987 Y108.829
G1 F1800 X26.169 Y98.011 E86.82606
G0 F3600 X26.169 Y97.445
G1 F1800 X37.553 Y108.829 E87.62926
G0 F3600 X38.118 Y108.829
G1 F1800 X26.169 Y96.879 E88.47237
G0 F3600 X26.169 Y96.314
G1 F1800 X38.684 Y108.829 E89.35537
G0 F3600 X39.25 Y108.829
G1 F1800 X26.169 Y95.748 E90.2783
G0 F3600 X26.169 Y95.182
G1 F1800 X39.815 Y108.829 E91.24114
G0 F3600 X40.381 Y108.829
G1 F1800 X26.169 Y94.617 E92.24387
G0 F3600 X26.169 Y94.051
G1 F1800 X40.947 Y108.829 E93.28654
G0 F3600 X41.512 Y108.829
G1 F1800 X26.169 Y93.485 E94.3691
G0 F3600 X26.169 Y92.92
G1 F1800 X42.078 Y108.829 E95.49157
G0 F3600 X42.644 Y108.829
G1 F1800 X26.169 Y92.354 E96.65397
G0 F3600 X26.169 Y91.788
G1 F1800 X43.209 Y108.829 E97.85627
G0 F3600 X43.775 Y108.829
G1 F1800 X26.169 Y91.223 E99.09847
G0 F3600 X26.169 Y90.657
G1 F1800 X44.341 Y108.829 E100.3806
G0 F3600 X44.906 Y108.829
G1 F1800 X26.169 Y90.091 E101.70263
G0 F3600 X26.169 Y89.526
G1 F1800 X45.472 Y108.829 E103.06456
G0 F3600 X46.038 Y108.829
G1 F1800 X26.169 Y88.96 E104.46643
G0 F3600 X26.169 Y88.394
G1 F1800 X46.603 Y108.829 E105.90819
G0 F3600 X47.169 Y108.829
G1 F1800 X26.169 Y87.829 E107.38986
G0 F3600 X26.169 Y87.263
G1 F1800 X47.735 Y108.829 E108.91145
G0 F3600 X48.301 Y108.829
G1 F1800 X26.169 Y86.697 E110.47299
G0 F3600 X26.169 Y86.131
G1 F1800 X48.866 Y108.829 E112.07442
G0 F3600 X49.432 Y108.829
G1 F1800 X26.169 Y85.566 E113.71575
G0 F3600 X26.169 Y85
G1 F1800 X49.998 Y108.829 E115.39701
G0 F3600 X50.563 Y108.829
G1 F1800 X26.169 Y84.434 E117.11818
G0 F3600 X26.169 Y83.869
G1 F1800 X51.129 Y108.829 E118.87924
G0 F3600 X51.695 Y108.829
G1 F1800 X26.169 Y83.303 E120.68024
G0 F3600 X26.169 Y82.737
G1 F1800 X52.26 Y108.829 E122.52113
G0 F3600 X52.826 Y108.829
G1 F1800 X26.169 Y82.172 E124.40193
G0 F3600 X26.169 Y81.606
G1 F1800 X53.392 Y108.829 E126.32266
G0 F3600 X53.957 Y108.829
G1 F1800 X26.169 Y81.04 E128.28329
G0 F3600 X26.169 Y80.475
G1 F1800 X54.523 Y108.829 E130.28381
G0 F3600 X55.089 Y108.829
G1 F1800 X26.169 Y79.909 E132.32428
G0 F3600 X26.169 Y79.343
G1 F1800 X55.654 Y108.829 E134.40464
G0 F3600 X56.22 Y108.829
G1 F1800 X26.169 Y78.778 E136.5249
G0 F3600 X26.169 Y78.212
G1 F1800 X56.786 Y108.829 E138.68509
G0 F3600 X57.352 Y108.829
G1 F1800 X26.169 Y77.646 E140.88522
G0 F3600 X26.169 Y77.081
G1 F1800 X57.917 Y108.829 E143.12521
G0 F3600 X58.483 Y108.829
G1 F1800 X26.169 Y76.515 E145.40514
G0 F3600 X26.169 Y75.949
G1 F1800 X59.049 Y108.829 E147.725
G0 F3600 X59.614 Y108.829
G1 F1800 X26.169 Y75.383 E150.08476
G0 F3600 X26.169 Y74.818
G1 F1800 X60.18 Y108.829 E152.48442
G0 F3600 X60.746 Y108.829
G1 F1800 X26.169 Y74.252 E154.92402
G0 F3600 X26.169 Y73.686
G1 F1800 X61.311 Y108.829 E157.40351
G0 F3600 X61.877 Y108.829
G1 F1800 X26.169 Y73.121 E159.9229
G0 F3600 X26.169 Y72.555
G1 F1800 X62.443 Y108.829 E162.48223
G0 F3600 X63.008 Y108.829
G1 F1800 X26.169 Y71.989 E165.08145
G0 F3600 X26.169 Y71.424
G1 F1800 X63.574 Y108.829 E167.72058
G0 F3600 X64.14 Y108.829
G1 F1800 X26.169 Y70.858 E170.39964
G0 F3600 X26.169 Y70.292
G1 F1800 X64.705 Y108.829 E173.1186
G0 F3600 X65.271 Y108.829
G1 F1800 X26.169 Y69.727 E175.87745
G0 F3600 X26.169 Y69.161
G1 F1800 X65.837 Y108.829 E178.67625
G0 F3600 X66.402 Y108.829
G1 F1800 X26.169 Y68.595 E181.51494
G0 F3600 X26.169 Y68.03
G1 F1800 X66.968 Y108.829 E184.39353
G0 F3600 X67.534 Y108.829
G1 F1800 X26.169 Y67.464 E187.31205
G0 F3600 X26.169 Y66.898
G1 F1800 X68.1 Y108.829 E190.27051
G0 F3600 X68.665 Y108.829
G1 F1800 X26.169 Y66.332 E193.26887
G0 F3600 X26.169 Y65.767
G1 F1800 X69.231 Y108.829 E196.30712
G0 F3600 X69.797 Y108.829
G1 F1800 X26.169 Y65.201 E199.38531
G0 F3600 X26.169 Y64.635
G1 F1800 X70.362 Y108.829 E202.5034
G0 F3600 X70.928 Y108.829
G1 F1800 X26.169 Y64.07 E205.66139
G0 F3600 X26.169 Y63.504
G1 F1800 X71.494 Y108.829 E208.85932
G0 F3600 X72.059 Y108.829
G1 F1800 X26.169 Y62.938 E212.09714
G0 F3600 X26.169 Y62.373
G1 F1800 X72.625 Y108.829 E215.37486
G0 F3600 X73.191 Y108.829
G1 F1800 X26.169 Y61.807 E218.69252
G0 F3600 X26.169 Y61.241
G1 F1800 X73.756 Y108.829 E222.05007
G0 F3600 X74.322 Y108.829
G1 F1800 X26.169 Y60.676 E225.44753
G0 F3600 X26.169 Y60.11
G1 F1800 X74.888 Y108.829 E228.88492
G0 F3600 X75.453 Y108.829
G1 F1800 X26.169 Y59.544 E232.3622
G0 F3600 X26.169 Y58.979
G1 F1800 X76.019 Y108.829 E235.87939
G0 F3600 X76.585 Y108.829
G1 F1800 X26.169 Y58.413 E239.43651
G0 F3600 X26.169 Y57.847
G1 F1800 X77.151 Y108.829 E243.03357
G0 F3600 X77.716 Y108.829
G1 F1800 X26.169 Y57.282 E246.67049
G0 F3600 X26.169 Y56.716
G1 F1800 X78.282 Y108.829 E250.34734
G0 F3600 X78.848 Y108.829
G1 F1800 X26.169 Y56.15 E254.06413
G0 F3600 X26.169 Y55.584
G1 F1800 X79.413 Y108.829 E257.82081
G0 F3600 X79.979 Y108.829
G1 F1800 X26.169 Y55.019 E261.6174
G0 F3600 X26.169 Y54.453
G1 F1800 X80.545 Y108.829 E265.45392
G0 F3600 X81.11 Y108.829
G1 F1800 X26.169 Y53.887 E269.33034
G0 F3600 X26.169 Y53.322
G1 F1800 X81.676 Y108.829 E273.24666
G0 F3600 X82.242 Y108.829
G1 F1800 X26.169 Y52.756 E277.20291
G0 F3600 X26.169 Y52.19
G1 F1800 X82.807 Y108.829 E281.19906
G0 F3600 X83.373 Y108.829
G1 F1800 X26.169 Y51.625 E285.23512
G0 F3600 X26.169 Y51.059
G1 F1800 X83.939 Y108.829 E289.3111
G0 F3600 X84.504 Y108.829
G1 F1800 X26.169 Y50.493 E293.42699
G0 F3600 X26.169 Y49.928
G1 F1800 X85.07 Y108.829 E297.58277
G0 F3600 X85.636 Y108.829
G1 F1800 X26.169 Y49.362 E301.77849
G0 F3600 X26.169 Y48.796
G1 F1800 X86.201 Y108.829 E306.0141
G0 F3600 X86.767 Y108.829
G1 F1800 X26.169 Y48.231 E310.28962
G0 F3600 X26.169 Y47.665
G1 F1800 X87.333 Y108.829 E314.60507
G0 F3600 X87.899 Y108.829
G1 F1800 X26.169 Y47.099 E318.96046
G0 F3600 X26.169 Y46.533
G1 F1800 X88.464 Y108.829 E323.35574
G0 F3600 X89.03 Y108.829
G1 F1800 X26.169 Y45.968 E327.79092
G0 F3600 X26.169 Y45.402
G1 F1800 X89.596 Y108.829 E332.26604
G0 F3600 X90.161 Y108.829
G1 F1800 X26.169 Y44.836 E336.78106
G0 F3600 X26.169 Y44.271
G1 F1800 X90.727 Y108.829 E341.33597
G0 F3600 X91.293 Y108.829
G1 F1800 X26.169 Y43.705 E345.93082
G0 F3600 X26.169 Y43.139
G1 F1800 X91.858 Y108.829 E350.56557
G0 F3600 X92.424 Y108.829
G1 F1800 X26.169 Y42.574 E355.24022
G0 F3600 X26.169 Y42.008
G1 F1800 X92.99 Y108.829 E359.9548
G0 F3600 X93.555 Y108.829
G1 F1800 X26.169 Y41.442 E364.70928
G0 F3600 X26.169 Y40.877
G1 F1800 X94.121 Y108.829 E369.50366
G0 F3600 X94.687 Y108.829
G1 F1800 X26.169 Y40.311 E374.33798
G0 F3600 X26.169 Y39.745
G1 F1800 X95.252 Y108.829 E379.21219
G0 F3600 X95.818 Y108.829
G1 F1800 X26.169 Y39.18 E384.12631
G0 F3600 X26.169 Y38.614
G1 F1800 X96.384 Y108.829 E389.08035
G0 F3600 X96.949 Y108.829
G1 F1800 X26.169 Y38.048 E394.0743
G0 F3600 X26.169 Y37.483
G1 F1800 X97.515 Y108.829 E399.10815
G0 F3600 X98.081 Y108.829
G1 F1800 X26.169 Y36.917 E404.18193
G0 F3600 X26.169 Y36.351
G1 F1800 X98.647 Y108.829 E409.29564
G0 F3600 X99.212 Y108.829
G1 F1800 X26.169 Y35.785 E414.44925
G0 F3600 X26.169 Y35.22
G1 F1800 X99.778 Y108.829 E419.64277
G0 F3600 X100.344 Y108.829
G1 F1800 X26.169 Y34.654 E424.87621
G0 F3600 X26.169 Y34.088
G1 F1800 X100.909 Y108.829 E430.14956
G0 F3600 X101.475 Y108.829
G1 F1800 X26.169 Y33.523 E435.4628
G0 F3600 X26.169 Y32.957
G1 F1800 X102.041 Y108.829 E440.81598
G0 F3600 X102.606 Y108.829
G1 F1800 X26.169 Y32.391 E446.20906
G0 F3600 X26.169 Y31.826
G1 F1800 X103.172 Y108.829 E451.64204
G0 F3600 X103.738 Y108.829
G1 F1800 X26.169 Y31.26 E457.11495
G0 F3600 X26.169 Y30.694
G1 F1800 X104.303 Y108.829 E462.62776
G0 F3600 X104.869 Y108.829
G1 F1800 X26.169 Y30.129 E468.18047
G0 F3600 X26.169 Y29.563
G1 F1800 X105.435 Y108.829 E473.77312
G0 F3600 X106 Y108.829
G1 F1800 X26.169 Y28.997 E479.40566
G0 F3600 X26.169 Y28.432
G1 F1800 X106.566 Y108.829 E485.0781
G0 F3600 X107.132 Y108.829
G1 F1800 X26.169 Y27.866 E490.79048
G0 F3600 X26.169 Y27.3
G1 F1800 X107.698 Y108.829 E496.54279
G0 F3600 X108.263 Y108.829
G1 F1800 X26.169 Y26.735 E502.33497
G0 F3600 X26.169 Y26.169
G1 F1800 X108.829 Y108.829 E508.16708
G0 F3600 X109.395 Y108.829
G1 F1800 X26.169 Y25.603 E514.03912
G0 F3600 X26.169 Y25.037
G1 F1800 X109.96 Y108.829 E519.95106
G0 F3600 X110.526 Y108.829
G1 F1800 X26.169 Y24.472 E525.90291
G0 F3600 X26.169 Y23.906
G1 F1800 X111.092 Y108.829 E531.89468
G0 F3600 X111.657 Y108.829
G1 F1800 X26.169 Y23.34 E537.92636
G0 F3600 X26.169 Y22.775
G1 F1800 X112.223 Y108.829 E543.99793
G0 F3600 X112.789 Y108.829
G1 F1800 X26.169 Y22.209 E550.10944
G0 F3600 X26.169 Y21.643
G1 F1800 X113.354 Y108.829 E556.26085
G0 F3600 X113.92 Y108.829
G1 F1800 X26.169 Y21.078 E562.45215
G0 F3600 X26.169 Y20.512
G1 F1800 X114.486 Y108.829 E568.6834
G0 F3600 X115.051 Y108.829
G1 F1800 X26.169 Y19.946 E574.95454
G0 F3600 X26.169 Y19.381
G1 F1800 X115.617 Y108.829 E581.26558
G0 F3600 X116.183 Y108.829
G1 F1800 X26.169 Y18.815 E587.61655
G0 F3600 X26.169 Y18.249
G1 F1800 X116.748 Y108.829 E594.00742
G0 F3600 X117.314 Y108.829
G1 F1800 X26.169 Y17.684 E600.4382
