;Generated with Cura_SteamEngine 15.01
; Default start code
G28 ; Home extruder
G1 Z15 F500
M107 ; Turn off fan
G90 ; Absolute positioning
M82 ; Extruder in absolute mode
M190 S50
; Activate all used extruder
M104 T0 S195
G92 E0 ; Reset extruder position
; Wait for all used extruders to reach temperature
M109 T0 S195
;Layer count: 50
;LAYER:0
M107
G0 F5400 X33.527 Y15.574 Z0.300
;TYPE:SKIRT
G1 F1800 X33.267 Y16.126 E0.03037
G1 X33.060 Y16.702 E0.06083
G1 X32.913 Y17.286 E0.09079
G1 X32.827 Y17.874 E0.12037
G1 X32.794 Y18.502 E0.15166
G1 X32.824 Y19.110 E0.18196
G1 X32.910 Y19.695 E0.21138
G1 X33.059 Y20.292 E0.24201
G1 X33.266 Y20.871 E0.27261
G1 X33.527 Y21.425 E0.30308
G1 X33.832 Y21.934 E0.33261
G1 X34.192 Y22.422 E0.36279
G1 X34.613 Y22.890 E0.39412
G1 X35.068 Y23.301 E0.42463
G1 X35.534 Y23.645 E0.45346
G1 X36.068 Y23.967 E0.48449
G1 X36.630 Y24.235 E0.51547
G1 X37.184 Y24.433 E0.54475
G1 X37.783 Y24.584 E0.57549
G1 X38.379 Y24.673 E0.60548
G1 X39.012 Y24.704 E0.63702
G1 X39.612 Y24.675 E0.66692
G1 X40.202 Y24.587 E0.69660
G1 X40.809 Y24.435 E0.72774
G1 X41.356 Y24.240 E0.75664
G1 X41.921 Y23.973 E0.78774
G1 X42.455 Y23.653 E0.81872
G1 X42.934 Y23.298 E0.84839
G1 X43.388 Y22.888 E0.87884
G1 X43.801 Y22.431 E0.90949
G1 X44.151 Y21.957 E0.93881
G1 X44.470 Y21.428 E0.96956
G1 X44.729 Y20.879 E0.99976
G1 X44.938 Y20.300 E1.03040
G1 X45.082 Y19.725 E1.05990
G1 X45.175 Y19.104 E1.09115
G1 X45.204 Y18.500 E1.12124
G1 X45.175 Y17.896 E1.15133
G1 X45.086 Y17.296 E1.18152
G1 X44.943 Y16.717 E1.21120
G1 X44.736 Y16.137 E1.24185
G1 X44.471 Y15.574 E1.27281
G1 X44.164 Y15.061 E1.30256
G1 X43.797 Y14.563 E1.33335
G1 X43.394 Y14.118 E1.36323
G1 X42.939 Y13.706 E1.39377
G1 X42.453 Y13.345 E1.42390
G1 X41.928 Y13.029 E1.45440
G1 X41.388 Y12.774 E1.48412
G1 X40.797 Y12.561 E1.51538
G1 X40.223 Y12.417 E1.54483
G1 X39.610 Y12.325 E1.57568
G1 X39.000 Y12.294 E1.60607
G1 X38.403 Y12.324 E1.63582
G1 X37.788 Y12.414 E1.66675
G1 X37.213 Y12.558 E1.69625
G1 X36.624 Y12.768 E1.72737
G1 X36.093 Y13.019 E1.75660
G1 X35.546 Y13.345 E1.78829
G1 X35.079 Y13.691 E1.81721
G1 X34.607 Y14.116 E1.84882
G1 X34.211 Y14.553 E1.87817
G1 X33.842 Y15.050 E1.90898
G1 X33.527 Y15.574 E1.93940
G0 F5400 X33.177 Y15.380
G1 F1800 X32.899 Y15.973 E1.97199
G1 X32.676 Y16.591 E2.00469
G1 X32.521 Y17.211 E2.03650
G1 X32.429 Y17.838 E2.06803
G1 X32.394 Y18.502 E2.10112
G1 X32.426 Y19.146 E2.13321
G1 X32.517 Y19.767 E2.16445
G1 X32.678 Y20.412 E2.19753
G1 X32.896 Y21.023 E2.22981
G1 X33.175 Y21.615 E2.26238
G1 X33.499 Y22.154 E2.29368
G1 X33.889 Y22.683 E2.32639
G1 X34.325 Y23.167 E2.35880
G1 X34.813 Y23.608 E2.39154
G1 X35.314 Y23.979 E2.42256
G1 X35.876 Y24.317 E2.45520
G1 X36.470 Y24.600 E2.48794
G1 X37.078 Y24.818 E2.52009
G1 X37.706 Y24.976 E2.55231
G1 X38.341 Y25.071 E2.58427
G1 X39.012 Y25.104 E2.61770
G1 X39.640 Y25.074 E2.64899
G1 X40.296 Y24.976 E2.68200
G1 X40.908 Y24.823 E2.71339
G1 X41.520 Y24.604 E2.74574
G1 X42.111 Y24.325 E2.77826
G1 X42.664 Y23.994 E2.81033
G1 X43.190 Y23.605 E2.84289
G1 X43.670 Y23.170 E2.87513
G1 X44.108 Y22.686 E2.90761
G1 X44.476 Y22.189 E2.93839
G1 X44.827 Y21.607 E2.97221
G1 X45.094 Y21.042 E3.00331
G1 X45.320 Y20.418 E3.03634
G1 X45.475 Y19.795 E3.06829
G1 X45.574 Y19.138 E3.10135
G1 X45.604 Y18.492 E3.13354
G1 X45.573 Y17.851 E3.16547
G1 X45.480 Y17.225 E3.19697
G1 X45.324 Y16.598 E3.22912
G1 X45.106 Y15.986 E3.26145
G1 X44.822 Y15.381 E3.29471
G1 X44.500 Y14.845 E3.32583
G1 X44.104 Y14.307 E3.35908
G1 X43.682 Y13.841 E3.39036
G1 X43.190 Y13.395 E3.42341
G1 X42.683 Y13.019 E3.45482
G1 X42.107 Y12.672 E3.48829
G1 X41.536 Y12.403 E3.51970
G1 X40.919 Y12.180 E3.55235
G1 X40.307 Y12.027 E3.58374
G1 X39.638 Y11.926 E3.61741
G1 X39.000 Y11.894 E3.64920
G1 X38.367 Y11.926 E3.68074
G1 X37.713 Y12.021 E3.71363
G1 X37.095 Y12.176 E3.74534
G1 X36.473 Y12.398 E3.77821
G1 X35.900 Y12.669 E3.80975
G1 X35.331 Y13.008 E3.84271
G1 X34.816 Y13.390 E3.87462
G1 X34.330 Y13.828 E3.90718
G1 X33.904 Y14.297 E3.93871
G1 X33.507 Y14.832 E3.97187
G1 X33.177 Y15.380 E4.00370
G0 F5400 X32.821 Y15.198
G1 F1800 X32.531 Y15.816 E4.03767
G1 X32.295 Y16.470 E4.07227
G1 X32.128 Y17.135 E4.10640
G1 X32.032 Y17.791 E4.13939
G1 X31.995 Y18.501 E4.17477
G1 X32.029 Y19.193 E4.20925
G1 X32.126 Y19.852 E4.24240
G1 X32.290 Y20.511 E4.27620
G1 X32.530 Y21.183 E4.31171
G1 X32.822 Y21.801 E4.34572
G1 X33.169 Y22.380 E4.37931
G1 X33.575 Y22.931 E4.41338
G1 X34.043 Y23.449 E4.44812
G1 X34.557 Y23.914 E4.48261
G1 X35.102 Y24.317 E4.51634
G1 X35.684 Y24.668 E4.55017
G1 X36.321 Y24.971 E4.58527
G1 X36.949 Y25.196 E4.61847
G1 X37.639 Y25.370 E4.65388
G1 X38.293 Y25.467 E4.68678
G1 X39.011 Y25.503 E4.72256
G1 X39.689 Y25.470 E4.75634
G1 X40.367 Y25.369 E4.79045
G1 X41.031 Y25.203 E4.82452
G1 X41.669 Y24.975 E4.85823
G1 X42.297 Y24.679 E4.89278
G1 X42.886 Y24.326 E4.92696
G1 X43.437 Y23.919 E4.96105
G1 X43.953 Y23.453 E4.99565
G1 X44.414 Y22.942 E5.02990
G1 X44.814 Y22.402 E5.06334
G1 X45.180 Y21.794 E5.09866
G1 X45.465 Y21.192 E5.13180
G1 X45.703 Y20.533 E5.16667
G1 X45.864 Y19.888 E5.19975
G1 X45.970 Y19.185 E5.23514
G1 X46.003 Y18.500 E5.26926
G1 X45.970 Y17.809 E5.30369
G1 X45.873 Y17.154 E5.33664
G1 X45.705 Y16.478 E5.37131
G1 X45.474 Y15.831 E5.40550
G1 X45.178 Y15.200 E5.44018
G1 X44.831 Y14.621 E5.47377
G1 X44.413 Y14.054 E5.50883
G1 X43.959 Y13.553 E5.54248
G1 X43.446 Y13.088 E5.57693
G1 X42.903 Y12.686 E5.61056
G1 X42.294 Y12.319 E5.64594
G1 X41.698 Y12.037 E5.67875
G1 X41.031 Y11.797 E5.71403
G1 X40.381 Y11.634 E5.74738
G1 X39.687 Y11.530 E5.78230
G1 X38.999 Y11.495 E5.81659
G1 X38.331 Y11.529 E5.84987
G1 X37.628 Y11.631 E5.88522
G1 X36.978 Y11.795 E5.91859
G1 X36.318 Y12.029 E5.95343
G1 X35.715 Y12.314 E5.98663
G1 X35.110 Y12.675 E6.02169
G1 X34.566 Y13.078 E6.05538
G1 X34.049 Y13.544 E6.09002
G1 X33.594 Y14.046 E6.12373
G1 X33.173 Y14.613 E6.15888
G1 X32.821 Y15.198 E6.19285
G0 F5400 X32.470 Y15.007
G1 F1800 X32.164 Y15.659 E6.22870
G1 X31.912 Y16.357 E6.26563
G1 X31.738 Y17.051 E6.30123
G1 X31.633 Y17.765 E6.33715
G1 X31.595 Y18.501 E6.37382
G1 X31.630 Y19.219 E6.40960
G1 X31.735 Y19.932 E6.44546
G1 X31.910 Y20.634 E6.48147
G1 X32.159 Y21.331 E6.51830
G1 X32.468 Y21.987 E6.55439
G1 X32.837 Y22.602 E6.59008
G1 X33.268 Y23.186 E6.62620
G1 X33.759 Y23.731 E6.66271
G1 X34.301 Y24.222 E6.69910
G1 X34.882 Y24.651 E6.73504
G1 X35.489 Y25.016 E6.77029
G1 X36.173 Y25.343 E6.80802
G1 X36.833 Y25.578 E6.84289
G1 X37.551 Y25.760 E6.87975
G1 X38.266 Y25.866 E6.91572
G1 X39.003 Y25.902 E6.95244
G1 X39.018 Y25.902 E6.95319
G1 X39.727 Y25.868 E6.98851
G1 X40.441 Y25.762 E7.02443
G1 X41.149 Y25.585 E7.06075
G1 X41.816 Y25.347 E7.09600
G1 X42.491 Y25.028 E7.13315
G1 X43.109 Y24.658 E7.16900
G1 X43.698 Y24.222 E7.20546
G1 X44.235 Y23.735 E7.24154
G1 X44.722 Y23.198 E7.27762
G1 X45.148 Y22.622 E7.31327
G1 X45.527 Y21.992 E7.34986
G1 X45.835 Y21.341 E7.38570
G1 X46.085 Y20.648 E7.42236
G1 X46.258 Y19.958 E7.45776
G1 X46.368 Y19.225 E7.49465
G1 X46.403 Y18.500 E7.53077
G1 X46.369 Y17.783 E7.56649
G1 X46.262 Y17.062 E7.60277
G1 X46.090 Y16.368 E7.63835
G1 X45.844 Y15.680 E7.67471
G1 X45.530 Y15.010 E7.71153
G1 X45.164 Y14.400 E7.74694
G1 X44.725 Y13.804 E7.78377
G1 X44.246 Y13.276 E7.81925
G1 X43.691 Y12.773 E7.85653
G1 X43.129 Y12.356 E7.89135
G1 X42.492 Y11.972 E7.92837
G1 X41.847 Y11.667 E7.96388
G1 X41.144 Y11.414 E8.00106
G1 X40.455 Y11.241 E8.03641
G1 X39.726 Y11.132 E8.07309
G1 X39.000 Y11.095 E8.10927
G1 X38.295 Y11.130 E8.14440
G1 X37.552 Y11.239 E8.18177
G1 X36.860 Y11.413 E8.21728
G1 X36.175 Y11.656 E8.25345
G1 X35.522 Y11.965 E8.28940
G1 X34.881 Y12.347 E8.32654
G1 X34.315 Y12.767 E8.36161
G1 X33.767 Y13.261 E8.39833
G1 X33.283 Y13.795 E8.43419
G1 X32.842 Y14.388 E8.47097
G1 X32.470 Y15.007 E8.50691
G0 F5400 X32.114 Y14.826
G1 F1800 X31.789 Y15.518 E8.54496
G1 X31.532 Y16.233 E8.58277
G1 X31.346 Y16.975 E8.62084
G1 X31.237 Y17.716 E8.65811
G1 X31.196 Y18.500 E8.69718
G1 X31.234 Y19.266 E8.73535
G1 X31.343 Y20.009 E8.77272
G1 X31.528 Y20.752 E8.81082
G1 X31.789 Y21.482 E8.84940
G1 X32.117 Y22.177 E8.88765
G1 X32.505 Y22.823 E8.92515
G1 X32.956 Y23.436 E8.96302
G1 X33.481 Y24.018 E9.00203
G1 X34.050 Y24.533 E9.04022
G1 X34.644 Y24.972 E9.07698
G1 X35.310 Y25.373 E9.11567
G1 X36.021 Y25.712 E9.15487
G1 X36.715 Y25.960 E9.19154
G1 X37.477 Y26.153 E9.23066
G1 X38.217 Y26.262 E9.26789
G1 X38.994 Y26.301 E9.30660
G1 X39.011 Y26.302 E9.30745
G1 X39.766 Y26.265 E9.34507
G1 X40.525 Y26.152 E9.38326
G1 X41.267 Y25.967 E9.42131
G1 X41.967 Y25.717 E9.45830
G1 X42.677 Y25.381 E9.49739
G1 X43.334 Y24.988 E9.53549
G1 X43.338 Y24.984 E9.53577
G1 X43.949 Y24.533 E9.57357
G1 X44.518 Y24.018 E9.61176
G1 X45.036 Y23.445 E9.65020
G1 X45.478 Y22.847 E9.68721
G1 X45.880 Y22.179 E9.72601
G1 X46.201 Y21.500 E9.76338
G1 X46.468 Y20.764 E9.80235
G1 X46.648 Y20.042 E9.83938
G1 X46.766 Y19.264 E9.87854
G1 X46.802 Y18.500 E9.91660
G1 X46.765 Y17.729 E9.95501
G1 X46.654 Y16.987 E9.99235
G1 X46.471 Y16.248 E10.03024
G1 X46.216 Y15.533 E10.06801
G1 X45.881 Y14.821 E10.10717
G1 X45.494 Y14.176 E10.14461
G1 X45.033 Y13.549 E10.18334
G1 X44.529 Y12.994 E10.22064
G1 X43.945 Y12.464 E10.25989
G1 X43.347 Y12.021 E10.29693
G1 X42.679 Y11.619 E10.33573
G1 X41.997 Y11.296 E10.37328
G1 X41.266 Y11.033 E10.41194
G1 X40.542 Y10.851 E10.44909
G1 X39.764 Y10.735 E10.48824
G1 X39.000 Y10.696 E10.52631
G1 X38.249 Y10.734 E10.56373
G1 X37.474 Y10.847 E10.60271
G1 X36.748 Y11.029 E10.63995
G1 X36.017 Y11.289 E10.67857
G1 X35.337 Y11.611 E10.71601
G1 X34.662 Y12.013 E10.75511
G1 X34.063 Y12.457 E10.79221
G1 X33.480 Y12.983 E10.83129
G1 X32.981 Y13.533 E10.86825
G1 X32.513 Y14.163 E10.90730
G1 X32.114 Y14.826 E10.94581
G0 F5400 X27.522 Y14.374
G1 F1800 X27.948 Y13.330 E11.00193
G1 X28.537 Y12.219 E11.06450
G1 X29.239 Y11.177 E11.12703
G1 X30.044 Y10.213 E11.18953
G1 X30.923 Y9.354 E11.25069
G1 X31.906 Y8.574 E11.31314
G1 X32.965 Y7.897 E11.37569
G1 X34.088 Y7.333 E11.43823
G1 X35.262 Y6.887 E11.50073
G1 X36.461 Y6.569 E11.56246
G1 X36.498 Y6.558 E11.56438
G1 X37.717 Y6.370 E11.62577
G1 X38.961 Y6.303 E11.68776
G1 X38.961 Y6.304 E11.68781
G1 X38.994 Y6.301 E11.68946
G1 X40.226 Y6.364 E11.75085
G1 X41.466 Y6.554 E11.81328
G1 X42.681 Y6.871 E11.87577
G1 X43.882 Y7.320 E11.93958
G1 X45.006 Y7.883 E12.00214
G1 X46.066 Y8.558 E12.06468
G1 X47.005 Y9.301 E12.12427
G1 X77.197 Y9.301 E13.62679
G1 X77.197 Y15.302 E13.92543
G1 X77.247 Y15.302 E13.92792
G1 X77.678 Y18.030 E14.06536
G1 X79.055 Y20.731 E14.21624
G1 X79.056 Y20.731 E14.21629
G1 X79.070 Y20.759 E14.21785
G1 X81.242 Y22.930 E14.37068
G1 X83.943 Y24.307 E14.52155
G1 X83.970 Y24.321 E14.52307
G1 X86.954 Y24.792 E14.67341
G1 X96.199 Y24.802 E15.13349
G1 X96.199 Y54.699 E16.62133
G1 X31.801 Y54.699 E19.82612
G1 X31.801 Y28.334 E21.13819
G1 X31.434 Y28.074 E21.16057
G1 X30.501 Y27.256 E21.22232
G1 X29.645 Y26.335 E21.28490
G1 X28.875 Y25.312 E21.34862
G1 X28.227 Y24.235 E21.41117
G1 X27.694 Y23.097 E21.47370
G1 X27.531 Y22.627 E21.49846
G1 X26.701 Y22.496 E21.54028
G1 X25.580 Y21.925 E21.60288
G1 X25.529 Y21.898 E21.60576
G1 X24.600 Y20.969 E21.67114
G1 X24.030 Y19.849 E21.73368
G1 X24.004 Y19.799 E21.73648
G1 X23.799 Y18.500 E21.80193
G1 X24.003 Y17.201 E21.86737
G1 X24.600 Y16.031 E21.93273
G1 X25.530 Y15.100 E21.99822
G1 X26.701 Y14.503 E22.06363
G1 X27.522 Y14.374 E22.10499
G0 F5400 X27.237 Y14.015
G1 F1800 X27.586 Y13.160 E22.15095
G1 X28.195 Y12.014 E22.21553
G1 X28.919 Y10.937 E22.28012
G1 X29.750 Y9.941 E22.34467
G1 X30.659 Y9.055 E22.40784
G1 X31.674 Y8.249 E22.47234
G1 X32.768 Y7.550 E22.53695
G1 X33.927 Y6.967 E22.60151
G1 X35.140 Y6.507 E22.66607
G1 X36.364 Y6.182 E22.72910
G1 X36.411 Y6.168 E22.73154
G1 X37.676 Y5.972 E22.79524
G1 X38.930 Y5.906 E22.85773
G1 X38.988 Y5.901 E22.86063
G1 X40.267 Y5.966 E22.92436
G1 X41.547 Y6.163 E22.98881
G1 X42.802 Y6.490 E23.05335
G1 X44.041 Y6.954 E23.11919
G1 X45.203 Y7.535 E23.18385
G1 X46.297 Y8.232 E23.24840
G1 X47.143 Y8.902 E23.30211
G1 X77.596 Y8.902 E24.81762
G1 X77.596 Y14.954 E25.11880
G1 X78.062 Y17.902 E25.26733
G1 X79.397 Y20.522 E25.41366
G1 X81.477 Y22.601 E25.56002
G1 X84.095 Y23.937 E25.70629
G1 X86.985 Y24.393 E25.85189
G1 X96.598 Y24.404 E26.33028
G1 X96.598 Y85.596 E29.37553
G1 X87.201 Y85.596 E29.84318
G1 X86.994 Y85.604 E29.85349
G1 X84.096 Y86.062 E29.99950
G1 X81.478 Y87.396 E30.14572
G1 X79.398 Y89.477 E30.29215
G1 X78.062 Y92.095 E30.43842
G1 X77.676 Y94.544 E30.56180
G1 X77.596 Y95.004 E30.58503
G1 X77.596 Y101.098 E30.88830
G1 X47.126 Y101.111 E32.40466
G1 X46.318 Y101.751 E32.45595
G1 X45.225 Y102.449 E32.52049
G1 X44.066 Y103.032 E32.58506
G1 X42.852 Y103.492 E32.64966
G1 X41.628 Y103.817 E32.71269
G1 X41.581 Y103.831 E32.71513
G1 X40.318 Y104.028 E32.77874
G1 X39.064 Y104.094 E32.84123
G1 X39.005 Y104.099 E32.84418
G1 X37.701 Y104.032 E32.90916
G1 X36.444 Y103.836 E32.97247
G1 X35.212 Y103.514 E33.03584
G1 X35.158 Y103.499 E33.03863
G1 X33.976 Y103.054 E33.10148
G1 X32.814 Y102.477 E33.16605
G1 X31.717 Y101.782 E33.23068
G1 X30.678 Y100.963 E33.29651
G1 X29.769 Y100.076 E33.35972
G1 X28.936 Y99.080 E33.42434
G1 X28.195 Y97.986 E33.49009
G1 X27.612 Y96.887 E33.55200
G1 X27.587 Y96.842 E33.55457
G1 X27.237 Y95.984 E33.60068
G1 X26.685 Y95.897 E33.62849
G1 X26.574 Y95.879 E33.63409
G1 X25.292 Y95.226 E33.70569
G1 X24.273 Y94.206 E33.77744
G1 X23.674 Y93.031 E33.84307
G1 X23.620 Y92.926 E33.84895
G1 X23.395 Y91.500 E33.92079
G1 X23.619 Y90.076 E33.99253
G1 X24.219 Y88.898 E34.05832
G1 X24.275 Y88.791 E34.06433
G1 X25.292 Y87.773 E34.13594
G1 X26.576 Y87.119 E34.20765
G1 X27.233 Y87.015 E34.24075
G1 X27.320 Y86.763 E34.25402
G1 X27.863 Y85.600 E34.31789
G1 X28.530 Y84.488 E34.38243
G1 X29.287 Y83.472 E34.44548
G1 X29.321 Y83.426 E34.44832
G1 X30.186 Y82.494 E34.51160
G1 X31.156 Y81.636 E34.57605
G1 X31.402 Y81.460 E34.59110
G1 X31.402 Y28.541 E37.22464
G1 X31.187 Y28.388 E37.23778
G1 X30.223 Y27.542 E37.30160
G1 X29.339 Y26.591 E37.36622
G1 X28.544 Y25.536 E37.43196
G1 X27.875 Y24.423 E37.49658
G1 X27.324 Y23.247 E37.56121
G1 X27.233 Y22.984 E37.57506
G1 X26.576 Y22.880 E37.60817
G1 X25.397 Y22.280 E37.67400
G1 X25.290 Y22.224 E37.68001
G1 X24.273 Y21.207 E37.75159
G1 X23.674 Y20.030 E37.81731
G1 X23.620 Y19.926 E37.82314
G1 X23.413 Y18.618 E37.88905
G1 X23.414 Y18.618 E37.88909
G1 X23.395 Y18.501 E37.89499
G1 X23.619 Y17.076 E37.96678
G1 X24.273 Y15.793 E38.03845
G1 X25.292 Y14.773 E38.11020
G1 X26.576 Y14.119 E38.18191
G1 X27.237 Y14.015 E38.21521
G0 F5400 X26.952 Y13.656
G1 F1800 X27.224 Y12.991 E38.25096
G1 X27.852 Y11.808 E38.31762
G1 X28.600 Y10.698 E38.38423
G1 X29.457 Y9.670 E38.45083
G1 X30.395 Y8.755 E38.51604
G1 X31.442 Y7.923 E38.58260
G1 X32.570 Y7.202 E38.64922
G1 X33.766 Y6.601 E38.71583
G1 X35.018 Y6.127 E38.78245
G1 X36.261 Y5.796 E38.84647
G1 X36.324 Y5.778 E38.84973
G1 X37.635 Y5.575 E38.91575
G1 X38.916 Y5.506 E38.97959
G1 X38.983 Y5.501 E38.98293
G1 X40.307 Y5.569 E39.04891
G1 X41.628 Y5.771 E39.11541
G1 X42.922 Y6.109 E39.18197
G1 X44.201 Y6.588 E39.24994
G1 X45.400 Y7.187 E39.31664
G1 X46.529 Y7.907 E39.38328
G1 X47.282 Y8.503 E39.43107
G1 X77.995 Y8.503 E40.95952
G1 X77.995 Y14.922 E41.27896
G1 X78.447 Y17.779 E41.42291
G1 X79.723 Y20.284 E41.56281
G1 X81.715 Y22.275 E41.70297
G1 X84.222 Y23.553 E41.84301
G1 X87.016 Y23.994 E41.98378
G1 X95.820 Y24.004 E42.42191
G1 X96.997 Y24.004 E42.48049
G1 X96.997 Y85.995 E45.56550
G1 X87.189 Y85.995 E46.05360
G1 X87.039 Y86.001 E46.06107
G1 X84.219 Y86.447 E46.20315
G1 X81.716 Y87.722 E46.34294
G1 X79.724 Y89.715 E46.48317
G1 X78.446 Y92.221 E46.62317
G1 X78.070 Y94.609 E46.74347
G1 X77.995 Y95.040 E46.76524
G1 X77.995 Y101.497 E47.08658
G1 X47.522 Y101.509 E48.60308
G1 X47.266 Y101.509 E48.61582
G1 X46.549 Y102.076 E48.66131
G1 X45.423 Y102.797 E48.72785
G1 X44.227 Y103.398 E48.79446
G1 X42.974 Y103.872 E48.86113
G1 X41.731 Y104.203 E48.92515
G1 X41.668 Y104.221 E48.92841
G1 X40.360 Y104.425 E48.99429
G1 X39.078 Y104.494 E49.05818
G1 X39.011 Y104.499 E49.06152
G1 X37.660 Y104.429 E49.12885
G1 X36.363 Y104.227 E49.19417
G1 X35.105 Y103.899 E49.25887
G1 X35.031 Y103.877 E49.26271
G1 X33.817 Y103.420 E49.32726
