;Generated with Cura_SteamEngine 15.01
; Default start code
G28 ; Home extruder
G1 Z15 F500
M107 ; Turn off fan
G90 ; Absolute positioning
M82 ; Extruder in absolute mode
M190 S50
; Activate all used extruder
M104 T0 S195
G92 E0 ; Reset extruder position
; Wait for all used extruders to reach temperature
M109 T0 S195
;Layer count: 50
;LAYER:0
M107
G0 F5400 X25.225 Y24.570 Z0.300
;TYPE:SKIRT
G1 F1800 X24.860 Y24.971 E0.03382
G1 X24.509 Y25.445 E0.07060
G1 X24.232 Y25.905 E0.10408
G1 X23.986 Y26.425 E0.13996
G1 X23.790 Y26.968 E0.17596
G1 X23.654 Y27.510 E0.21081
G1 X23.575 Y28.049 E0.24478
G1 X23.544 Y28.638 E0.28156
G1 X23.571 Y29.178 E0.31528
G1 X23.657 Y29.765 E0.35228
G1 X23.789 Y30.295 E0.38634
G1 X23.979 Y30.825 E0.42145
G1 X24.218 Y31.335 E0.45658
G1 X24.506 Y31.817 E0.49159
G1 X24.850 Y32.283 E0.52772
G1 X25.228 Y32.699 E0.56277
G1 X25.643 Y33.077 E0.59778
G1 X26.094 Y33.410 E0.63274
G1 X26.585 Y33.706 E0.66849
G1 X27.077 Y33.938 E0.70241
G1 X27.610 Y34.130 E0.73774
G1 X28.179 Y34.274 E0.77435
G1 X28.710 Y34.352 E0.80782
G1 X29.299 Y34.383 E0.84460
G1 X29.860 Y34.355 E0.87963
G1 X30.411 Y34.273 E0.91437
G1 X30.950 Y34.139 E0.94901
G1 X31.492 Y33.946 E0.98488
G1 X32.005 Y33.705 E1.02023
G1 X32.485 Y33.417 E1.05514
G1 X32.944 Y33.077 E1.09076
G1 X33.351 Y32.707 E1.12506
G1 X33.728 Y32.294 E1.15994
G1 X34.079 Y31.821 E1.19667
G1 X34.365 Y31.346 E1.23125
G1 X34.604 Y30.839 E1.26620
G1 X34.792 Y30.312 E1.30110
G1 X34.929 Y29.771 E1.33590
G1 X35.017 Y29.190 E1.37254
G1 X35.044 Y28.632 E1.40738
G1 X35.017 Y28.087 E1.44141
G1 X34.932 Y27.508 E1.47791
G1 X34.800 Y26.977 E1.51203
G1 X34.604 Y26.427 E1.54844
G1 X34.365 Y25.920 E1.58340
G1 X34.084 Y25.452 E1.61744
G1 X33.747 Y24.995 E1.65285
G1 X33.357 Y24.564 E1.68910
G1 X32.945 Y24.189 E1.72384
G1 X32.485 Y23.849 E1.75952
G1 X32.017 Y23.569 E1.79353
G1 X31.499 Y23.323 E1.82929
G1 X30.975 Y23.135 E1.86401
G1 X30.409 Y22.992 E1.90041
G1 X29.878 Y22.914 E1.93388
G1 X29.282 Y22.883 E1.97110
G1 X28.725 Y22.911 E2.00588
G1 X28.190 Y22.990 E2.03961
G1 X27.627 Y23.130 E2.07579
G1 X27.084 Y23.325 E2.11177
G1 X26.603 Y23.551 E2.14491
G1 X26.096 Y23.854 E2.18174
G1 X25.656 Y24.180 E2.21589
G1 X25.225 Y24.570 E2.25214
G0 F5400 X24.867 Y24.220
G1 F1800 X24.470 Y24.657 E2.28896
G1 X24.099 Y25.156 E2.32774
G1 X23.789 Y25.672 E2.36528
G1 X23.525 Y26.230 E2.40377
G1 X23.310 Y26.825 E2.44323
G1 X23.165 Y27.405 E2.48051
G1 X23.076 Y28.013 E2.51883
G1 X23.043 Y28.643 E2.55818
G1 X23.072 Y29.224 E2.59445
G1 X23.165 Y29.860 E2.63454
G1 X23.311 Y30.443 E2.67202
G1 X23.515 Y31.014 E2.70983
G1 X23.773 Y31.564 E2.74772
G1 X24.092 Y32.098 E2.78651
G1 X24.465 Y32.604 E2.82571
G1 X24.874 Y33.053 E2.86359
G1 X25.325 Y33.464 E2.90164
G1 X25.810 Y33.822 E2.93923
G1 X26.348 Y34.147 E2.97843
G1 X26.886 Y34.400 E3.01551
G1 X27.469 Y34.610 E3.05415
G1 X28.072 Y34.763 E3.09295
G1 X28.674 Y34.851 E3.13089
G1 X29.298 Y34.885 E3.16986
G1 X29.897 Y34.854 E3.20727
G1 X30.513 Y34.763 E3.24610
G1 X31.097 Y34.617 E3.28364
G1 X31.674 Y34.412 E3.32183
G1 X32.240 Y34.146 E3.36083
G1 X32.773 Y33.826 E3.39960
G1 X33.262 Y33.464 E3.43754
G1 X33.700 Y33.067 E3.47441
G1 X34.123 Y32.603 E3.51356
G1 X34.485 Y32.115 E3.55145
G1 X34.808 Y31.578 E3.59053
G1 X35.069 Y31.023 E3.62878
G1 X35.271 Y30.461 E3.66602
G1 X35.421 Y29.864 E3.70441
G1 X35.514 Y29.250 E3.74314
G1 X35.544 Y28.633 E3.78166
G1 X35.515 Y28.031 E3.81925
G1 X35.425 Y27.415 E3.85807
G1 X35.278 Y26.830 E3.89569
G1 X35.068 Y26.239 E3.93480
G1 X34.806 Y25.684 E3.97308
G1 X34.499 Y25.172 E4.01031
G1 X34.135 Y24.679 E4.04852
G1 X33.707 Y24.206 E4.08830
G1 X33.263 Y23.802 E4.12574
G1 X32.769 Y23.437 E4.16404
G1 X32.251 Y23.126 E4.20172
G1 X31.688 Y22.859 E4.24058
G1 X31.121 Y22.656 E4.27814
G1 X30.516 Y22.503 E4.31706
G1 X29.914 Y22.415 E4.35500
G1 X29.283 Y22.381 E4.39441
G1 X28.689 Y22.412 E4.43150
G1 X28.088 Y22.500 E4.46938
G1 X27.477 Y22.653 E4.50866
G1 X26.899 Y22.859 E4.54693
G1 X26.364 Y23.111 E4.58381
G1 X25.815 Y23.440 E4.62372
G1 X25.343 Y23.789 E4.66033
G1 X24.867 Y24.220 E4.70037
G0 F5400 X24.519 Y23.860
G1 F1800 X24.085 Y24.338 E4.74064
G1 X23.681 Y24.881 E4.78284
G1 X23.348 Y25.436 E4.82321
G1 X23.064 Y26.035 E4.86455
G1 X22.831 Y26.682 E4.90743
G1 X22.673 Y27.310 E4.94782
G1 X22.579 Y27.949 E4.98810
G1 X22.542 Y28.640 E5.03125
G1 X22.574 Y29.279 E5.07115
G1 X22.673 Y29.956 E5.11382
G1 X22.832 Y30.588 E5.15446
G1 X23.053 Y31.206 E5.19539
G1 X23.331 Y31.799 E5.23623
G1 X23.674 Y32.373 E5.27793
G1 X24.078 Y32.921 E5.32039
G1 X24.520 Y33.407 E5.36136
G1 X25.008 Y33.851 E5.40251
G1 X25.535 Y34.241 E5.44339
G1 X26.106 Y34.585 E5.48496
G1 X26.702 Y34.866 E5.52606
G1 X27.319 Y35.088 E5.56695
G1 X27.976 Y35.255 E5.60922
G1 X28.618 Y35.349 E5.64969
G1 X29.296 Y35.385 E5.69203
G1 X29.954 Y35.352 E5.73311
G1 X30.609 Y35.255 E5.77441
G1 X31.241 Y35.096 E5.81505
G1 X31.866 Y34.874 E5.85641
G1 X32.480 Y34.586 E5.89871
G1 X33.044 Y34.247 E5.93974
G1 X33.580 Y33.851 E5.98130
G1 X34.058 Y33.416 E6.02161
G1 X34.503 Y32.928 E6.06279
G1 X34.907 Y32.385 E6.10500
G1 X35.250 Y31.814 E6.14654
G1 X35.530 Y31.219 E6.18755
G1 X35.750 Y30.606 E6.22817
G1 X35.911 Y29.967 E6.26926
G1 X36.013 Y29.289 E6.31202
G1 X36.045 Y28.632 E6.35304
G1 X36.014 Y27.987 E6.39331
G1 X35.916 Y27.319 E6.43541
G1 X35.757 Y26.686 E6.47612
G1 X35.529 Y26.044 E6.51860
G1 X35.250 Y25.452 E6.55942
G1 X34.917 Y24.897 E6.59978
G1 X34.519 Y24.357 E6.64161
G1 X34.067 Y23.858 E6.68360
G1 X33.580 Y23.415 E6.72466
G1 X33.045 Y23.019 E6.76617
G1 X32.491 Y22.687 E6.80645
G1 X31.875 Y22.395 E6.84896
G1 X31.267 Y22.177 E6.88924
G1 X30.612 Y22.011 E6.93138
G1 X29.971 Y21.917 E6.97178
G1 X29.284 Y21.881 E7.01468
G1 X29.281 Y21.881 E7.01487
G1 X28.633 Y21.914 E7.05533
G1 X27.995 Y22.008 E7.09555
G1 X27.329 Y22.174 E7.13835
G1 X26.712 Y22.395 E7.17922
G1 X26.125 Y22.671 E7.21968
G1 X25.540 Y23.022 E7.26222
G1 X25.020 Y23.407 E7.30257
G1 X24.519 Y23.860 E7.34469
G0 F5400 X24.166 Y23.505
G1 F1800 X23.699 Y24.019 E7.38800
G1 X23.262 Y24.607 E7.43369
G1 X22.906 Y25.200 E7.47682
G1 X22.600 Y25.846 E7.52140
G1 X22.353 Y26.531 E7.56681
G1 X22.181 Y27.217 E7.61092
G1 X22.081 Y27.896 E7.65372
G1 X22.042 Y28.633 E7.69974
G1 X22.076 Y29.331 E7.74332
G1 X22.181 Y30.049 E7.78858
G1 X22.354 Y30.739 E7.83294
G1 X22.589 Y31.394 E7.87634
G1 X22.888 Y32.033 E7.92033
G1 X23.258 Y32.652 E7.96531
G1 X23.686 Y33.232 E8.01026
G1 X24.166 Y33.761 E8.05480
G1 X24.690 Y34.238 E8.09899
G1 X25.256 Y34.656 E8.14287
G1 X25.877 Y35.031 E8.18811
G1 X26.502 Y35.325 E8.23119
G1 X27.178 Y35.569 E8.27601
G1 X27.878 Y35.746 E8.32103
G1 X28.561 Y35.846 E8.36408
G1 X29.294 Y35.885 E8.40986
G1 X30.010 Y35.849 E8.45457
G1 X30.701 Y35.747 E8.49813
G1 X31.385 Y35.576 E8.54210
G1 X32.064 Y35.334 E8.58705
G1 X32.711 Y35.030 E8.63163
G1 X33.320 Y34.665 E8.67591
G1 X33.893 Y34.241 E8.72036
G1 X33.895 Y34.239 E8.72054
G1 X34.412 Y33.770 E8.76407
G1 X34.889 Y33.247 E8.80821
G1 X35.326 Y32.659 E8.85390
G1 X35.689 Y32.054 E8.89790
G1 X35.996 Y31.404 E8.94273
G1 X36.230 Y30.750 E8.98605
G1 X36.403 Y30.061 E9.03035
G1 X36.511 Y29.341 E9.07575
G1 X36.545 Y28.633 E9.11996
G1 X36.511 Y27.930 E9.16385
G1 X36.409 Y27.230 E9.20796
G1 X36.236 Y26.540 E9.25232
G1 X35.992 Y25.853 E9.29779
G1 X35.689 Y25.212 E9.34201
G1 X35.330 Y24.614 E9.38550
G1 X34.911 Y24.045 E9.42957
G1 X34.422 Y23.505 E9.47500
G1 X33.898 Y23.028 E9.51919
G1 X33.320 Y22.601 E9.56401
G1 X32.727 Y22.245 E9.60714
G1 X32.065 Y21.931 E9.65283
G1 X31.413 Y21.698 E9.69601
G1 X30.710 Y21.520 E9.74124
G1 X30.027 Y21.420 E9.78428
G1 X29.296 Y21.381 E9.82994
G1 X29.284 Y21.380 E9.83069
G1 X28.576 Y21.417 E9.87490
G1 X27.903 Y21.516 E9.91732
G1 X27.179 Y21.696 E9.96385
G1 X26.519 Y21.933 E10.00758
G1 X25.894 Y22.227 E10.05065
G1 X25.265 Y22.604 E10.09639
G1 X24.704 Y23.018 E10.13987
G1 X24.166 Y23.505 E10.18512
G0 F5400 X20.955 Y19.657
G1 F1800 X21.922 Y18.847 E10.26379
G1 X22.967 Y18.141 E10.34244
G1 X24.079 Y17.547 E10.42106
G1 X24.179 Y17.505 E10.42782
G1 X24.052 Y16.701 E10.47858
G1 X24.040 Y16.637 E10.48264
G1 X24.249 Y15.319 E10.56586
G1 X24.824 Y14.190 E10.64488
G1 X24.854 Y14.132 E10.64895
G1 X25.794 Y13.192 E10.73185
G1 X26.919 Y12.619 E10.81059
G1 X26.979 Y12.588 E10.81480
G1 X28.294 Y12.380 E10.89782
G1 X29.608 Y12.588 E10.98079
G1 X30.737 Y13.163 E11.05980
G1 X30.795 Y13.193 E11.06387
G1 X31.735 Y14.133 E11.14678
G1 X32.308 Y15.258 E11.22551
G1 X32.339 Y15.318 E11.22972
G1 X32.547 Y16.633 E11.31275
G1 X32.517 Y16.819 E11.32450
G1 X32.720 Y16.867 E11.33751
G1 X33.887 Y17.272 E11.41454
G1 X35.030 Y17.805 E11.49319
G1 X36.112 Y18.452 E11.57181
G1 X37.143 Y19.223 E11.65210
G1 X38.050 Y20.062 E11.72915
G1 X38.885 Y21.007 E11.80779
G1 X39.156 Y21.383 E11.83670
G1 X61.544 Y21.383 E13.23287
G1 X61.544 Y85.883 E17.25527
G1 X35.546 Y85.883 E18.87658
G1 X35.546 Y76.812 E19.44227
G1 X35.538 Y76.593 E19.45594
G1 X35.066 Y73.620 E19.64366
G1 X33.692 Y70.923 E19.83243
G1 X33.682 Y70.904 E19.83376
G1 X31.523 Y68.745 E20.02418
G1 X28.827 Y67.371 E20.21288
G1 X28.807 Y67.361 E20.21428
G1 X26.046 Y66.925 E20.38859
G1 X26.046 Y66.881 E20.39134
G1 X20.044 Y66.881 E20.76564
G1 X20.044 Y36.653 E22.65074
G1 X19.326 Y35.748 E22.72278
G1 X18.647 Y34.686 E22.80139
G1 X18.081 Y33.559 E22.88004
G1 X17.624 Y32.355 E22.96035
G1 X17.313 Y31.171 E23.03669
G1 X17.303 Y31.138 E23.03884
G1 X17.113 Y29.915 E23.11603
G1 X17.046 Y28.668 E23.19391
G1 X17.043 Y28.634 E23.19604
G1 X17.109 Y27.370 E23.27497
G1 X17.299 Y26.149 E23.35203
G1 X17.616 Y24.928 E23.43070
G1 X18.069 Y23.724 E23.51092
G1 X18.621 Y22.619 E23.58795
G1 X19.296 Y21.552 E23.66669
G1 X20.093 Y20.542 E23.74693
G1 X20.955 Y19.657 E23.82397
G0 F5400 X20.614 Y19.290
G1 F1800 X21.621 Y18.447 E23.90587
G1 X22.708 Y17.712 E23.98770
G1 X23.628 Y17.221 E24.05274
G1 X23.557 Y16.771 E24.08115
G1 X23.533 Y16.645 E24.08915
G1 X23.768 Y15.162 E24.18278
G1 X24.379 Y13.961 E24.26682
G1 X24.446 Y13.833 E24.27583
G1 X25.497 Y12.783 E24.36847
G1 X26.688 Y12.176 E24.45184
G1 X26.820 Y12.107 E24.46113
G1 X28.151 Y11.896 E24.54517
G1 X28.293 Y11.874 E24.55413
G1 X29.765 Y12.107 E24.64707
G1 X30.966 Y12.718 E24.73110
G1 X31.094 Y12.785 E24.74011
G1 X32.144 Y13.836 E24.83276
G1 X32.751 Y15.027 E24.91613
G1 X32.820 Y15.159 E24.92541
G1 X33.023 Y16.443 E25.00648
G1 X34.075 Y16.808 E25.07592
G1 X35.265 Y17.363 E25.15781
G1 X36.391 Y18.036 E25.23962
G1 X37.413 Y18.800 E25.31919
G1 X37.464 Y18.838 E25.32316
G1 X38.408 Y19.712 E25.40339
G1 X39.276 Y20.695 E25.48517
G1 X39.411 Y20.883 E25.49960
G1 X84.174 Y20.883 E28.29115
G1 X84.286 Y20.726 E28.30317
G1 X85.160 Y19.730 E28.38581
G1 X86.124 Y18.838 E28.46772
G1 X87.174 Y18.050 E28.54959
G1 X88.299 Y17.374 E28.63144
G1 X89.488 Y16.817 E28.71332
G1 X90.565 Y16.443 E28.78442
G1 X90.768 Y15.162 E28.86530
G1 X91.379 Y13.961 E28.94933
G1 X91.446 Y13.833 E28.95834
G1 X92.497 Y12.783 E29.05099
G1 X93.823 Y12.107 E29.14381
G1 X95.151 Y11.896 E29.22767
G1 X95.293 Y11.874 E29.23663
G1 X96.623 Y12.084 E29.32060
G1 X96.765 Y12.107 E29.32957
G1 X98.091 Y12.783 E29.42239
G1 X99.144 Y13.836 E29.51526
G1 X99.751 Y15.027 E29.59862
G1 X99.820 Y15.159 E29.60791
G1 X100.053 Y16.633 E29.70097
G1 X99.960 Y17.220 E29.73804
G1 X100.858 Y17.697 E29.80145
G1 X101.947 Y18.430 E29.88331
G1 X102.955 Y19.272 E29.96522
G1 X103.852 Y20.193 E30.04540
G1 X104.686 Y21.240 E30.12887
G1 X105.376 Y22.327 E30.20917
G1 X105.965 Y23.498 E30.29091
G1 X106.441 Y24.751 E30.37450
G1 X106.753 Y25.941 E30.45122
G1 X106.774 Y26.012 E30.45584
G1 X106.973 Y27.293 E30.53668
G1 X107.040 Y28.545 E30.61487
G1 X107.046 Y28.619 E30.61950
G1 X106.979 Y29.916 E30.70049
G1 X106.779 Y31.211 E30.78221
G1 X106.449 Y32.482 E30.86410
G1 X105.978 Y33.735 E30.94758
G1 X105.391 Y34.911 E31.02955
G1 X104.686 Y36.018 E31.11139
G1 X104.044 Y36.830 E31.17595
G1 X104.044 Y67.381 E33.08119
G1 X97.858 Y67.381 E33.46697
G1 X94.938 Y67.842 E33.65132
G1 X92.362 Y69.154 E33.83161
G1 X90.316 Y71.200 E34.01205
G1 X89.003 Y73.777 E34.19242
G1 X88.552 Y76.630 E34.37255
G1 X88.541 Y86.383 E34.98077
G1 X35.046 Y86.383 E38.31687
G1 X35.046 Y76.812 E38.91374
G1 X35.040 Y76.648 E38.92398
G1 X34.584 Y73.775 E39.10539
G1 X33.273 Y71.201 E39.28553
G1 X31.227 Y69.155 E39.46598
G1 X28.650 Y67.842 E39.64634
G1 X25.730 Y67.381 E39.83070
G1 X19.544 Y67.381 E40.21647
G1 X19.544 Y36.828 E42.12184
G1 X18.919 Y36.039 E42.18461
G1 X18.212 Y34.933 E42.26647
G1 X17.623 Y33.760 E42.34833
G1 X17.147 Y32.508 E42.43186
G1 X16.835 Y31.318 E42.50858
G1 X16.814 Y31.247 E42.51320
G1 X16.615 Y29.967 E42.59398
G1 X16.548 Y28.715 E42.67217
G1 X16.542 Y28.641 E42.67680
G1 X16.611 Y27.319 E42.75936
G1 X16.809 Y26.048 E42.83958
G1 X17.139 Y24.777 E42.92147
G1 X17.610 Y23.524 E43.00495
G1 X18.185 Y22.373 E43.08518
G1 X18.887 Y21.263 E43.16709
G1 X19.716 Y20.212 E43.25057
G1 X20.614 Y19.290 E43.33083
G0 F5400 X20.274 Y18.923
G1 F1800 X21.320 Y18.048 E43.41588
G1 X22.450 Y17.283 E43.50098
G1 X23.079 Y16.947 E43.54545
G1 X23.063 Y16.849 E43.55164
G1 X23.025 Y16.653 E43.56409
G1 X23.286 Y15.006 E43.66808
G1 X23.935 Y13.732 E43.75725
G1 X24.038 Y13.534 E43.77117
G1 X25.199 Y12.373 E43.87356
G1 X26.468 Y11.727 E43.96236
G1 X26.661 Y11.626 E43.97595
G1 X28.073 Y11.402 E44.06511
G1 X28.073 Y11.403 E44.06517
G1 X28.293 Y11.367 E44.07907
G1 X29.921 Y11.625 E44.18186
G1 X31.195 Y12.274 E44.27103
G1 X31.393 Y12.377 E44.28495
G1 X32.554 Y13.538 E44.38734
G1 X33.194 Y14.796 E44.47536
G1 X33.301 Y15.000 E44.48973
G1 X33.471 Y16.069 E44.55723
G1 X34.263 Y16.344 E44.60952
G1 X35.499 Y16.920 E44.69456
G1 X36.670 Y17.620 E44.77964
G1 X37.712 Y18.399 E44.86077
G1 X37.785 Y18.454 E44.86647
G1 X38.766 Y19.362 E44.94983
G1 X39.667 Y20.382 E45.03470
G1 X39.668 Y20.383 E45.03479
G1 X83.922 Y20.383 E47.79459
G1 X84.801 Y19.381 E47.87772
G1 X85.803 Y18.454 E47.96285
G1 X86.894 Y17.635 E48.04792
G1 X88.064 Y16.932 E48.13304
G1 X89.299 Y16.354 E48.21808
G1 X90.118 Y16.069 E48.27216
G1 X90.286 Y15.006 E48.33927
G1 X90.935 Y13.732 E48.42844
G1 X91.038 Y13.534 E48.44236
G1 X92.199 Y12.373 E48.54475
G1 X93.667 Y11.625 E48.64750
G1 X95.073 Y11.402 E48.73628
G1 X95.073 Y11.403 E48.73634
G1 X95.293 Y11.367 E48.75024
G1 X96.702 Y11.591 E48.83921
G1 X96.922 Y11.626 E48.85310
G1 X98.389 Y12.373 E48.95577
G1 X99.554 Y13.538 E49.05851
G1 X100.194 Y14.796 E49.14654
G1 X100.301 Y15.000 E49.16090
G1 X100.560 Y16.633 E49.26401
G1 X100.510 Y16.946 E49.28378
G1 X101.115 Y17.268 E49.32652
G1 X102.247 Y18.030 E49.41162
G1 X103.295 Y18.905 E49.49676
G1 X104.228 Y19.862 E49.58011
G1 X105.094 Y20.950 E49.66683
G1 X105.812 Y22.080 E49.75032
G1 X106.424 Y23.297 E49.83527
G1 X106.918 Y24.598 E49.92206
G1 X107.236 Y25.812 E50.00032
G1 X107.263 Y25.903 E50.00624
G1 X107.471 Y27.241 E50.09069
G1 X107.538 Y28.505 E50.16962
G1 X107.547 Y28.612 E50.17632
G1 X107.477 Y29.967 E50.26093
G1 X107.270 Y31.312 E50.34580
G1 X106.926 Y32.633 E50.43093
G1 X106.437 Y33.936 E50.51772
G1 X105.826 Y35.158 E50.60292
G1 X105.094 Y36.308 E50.68794
G1 X104.544 Y37.003 E50.74321
G1 X104.544 Y67.881 E52.66885
G1 X97.896 Y67.881 E53.08343
G1 X95.095 Y68.323 E53.26027
G1 X92.660 Y69.564 E53.43071
G1 X90.726 Y71.498 E53.60128
G1 X89.485 Y73.934 E53.77177
G1 X89.052 Y76.670 E53.94452
G1 X89.042 Y85.453 E54.49225
G1 X89.042 Y86.883 E54.58143
G1 X34.546 Y86.883 E57.97995
G1 X34.546 Y76.831 E58.60682
G1 X34.541 Y76.697 E58.61518
G1 X34.103 Y73.932 E58.78977
G1 X32.863 Y71.499 E58.96007
G1 X30.929 Y69.565 E59.13063
G1 X28.494 Y68.324 E59.30107
G1 X25.691 Y67.881 E59.47804
G1 X19.044 Y67.881 E59.89257
G1 X19.044 Y37.002 E61.81827
G1 X18.511 Y36.330 E61.87176
G1 X17.777 Y35.181 E61.95678
G1 X17.164 Y33.962 E62.04188
G1 X16.670 Y32.661 E62.12866
G1 X16.355 Y31.458 E62.20621
G1 X16.325 Y31.356 E62.21284
G1 X16.117 Y30.019 E62.29723
G1 X16.050 Y28.755 E62.37616
G1 X16.041 Y28.648 E62.38286
G1 X16.113 Y27.267 E62.46910
G1 X16.318 Y25.946 E62.55247
G1 X16.662 Y24.626 E62.63753
G1 X17.151 Y23.323 E62.72433
G1 X17.749 Y22.127 E62.80772
G1 X18.478 Y20.974 E62.89279
G1 X19.340 Y19.881 E62.97960
G1 X20.274 Y18.923 E63.06304
G0 F5400 X19.934 Y18.556
G1 F1800 X21.018 Y17.648 E63.15122
G1 X22.191 Y16.854 E63.23955
G1 X22.521 Y16.678 E63.26288
